%
(1001)
N10 G90
(When using Fusion 360 for Personal Use, the feedrate of)
(rapid moves is reduced to match the feedrate of cutting)
(moves, which can increase machining time. Unrestricted rapid)
(moves are available with a Fusion 360 Subscription.)
N15 G28 G91 Z0
N20 G90

(2D Pocket3)
N25 T1
N30 M06
N35 S13000
N40 M04
N45 G90
N50 M08
N55 G00 X115.552 Y63.365
N60 Z15
N65 G01 Z5 F780
N70 Z2.5 F260
N75 Z-0.548
N80 Y63.358 Z-0.662
N85 Y63.337 Z-0.775
N90 Y63.303 Z-0.885
N95 Y63.255 Z-0.99
N100 Y63.196 Z-1.089
N105 Y63.125 Z-1.179
N110 Y63.044 Z-1.26
N115 Y62.953 Z-1.331
N120 Y62.855 Z-1.391
N125 Y62.75 Z-1.438
N130 Y62.64 Z-1.472
N135 Y62.527 Z-1.493
N140 Y62.412 Z-1.5
N145 G02 X112.507 I-1.522 F780
N150 X121.268 I4.38
N155 X106.792 I-7.238
N160 X121.268 I7.238
N165 X120.608 Y61.972 I-0.476
N170 G01 X116.212 Y63.804
N175 G03 X115.552 Y63.365 I-0.183 J-0.44
N180 G01 Z-2.047 F260
N185 Y63.358 Z-2.162
N190 Y63.337 Z-2.275
N195 Y63.303 Z-2.385
N200 Y63.255 Z-2.49
N205 Y63.196 Z-2.589
N210 Y63.125 Z-2.679
N215 Y63.044 Z-2.76
N220 Y62.953 Z-2.831
N225 Y62.855 Z-2.891
N230 Y62.75 Z-2.938
N235 Y62.64 Z-2.972
N240 Y62.527 Z-2.993
N245 Y62.412 Z-3
N250 G02 X112.507 I-1.522 F780
N255 X121.268 I4.38
N260 X106.792 I-7.238
N265 X121.268 I7.238
N270 X120.608 Y61.972 I-0.476
N275 G01 X116.212 Y63.804
N280 G03 X115.552 Y63.365 I-0.183 J-0.44
N285 G01 Z-3.547 F260
N290 Y63.358 Z-3.662
N295 Y63.337 Z-3.775
N300 Y63.303 Z-3.885
N305 Y63.255 Z-3.99
N310 Y63.196 Z-4.089
N315 Y63.125 Z-4.179
N320 Y63.044 Z-4.26
N325 Y62.953 Z-4.331
N330 Y62.855 Z-4.391
N335 Y62.75 Z-4.438
N340 Y62.64 Z-4.472
N345 Y62.527 Z-4.493
N350 Y62.412 Z-4.5
N355 G02 X112.507 I-1.522 F780
N360 X121.268 I4.38
N365 X106.792 I-7.238
N370 X121.268 I7.238
N375 X120.608 Y61.972 I-0.476
N380 G01 X116.212 Y63.804
N385 G03 X115.552 Y63.365 I-0.183 J-0.44
N390 G01 Z-5.048 F260
N395 Y63.358 Z-5.162
N400 Y63.337 Z-5.275
N405 Y63.303 Z-5.385
N410 Y63.255 Z-5.49
N415 Y63.196 Z-5.589
N420 Y63.125 Z-5.679
N425 Y63.044 Z-5.76
N430 Y62.953 Z-5.831
N435 Y62.855 Z-5.891
N440 Y62.75 Z-5.938
N445 Y62.64 Z-5.972
N450 Y62.527 Z-5.993
N455 Y62.412 Z-6
N460 G02 X112.507 I-1.522 F780
N465 X121.268 I4.38
N470 X106.792 I-7.238
N475 X121.268 I7.238
N480 X120.608 Y61.972 I-0.476
N485 G01 X116.212 Y63.804
N490 G03 X115.552 Y63.365 I-0.183 J-0.44
N495 G01 Z-6.548 F260
N500 Y63.358 Z-6.662
N505 Y63.337 Z-6.775
N510 Y63.303 Z-6.885
N515 Y63.255 Z-6.99
N520 Y63.196 Z-7.089
N525 Y63.125 Z-7.179
N530 Y63.044 Z-7.26
N535 Y62.953 Z-7.331
N540 Y62.855 Z-7.391
N545 Y62.75 Z-7.438
N550 Y62.64 Z-7.472
N555 Y62.527 Z-7.493
N560 Y62.412 Z-7.5
N565 G02 X112.507 I-1.522 F780
N570 X121.268 I4.38
N575 X106.792 I-7.238
N580 X121.268 I7.238
N585 X120.608 Y61.972 I-0.476
N590 G01 X116.212 Y63.804
N595 G03 X115.552 Y63.365 I-0.183 J-0.44
N600 G01 Z-8.047 F260
N605 Y63.358 Z-8.162
N610 Y63.337 Z-8.275
N615 Y63.303 Z-8.385
N620 Y63.255 Z-8.49
N625 Y63.196 Z-8.589
N630 Y63.125 Z-8.679
N635 Y63.044 Z-8.76
N640 Y62.953 Z-8.831
N645 Y62.855 Z-8.891
N650 Y62.75 Z-8.938
N655 Y62.64 Z-8.972
N660 Y62.527 Z-8.993
N665 Y62.412 Z-9
N670 G02 X112.507 I-1.522 F780
N675 X121.268 I4.38
N680 X106.792 I-7.238
N685 X121.268 I7.238
N690 X120.608 Y61.972 I-0.476
N695 G01 X116.212 Y63.804
N700 G03 X115.552 Y63.365 I-0.183 J-0.44
N705 G01 Z-9.547 F260
N710 Y63.358 Z-9.662
N715 Y63.337 Z-9.775
N720 Y63.303 Z-9.885
N725 Y63.255 Z-9.99
N730 Y63.196 Z-10.089
N735 Y63.125 Z-10.179
N740 Y63.044 Z-10.26
N745 Y62.953 Z-10.331
N750 Y62.855 Z-10.391
N755 Y62.75 Z-10.438
N760 Y62.64 Z-10.472
N765 Y62.527 Z-10.493
N770 Y62.412 Z-10.5
N775 G02 X112.507 I-1.522 F780
N780 X121.268 I4.38
N785 X106.792 I-7.238
N790 X121.268 I7.238
N795 X120.608 Y61.972 I-0.476
N800 G01 X116.212 Y63.804
N805 G03 X115.552 Y63.365 I-0.183 J-0.44
N810 G01 Z-11.047 F260
N815 Y63.358 Z-11.162
N820 Y63.337 Z-11.275
N825 Y63.303 Z-11.385
N830 Y63.255 Z-11.49
N835 Y63.196 Z-11.589
N840 Y63.125 Z-11.679
N845 Y63.044 Z-11.76
N850 Y62.953 Z-11.831
N855 Y62.855 Z-11.891
N860 Y62.75 Z-11.938
N865 Y62.64 Z-11.972
N870 Y62.527 Z-11.993
N875 Y62.412 Z-12
N880 G02 X112.507 I-1.522 F780
N885 X121.268 I4.38
N890 X106.792 I-7.238
N895 X121.268 I7.238
N900 X120.608 Y61.972 I-0.476
N905 G01 X116.212 Y63.804
N910 G03 X115.552 Y63.365 I-0.183 J-0.44
N915 G01 Z-12.547 F260
N920 Y63.358 Z-12.662
N925 Y63.337 Z-12.775
N930 Y63.303 Z-12.885
N935 Y63.255 Z-12.99
N940 Y63.196 Z-13.089
N945 Y63.125 Z-13.179
N950 Y63.044 Z-13.26
N955 Y62.953 Z-13.331
N960 Y62.855 Z-13.391
N965 Y62.75 Z-13.438
N970 Y62.64 Z-13.472
N975 Y62.527 Z-13.493
N980 Y62.412 Z-13.5
N985 G02 X112.507 I-1.522 F780
N990 X121.268 I4.38
N995 X106.792 I-7.238
N1000 X121.268 I7.238
N1005 X120.608 Y61.972 I-0.476
N1010 G01 X116.212 Y63.804
N1015 G03 X115.552 Y63.365 I-0.183 J-0.44
N1020 G01 Z-14.047 F260
N1025 Y63.358 Z-14.162
N1030 Y63.337 Z-14.275
N1035 Y63.303 Z-14.385
N1040 Y63.255 Z-14.49
N1045 Y63.196 Z-14.589
N1050 Y63.125 Z-14.679
N1055 Y63.044 Z-14.76
N1060 Y62.953 Z-14.831
N1065 Y62.855 Z-14.891
N1070 Y62.75 Z-14.938
N1075 Y62.64 Z-14.972
N1080 Y62.527 Z-14.993
N1085 Y62.412 Z-15
N1090 G02 X112.507 I-1.522 F780
N1095 X121.268 I4.38
N1100 X106.792 I-7.238
N1105 X121.268 I7.238
N1110 X120.608 Y61.972 I-0.476
N1115 G01 X116.212 Y63.804
N1120 G03 X115.552 Y63.365 I-0.183 J-0.44
N1125 G01 Z-15.547 F260
N1130 Y63.358 Z-15.662
N1135 Y63.337 Z-15.775
N1140 Y63.303 Z-15.885
N1145 Y63.255 Z-15.99
N1150 Y63.196 Z-16.089
N1155 Y63.125 Z-16.179
N1160 Y63.044 Z-16.26
N1165 Y62.953 Z-16.331
N1170 Y62.855 Z-16.391
N1175 Y62.75 Z-16.438
N1180 Y62.64 Z-16.472
N1185 Y62.527 Z-16.493
N1190 Y62.412 Z-16.5
N1195 G02 X112.507 I-1.522 F780
N1200 X121.268 I4.38
N1205 X106.792 I-7.238
N1210 X121.268 I7.238
N1215 X120.608 Y61.972 I-0.476
N1220 G01 X116.212 Y63.804
N1225 G03 X115.552 Y63.365 I-0.183 J-0.44
N1230 G01 Z-17.048 F260
N1235 Y63.358 Z-17.162
N1240 Y63.337 Z-17.275
N1245 Y63.303 Z-17.385
N1250 Y63.255 Z-17.49
N1255 Y63.196 Z-17.589
N1260 Y63.125 Z-17.679
N1265 Y63.044 Z-17.76
N1270 Y62.953 Z-17.831
N1275 Y62.855 Z-17.891
N1280 Y62.75 Z-17.938
N1285 Y62.64 Z-17.972
N1290 Y62.527 Z-17.993
N1295 Y62.412 Z-18
N1300 G02 X112.507 I-1.522 F780
N1305 X121.268 I4.38
N1310 X106.792 I-7.238
N1315 X121.268 I7.238
N1320 X120.608 Y61.972 I-0.476
N1325 G01 X116.212 Y63.804
N1330 G03 X115.552 Y63.365 I-0.183 J-0.44
N1335 G01 Z-18.548 F260
N1340 Y63.358 Z-18.662
N1345 Y63.337 Z-18.775
N1350 Y63.303 Z-18.885
N1355 Y63.255 Z-18.99
N1360 Y63.196 Z-19.089
N1365 Y63.125 Z-19.179
N1370 Y63.044 Z-19.26
N1375 Y62.953 Z-19.331
N1380 Y62.855 Z-19.391
N1385 Y62.75 Z-19.438
N1390 Y62.64 Z-19.472
N1395 Y62.527 Z-19.493
N1400 Y62.412 Z-19.5
N1405 G02 X112.507 I-1.522 F780
N1410 X121.268 I4.38
N1415 X106.792 I-7.238
N1420 X121.268 I7.238
N1425 G01 X121.26 Y62.289 Z-19.484
N1430 X121.236 Y62.168 Z-19.468
N1435 X121.2 Y62.059 Z-19.42
N1440 X121.151 Y61.955 Z-19.372
N1445 X121.099 Y61.871 Z-19.297
N1450 X121.039 Y61.793 Z-19.221
N1455 X120.988 Y61.738 Z-19.122
N1460 X120.932 Y61.687 Z-19.024
N1465 X120.857 Y61.629 Z-18.794
N1470 X120.83 Y61.611 Z-18.548
N1475 Z15
(When using Fusion 360 for Personal Use, the feedrate of)
(rapid moves is reduced to match the feedrate of cutting)
(moves, which can increase machining time. Unrestricted rapid)
(moves are available with a Fusion 360 Subscription.)

(2D Contour1)
N1480 G00 X13.078 Y4.792
N1485 G01 Z15 F78
N1490 Z5
N1495 Z1 F26
N1500 Z-0.548
N1505 Y4.799 Z-0.662 F78
N1510 Y4.82 Z-0.775
N1515 Y4.854 Z-0.885
N1520 Y4.901 Z-0.99
N1525 Y4.961 Z-1.089
N1530 Y5.032 Z-1.179
N1535 Y5.113 Z-1.26
N1540 Y5.204 Z-1.331
N1545 Y5.302 Z-1.391
N1550 Y5.407 Z-1.438
N1555 Y5.517 Z-1.472
N1560 Y5.63 Z-1.493
N1565 Y5.745 Z-1.5
N1570 Y6.697
N1575 G02 X14.031 Y7.65 I0.953
N1580 G01 X214.03
N1585 G03 X218.792 Y12.412 J4.762
N1590 G01 Y112.412
N1595 G03 X214.03 Y117.174 I-4.762
N1600 G01 X14.031
N1605 G03 X9.268 Y112.412 J-4.762
N1610 G01 Y12.412
N1615 G03 X14.031 Y7.65 I4.763
N1620 G02 X14.983 Y6.697 J-0.952
N1625 G01 Y5.745
N1630 Y5.63 Z-1.493
N1635 Y5.517 Z-1.472
N1640 Y5.407 Z-1.438
N1645 Y5.302 Z-1.391
N1650 Y5.204 Z-1.331
N1655 Y5.113 Z-1.26
N1660 Y5.032 Z-1.179
N1665 Y4.961 Z-1.089
N1670 Y4.901 Z-0.99
N1675 Y4.854 Z-0.885
N1680 Y4.82 Z-0.775
N1685 Y4.799 Z-0.662
N1690 Y4.792 Z-0.548
N1695 Z5
N1700 X13.078
N1705 Z-0.5 F26
N1710 Z-2.048
N1715 Y4.799 Z-2.162 F78
N1720 Y4.82 Z-2.275
N1725 Y4.854 Z-2.385
N1730 Y4.901 Z-2.49
N1735 Y4.961 Z-2.589
N1740 Y5.032 Z-2.679
N1745 Y5.113 Z-2.76
N1750 Y5.204 Z-2.831
N1755 Y5.302 Z-2.891
N1760 Y5.407 Z-2.938
N1765 Y5.517 Z-2.972
N1770 Y5.63 Z-2.993
N1775 Y5.745 Z-3
N1780 Y6.697
N1785 G02 X14.031 Y7.65 I0.953
N1790 G01 X214.03
N1795 G03 X218.792 Y12.412 J4.762
N1800 G01 Y112.412
N1805 G03 X214.03 Y117.174 I-4.762
N1810 G01 X14.031
N1815 G03 X9.268 Y112.412 J-4.762
N1820 G01 Y12.412
N1825 G03 X14.031 Y7.65 I4.763
N1830 G02 X14.983 Y6.697 J-0.952
N1835 G01 Y5.745
N1840 Y5.63 Z-2.993
N1845 Y5.517 Z-2.972
N1850 Y5.407 Z-2.938
N1855 Y5.302 Z-2.891
N1860 Y5.204 Z-2.831
N1865 Y5.113 Z-2.76
N1870 Y5.032 Z-2.679
N1875 Y4.961 Z-2.589
N1880 Y4.901 Z-2.49
N1885 Y4.854 Z-2.385
N1890 Y4.82 Z-2.275
N1895 Y4.799 Z-2.162
N1900 Y4.792 Z-2.048
N1905 Z5
N1910 X13.078
N1915 Z-2 F26
N1920 Z-3.548
N1925 Y4.799 Z-3.662 F78
N1930 Y4.82 Z-3.775
N1935 Y4.854 Z-3.885
N1940 Y4.901 Z-3.99
N1945 Y4.961 Z-4.089
N1950 Y5.032 Z-4.179
N1955 Y5.113 Z-4.26
N1960 Y5.204 Z-4.331
N1965 Y5.302 Z-4.391
N1970 Y5.407 Z-4.438
N1975 Y5.517 Z-4.472
N1980 Y5.63 Z-4.493
N1985 Y5.745 Z-4.5
N1990 Y6.697
N1995 G02 X14.031 Y7.65 I0.953
N2000 G01 X214.03
N2005 G03 X218.792 Y12.412 J4.762
N2010 G01 Y112.412
N2015 G03 X214.03 Y117.174 I-4.762
N2020 G01 X14.031
N2025 G03 X9.268 Y112.412 J-4.762
N2030 G01 Y12.412
N2035 G03 X14.031 Y7.65 I4.763
N2040 G02 X14.983 Y6.697 J-0.952
N2045 G01 Y5.745
N2050 Y5.63 Z-4.493
N2055 Y5.517 Z-4.472
N2060 Y5.407 Z-4.438
N2065 Y5.302 Z-4.391
N2070 Y5.204 Z-4.331
N2075 Y5.113 Z-4.26
N2080 Y5.032 Z-4.179
N2085 Y4.961 Z-4.089
N2090 Y4.901 Z-3.99
N2095 Y4.854 Z-3.885
N2100 Y4.82 Z-3.775
N2105 Y4.799 Z-3.662
N2110 Y4.792 Z-3.548
N2115 Z5
N2120 X13.078
N2125 Z-3.5 F26
N2130 Z-5.048
N2135 Y4.799 Z-5.162 F78
N2140 Y4.82 Z-5.275
N2145 Y4.854 Z-5.385
N2150 Y4.901 Z-5.49
N2155 Y4.961 Z-5.589
N2160 Y5.032 Z-5.679
N2165 Y5.113 Z-5.76
N2170 Y5.204 Z-5.831
N2175 Y5.302 Z-5.891
N2180 Y5.407 Z-5.938
N2185 Y5.517 Z-5.972
N2190 Y5.63 Z-5.993
N2195 Y5.745 Z-6
N2200 Y6.697
N2205 G02 X14.031 Y7.65 I0.953
N2210 G01 X214.03
N2215 G03 X218.792 Y12.412 J4.762
N2220 G01 Y112.412
N2225 G03 X214.03 Y117.174 I-4.762
N2230 G01 X14.031
N2235 G03 X9.268 Y112.412 J-4.762
N2240 G01 Y12.412
N2245 G03 X14.031 Y7.65 I4.763
N2250 G02 X14.983 Y6.697 J-0.952
N2255 G01 Y5.745
N2260 Y5.63 Z-5.993
N2265 Y5.517 Z-5.972
N2270 Y5.407 Z-5.938
N2275 Y5.302 Z-5.891
N2280 Y5.204 Z-5.831
N2285 Y5.113 Z-5.76
N2290 Y5.032 Z-5.679
N2295 Y4.961 Z-5.589
N2300 Y4.901 Z-5.49
N2305 Y4.854 Z-5.385
N2310 Y4.82 Z-5.275
N2315 Y4.799 Z-5.162
N2320 Y4.792 Z-5.048
N2325 Z5
N2330 X13.078
N2335 Z-5 F26
N2340 Z-6.548
N2345 Y4.799 Z-6.662 F78
N2350 Y4.82 Z-6.775
N2355 Y4.854 Z-6.885
N2360 Y4.901 Z-6.99
N2365 Y4.961 Z-7.089
N2370 Y5.032 Z-7.179
N2375 Y5.113 Z-7.26
N2380 Y5.204 Z-7.331
N2385 Y5.302 Z-7.391
N2390 Y5.407 Z-7.438
N2395 Y5.517 Z-7.472
N2400 Y5.63 Z-7.493
N2405 Y5.745 Z-7.5
N2410 Y6.697
N2415 G02 X14.031 Y7.65 I0.953
N2420 G01 X214.03
N2425 G03 X218.792 Y12.412 J4.762
N2430 G01 Y112.412
N2435 G03 X214.03 Y117.174 I-4.762
N2440 G01 X14.031
N2445 G03 X9.268 Y112.412 J-4.762
N2450 G01 Y12.412
N2455 G03 X14.031 Y7.65 I4.763
N2460 G02 X14.983 Y6.697 J-0.952
N2465 G01 Y5.745
N2470 Y5.63 Z-7.493
N2475 Y5.517 Z-7.472
N2480 Y5.407 Z-7.438
N2485 Y5.302 Z-7.391
N2490 Y5.204 Z-7.331
N2495 Y5.113 Z-7.26
N2500 Y5.032 Z-7.179
N2505 Y4.961 Z-7.089
N2510 Y4.901 Z-6.99
N2515 Y4.854 Z-6.885
N2520 Y4.82 Z-6.775
N2525 Y4.799 Z-6.662
N2530 Y4.792 Z-6.548
N2535 Z5
N2540 X13.078
N2545 Z-6.5 F26
N2550 Z-8.048
N2555 Y4.799 Z-8.162 F78
N2560 Y4.82 Z-8.275
N2565 Y4.854 Z-8.385
N2570 Y4.901 Z-8.49
N2575 Y4.961 Z-8.589
N2580 Y5.032 Z-8.679
N2585 Y5.113 Z-8.76
N2590 Y5.204 Z-8.831
N2595 Y5.302 Z-8.891
N2600 Y5.407 Z-8.938
N2605 Y5.517 Z-8.972
N2610 Y5.63 Z-8.993
N2615 Y5.745 Z-9
N2620 Y6.697
N2625 G02 X14.031 Y7.65 I0.953
N2630 G01 X214.03
N2635 G03 X218.792 Y12.412 J4.762
N2640 G01 Y112.412
N2645 G03 X214.03 Y117.174 I-4.762
N2650 G01 X14.031
N2655 G03 X9.268 Y112.412 J-4.762
N2660 G01 Y12.412
N2665 G03 X14.031 Y7.65 I4.763
N2670 G02 X14.983 Y6.697 J-0.952
N2675 G01 Y5.745
N2680 Y5.63 Z-8.993
N2685 Y5.517 Z-8.972
N2690 Y5.407 Z-8.938
N2695 Y5.302 Z-8.891
N2700 Y5.204 Z-8.831
N2705 Y5.113 Z-8.76
N2710 Y5.032 Z-8.679
N2715 Y4.961 Z-8.589
N2720 Y4.901 Z-8.49
N2725 Y4.854 Z-8.385
N2730 Y4.82 Z-8.275
N2735 Y4.799 Z-8.162
N2740 Y4.792 Z-8.048
N2745 Z5
N2750 X13.078
N2755 Z-8 F26
N2760 Z-9.548
N2765 Y4.799 Z-9.662 F78
N2770 Y4.82 Z-9.775
N2775 Y4.854 Z-9.885
N2780 Y4.901 Z-9.99
N2785 Y4.961 Z-10.089
N2790 Y5.032 Z-10.179
N2795 Y5.113 Z-10.26
N2800 Y5.204 Z-10.331
N2805 Y5.302 Z-10.391
N2810 Y5.407 Z-10.438
N2815 Y5.517 Z-10.472
N2820 Y5.63 Z-10.493
N2825 Y5.745 Z-10.5
N2830 Y6.697
N2835 G02 X14.031 Y7.65 I0.953
N2840 G01 X214.03
N2845 G03 X218.792 Y12.412 J4.762
N2850 G01 Y112.412
N2855 G03 X214.03 Y117.174 I-4.762
N2860 G01 X14.031
N2865 G03 X9.268 Y112.412 J-4.762
N2870 G01 Y12.412
N2875 G03 X14.031 Y7.65 I4.763
N2880 G02 X14.983 Y6.697 J-0.952
N2885 G01 Y5.745
N2890 Y5.63 Z-10.493
N2895 Y5.517 Z-10.472
N2900 Y5.407 Z-10.438
N2905 Y5.302 Z-10.391
N2910 Y5.204 Z-10.331
N2915 Y5.113 Z-10.26
N2920 Y5.032 Z-10.179
N2925 Y4.961 Z-10.089
N2930 Y4.901 Z-9.99
N2935 Y4.854 Z-9.885
N2940 Y4.82 Z-9.775
N2945 Y4.799 Z-9.662
N2950 Y4.792 Z-9.548
N2955 Z5
N2960 X13.078
N2965 Z-9.5 F26
N2970 Z-11.048
N2975 Y4.799 Z-11.162 F78
N2980 Y4.82 Z-11.275
N2985 Y4.854 Z-11.385
N2990 Y4.901 Z-11.49
N2995 Y4.961 Z-11.589
N3000 Y5.032 Z-11.679
N3005 Y5.113 Z-11.76
N3010 Y5.204 Z-11.831
N3015 Y5.302 Z-11.891
N3020 Y5.407 Z-11.938
N3025 Y5.517 Z-11.972
N3030 Y5.63 Z-11.993
N3035 Y5.745 Z-12
N3040 Y6.697
N3045 G02 X14.031 Y7.65 I0.953
N3050 G01 X214.03
N3055 G03 X218.792 Y12.412 J4.762
N3060 G01 Y112.412
N3065 G03 X214.03 Y117.174 I-4.762
N3070 G01 X14.031
N3075 G03 X9.268 Y112.412 J-4.762
N3080 G01 Y12.412
N3085 G03 X14.031 Y7.65 I4.763
N3090 G02 X14.983 Y6.697 J-0.952
N3095 G01 Y5.745
N3100 Y5.63 Z-11.993
N3105 Y5.517 Z-11.972
N3110 Y5.407 Z-11.938
N3115 Y5.302 Z-11.891
N3120 Y5.204 Z-11.831
N3125 Y5.113 Z-11.76
N3130 Y5.032 Z-11.679
N3135 Y4.961 Z-11.589
N3140 Y4.901 Z-11.49
N3145 Y4.854 Z-11.385
N3150 Y4.82 Z-11.275
N3155 Y4.799 Z-11.162
N3160 Y4.792 Z-11.048
N3165 Z5
N3170 X13.078
N3175 Z-11 F26
N3180 Z-12.548
N3185 Y4.799 Z-12.662 F78
N3190 Y4.82 Z-12.775
N3195 Y4.854 Z-12.885
N3200 Y4.901 Z-12.99
N3205 Y4.961 Z-13.089
N3210 Y5.032 Z-13.179
N3215 Y5.113 Z-13.26
N3220 Y5.204 Z-13.331
N3225 Y5.302 Z-13.391
N3230 Y5.407 Z-13.438
N3235 Y5.517 Z-13.472
N3240 Y5.63 Z-13.493
N3245 Y5.745 Z-13.5
N3250 Y6.697
N3255 G02 X14.031 Y7.65 I0.953
N3260 G01 X214.03
N3265 G03 X218.792 Y12.412 J4.762
N3270 G01 Y112.412
N3275 G03 X214.03 Y117.174 I-4.762
N3280 G01 X14.031
N3285 G03 X9.268 Y112.412 J-4.762
N3290 G01 Y12.412
N3295 G03 X14.031 Y7.65 I4.763
N3300 G02 X14.983 Y6.697 J-0.952
N3305 G01 Y5.745
N3310 Y5.63 Z-13.493
N3315 Y5.517 Z-13.472
N3320 Y5.407 Z-13.438
N3325 Y5.302 Z-13.391
N3330 Y5.204 Z-13.331
N3335 Y5.113 Z-13.26
N3340 Y5.032 Z-13.179
N3345 Y4.961 Z-13.089
N3350 Y4.901 Z-12.99
N3355 Y4.854 Z-12.885
N3360 Y4.82 Z-12.775
N3365 Y4.799 Z-12.662
N3370 Y4.792 Z-12.548
N3375 Z5
N3380 X13.078
N3385 Z-12.5 F26
N3390 Z-14.048
N3395 Y4.799 Z-14.162 F78
N3400 Y4.82 Z-14.275
N3405 Y4.854 Z-14.385
N3410 Y4.901 Z-14.49
N3415 Y4.961 Z-14.589
N3420 Y5.032 Z-14.679
N3425 Y5.113 Z-14.76
N3430 Y5.204 Z-14.831
N3435 Y5.302 Z-14.891
N3440 Y5.407 Z-14.938
N3445 Y5.517 Z-14.972
N3450 Y5.63 Z-14.993
N3455 Y5.745 Z-15
N3460 Y6.697
N3465 G02 X14.031 Y7.65 I0.953
N3470 G01 X214.03
N3475 G03 X218.792 Y12.412 J4.762
N3480 G01 Y112.412
N3485 G03 X214.03 Y117.174 I-4.762
N3490 G01 X14.031
N3495 G03 X9.268 Y112.412 J-4.762
N3500 G01 Y12.412
N3505 G03 X14.031 Y7.65 I4.763
N3510 G02 X14.983 Y6.697 J-0.952
N3515 G01 Y5.745
N3520 Y5.63 Z-14.993
N3525 Y5.517 Z-14.972
N3530 Y5.407 Z-14.938
N3535 Y5.302 Z-14.891
N3540 Y5.204 Z-14.831
N3545 Y5.113 Z-14.76
N3550 Y5.032 Z-14.679
N3555 Y4.961 Z-14.589
N3560 Y4.901 Z-14.49
N3565 Y4.854 Z-14.385
N3570 Y4.82 Z-14.275
N3575 Y4.799 Z-14.162
N3580 Y4.792 Z-14.048
N3585 Z5
N3590 X13.078
N3595 Z-14 F26
N3600 Z-15.548
N3605 Y4.799 Z-15.662 F78
N3610 Y4.82 Z-15.775
N3615 Y4.854 Z-15.885
N3620 Y4.901 Z-15.99
N3625 Y4.961 Z-16.089
N3630 Y5.032 Z-16.179
N3635 Y5.113 Z-16.26
N3640 Y5.204 Z-16.331
N3645 Y5.302 Z-16.391
N3650 Y5.407 Z-16.438
N3655 Y5.517 Z-16.472
N3660 Y5.63 Z-16.493
N3665 Y5.745 Z-16.5
N3670 Y6.697
N3675 G02 X14.031 Y7.65 I0.953
N3680 G01 X214.03
N3685 G03 X218.792 Y12.412 J4.762
N3690 G01 Y112.412
N3695 G03 X214.03 Y117.174 I-4.762
N3700 G01 X14.031
N3705 G03 X9.268 Y112.412 J-4.762
N3710 G01 Y12.412
N3715 G03 X14.031 Y7.65 I4.763
N3720 G02 X14.983 Y6.697 J-0.952
N3725 G01 Y5.745
N3730 Y5.63 Z-16.493
N3735 Y5.517 Z-16.472
N3740 Y5.407 Z-16.438
N3745 Y5.302 Z-16.391
N3750 Y5.204 Z-16.331
N3755 Y5.113 Z-16.26
N3760 Y5.032 Z-16.179
N3765 Y4.961 Z-16.089
N3770 Y4.901 Z-15.99
N3775 Y4.854 Z-15.885
N3780 Y4.82 Z-15.775
N3785 Y4.799 Z-15.662
N3790 Y4.792 Z-15.548
N3795 Z5
N3800 X13.078
N3805 Z-15.5 F26
N3810 Z-17.048
N3815 Y4.799 Z-17.162 F78
N3820 Y4.82 Z-17.275
N3825 Y4.854 Z-17.385
N3830 Y4.901 Z-17.49
N3835 Y4.961 Z-17.589
N3840 Y5.032 Z-17.679
N3845 Y5.113 Z-17.76
N3850 Y5.204 Z-17.831
N3855 Y5.302 Z-17.891
N3860 Y5.407 Z-17.938
N3865 Y5.517 Z-17.972
N3870 Y5.63 Z-17.993
N3875 Y5.745 Z-18
N3880 Y6.697
N3885 G02 X14.031 Y7.65 I0.953
N3890 G01 X54.506
N3895 Z-17.619
N3900 X73.555
N3905 Z-18 F26
N3910 X214.03 F78
N3915 G03 X218.792 Y12.412 J4.762
N3920 G01 Y112.412
N3925 G03 X214.03 Y117.174 I-4.762
N3930 G01 X173.555
N3935 Z-17.619
N3940 X154.505
N3945 Z-18 F26
N3950 X14.031 F78
N3955 G03 X9.268 Y112.412 J-4.762
N3960 G01 Y12.412
N3965 G03 X14.031 Y7.65 I4.763
N3970 G02 X14.983 Y6.697 J-0.952
N3975 G01 Y5.745
N3980 Y5.63 Z-17.993
N3985 Y5.517 Z-17.972
N3990 Y5.407 Z-17.938
N3995 Y5.302 Z-17.891
N4000 Y5.204 Z-17.831
N4005 Y5.113 Z-17.76
N4010 Y5.032 Z-17.679
N4015 Y4.961 Z-17.589
N4020 Y4.901 Z-17.49
N4025 Y4.854 Z-17.385
N4030 Y4.82 Z-17.275
N4035 Y4.799 Z-17.162
N4040 Y4.792 Z-17.048
N4045 Z5
N4050 X13.078
N4055 Z-17 F26
N4060 Z-18.548
N4065 Y4.799 Z-18.662 F78
N4070 Y4.82 Z-18.775
N4075 Y4.854 Z-18.885
N4080 Y4.901 Z-18.99
N4085 Y4.961 Z-19.089
N4090 Y5.032 Z-19.179
N4095 Y5.113 Z-19.26
N4100 Y5.204 Z-19.331
N4105 Y5.302 Z-19.391
N4110 Y5.407 Z-19.438
N4115 Y5.517 Z-19.472
N4120 Y5.63 Z-19.493
N4125 Y5.745 Z-19.5
N4130 Y6.697
N4135 G02 X14.031 Y7.65 I0.953
N4140 G01 X54.506
N4145 Z-17.619
N4150 X73.555
N4155 Z-19.5 F26
N4160 X214.03 F78
N4165 G03 X218.792 Y12.412 J4.762
N4170 G01 Y112.412
N4175 G03 X214.03 Y117.174 I-4.762
N4180 G01 X173.555
N4185 Z-17.619
N4190 X154.505
N4195 Z-19.5 F26
N4200 X14.031 F78
N4205 G03 X9.268 Y112.412 J-4.762
N4210 G01 Y12.412
N4215 G03 X14.031 Y7.65 I4.763
N4220 G02 X14.983 Y6.697 J-0.952
N4225 G01 Y5.745
N4230 Y5.63 Z-19.493
N4235 Y5.517 Z-19.472
N4240 Y5.407 Z-19.438
N4245 Y5.302 Z-19.391
N4250 Y5.204 Z-19.331
N4255 Y5.113 Z-19.26
N4260 Y5.032 Z-19.179
N4265 Y4.961 Z-19.089
N4270 Y4.901 Z-18.99
N4275 Y4.854 Z-18.885
N4280 Y4.82 Z-18.775
N4285 Y4.799 Z-18.662
N4290 Y4.792 Z-18.548
N4295 Z5
N4300 X13.078
N4305 Z-18.5 F26
N4310 Z-19.048
N4315 Y4.799 Z-19.162 F78
N4320 Y4.82 Z-19.275
N4325 Y4.854 Z-19.385
N4330 Y4.901 Z-19.49
N4335 Y4.961 Z-19.589
N4340 Y5.032 Z-19.679
N4345 Y5.113 Z-19.76
N4350 Y5.204 Z-19.831
N4355 Y5.302 Z-19.891
N4360 Y5.407 Z-19.938
N4365 Y5.517 Z-19.972
N4370 Y5.63 Z-19.993
N4375 Y5.745 Z-20
N4380 Y6.697
N4385 G02 X14.031 Y7.65 I0.953
N4390 G01 X54.506
N4395 Z-17.619
N4400 X73.555
N4405 Z-20 F26
N4410 X214.03 F78
N4415 G03 X218.792 Y12.412 J4.762
N4420 G01 Y112.412
N4425 G03 X214.03 Y117.174 I-4.762
N4430 G01 X173.555
N4435 Z-17.619
N4440 X154.505
N4445 Z-20 F26
N4450 X14.031 F78
N4455 G03 X9.268 Y112.412 J-4.762
N4460 G01 Y12.412
N4465 G03 X14.031 Y7.65 I4.763
N4470 G02 X14.983 Y6.697 J-0.952
N4475 G01 Y5.745
N4480 Y5.63 Z-19.993
N4485 Y5.517 Z-19.972
N4490 Y5.407 Z-19.938
N4495 Y5.302 Z-19.891
N4500 Y5.204 Z-19.831
N4505 Y5.113 Z-19.76
N4510 Y5.032 Z-19.679
N4515 Y4.961 Z-19.589
N4520 Y4.901 Z-19.49
N4525 Y4.854 Z-19.385
N4530 Y4.82 Z-19.275
N4535 Y4.799 Z-19.162
N4540 Y4.792 Z-19.048
N4545 Z15
N4550 M09
N4555 G28 G91 Z0
N4560 G90
N4565 M30
%
