%
(1002)
(T1 D=9.525 CR=0 - ZMIN=-20 - flat end mill)
G21
N10 G90
(When using Fusion 360 for Personal Use, the feedrate of)
(rapid moves is reduced to match the feedrate of cutting)
(moves, which can increase machining time. Unrestricted rapid)
(moves are available with a Fusion 360 Subscription.)
N15 G28 G91 Z0
N20 G90

(2D Contour1)
N25 T1
N30 M06
N35 S13000
N40 M04
N45 G90
N50 G00 X13.078 Y4.792
N55 Z15
N60 G01 Z5 F780
N65 Z1 F260
N70 Z-3.048
N75 Y4.799 Z-3.162 F780
N80 Y4.82 Z-3.275
N85 Y4.854 Z-3.385
N90 Y4.901 Z-3.49
N95 Y4.961 Z-3.589
N100 Y5.032 Z-3.679
N105 Y5.113 Z-3.76
N110 Y5.204 Z-3.831
N115 Y5.302 Z-3.891
N120 Y5.407 Z-3.938
N125 Y5.517 Z-3.972
N130 Y5.63 Z-3.993
N135 Y5.745 Z-4
N140 Y6.697
N145 G02 X14.031 Y7.65 I0.953
N150 G01 X214.03
N155 G03 X218.792 Y12.412 J4.762
N160 G01 Y112.412
N165 G03 X214.03 Y117.174 I-4.762
N170 G01 X14.031
N175 G03 X9.268 Y112.412 J-4.762
N180 G01 Y12.412
N185 G03 X14.031 Y7.65 I4.763
N190 G02 X14.983 Y6.697 J-0.952
N195 G01 Y5.745
N200 Y5.63 Z-3.993
N205 Y5.517 Z-3.972
N210 Y5.407 Z-3.938
N215 Y5.302 Z-3.891
N220 Y5.204 Z-3.831
N225 Y5.113 Z-3.76
N230 Y5.032 Z-3.679
N235 Y4.961 Z-3.589
N240 Y4.901 Z-3.49
N245 Y4.854 Z-3.385
N250 Y4.82 Z-3.275
N255 Y4.799 Z-3.162
N260 Y4.792 Z-3.048
N265 Z5
N270 X13.078
N275 Z-3 F260
N280 Z-7.048
N285 Y4.799 Z-7.162 F780
N290 Y4.82 Z-7.275
N295 Y4.854 Z-7.385
N300 Y4.901 Z-7.49
N305 Y4.961 Z-7.589
N310 Y5.032 Z-7.679
N315 Y5.113 Z-7.76
N320 Y5.204 Z-7.831
N325 Y5.302 Z-7.891
N330 Y5.407 Z-7.938
N335 Y5.517 Z-7.972
N340 Y5.63 Z-7.993
N345 Y5.745 Z-8
N350 Y6.697
N355 G02 X14.031 Y7.65 I0.953
N360 G01 X214.03
N365 G03 X218.792 Y12.412 J4.762
N370 G01 Y112.412
N375 G03 X214.03 Y117.174 I-4.762
N380 G01 X14.031
N385 G03 X9.268 Y112.412 J-4.762
N390 G01 Y12.412
N395 G03 X14.031 Y7.65 I4.763
N400 G02 X14.983 Y6.697 J-0.952
N405 G01 Y5.745
N410 Y5.63 Z-7.993
N415 Y5.517 Z-7.972
N420 Y5.407 Z-7.938
N425 Y5.302 Z-7.891
N430 Y5.204 Z-7.831
N435 Y5.113 Z-7.76
N440 Y5.032 Z-7.679
N445 Y4.961 Z-7.589
N450 Y4.901 Z-7.49
N455 Y4.854 Z-7.385
N460 Y4.82 Z-7.275
N465 Y4.799 Z-7.162
N470 Y4.792 Z-7.048
N475 Z5
N480 X13.078
N485 Z-7 F260
N490 Z-11.048
N495 Y4.799 Z-11.162 F780
N500 Y4.82 Z-11.275
N505 Y4.854 Z-11.385
N510 Y4.901 Z-11.49
N515 Y4.961 Z-11.589
N520 Y5.032 Z-11.679
N525 Y5.113 Z-11.76
N530 Y5.204 Z-11.831
N535 Y5.302 Z-11.891
N540 Y5.407 Z-11.938
N545 Y5.517 Z-11.972
N550 Y5.63 Z-11.993
N555 Y5.745 Z-12
N560 Y6.697
N565 G02 X14.031 Y7.65 I0.953
N570 G01 X214.03
N575 G03 X218.792 Y12.412 J4.762
N580 G01 Y112.412
N585 G03 X214.03 Y117.174 I-4.762
N590 G01 X14.031
N595 G03 X9.268 Y112.412 J-4.762
N600 G01 Y12.412
N605 G03 X14.031 Y7.65 I4.763
N610 G02 X14.983 Y6.697 J-0.952
N615 G01 Y5.745
N620 Y5.63 Z-11.993
N625 Y5.517 Z-11.972
N630 Y5.407 Z-11.938
N635 Y5.302 Z-11.891
N640 Y5.204 Z-11.831
N645 Y5.113 Z-11.76
N650 Y5.032 Z-11.679
N655 Y4.961 Z-11.589
N660 Y4.901 Z-11.49
N665 Y4.854 Z-11.385
N670 Y4.82 Z-11.275
N675 Y4.799 Z-11.162
N680 Y4.792 Z-11.048
N685 Z5
N690 X13.078
N695 Z-11 F260
N700 Z-15.048
N705 Y4.799 Z-15.162 F780
N710 Y4.82 Z-15.275
N715 Y4.854 Z-15.385
N720 Y4.901 Z-15.49
N725 Y4.961 Z-15.589
N730 Y5.032 Z-15.679
N735 Y5.113 Z-15.76
N740 Y5.204 Z-15.831
N745 Y5.302 Z-15.891
N750 Y5.407 Z-15.938
N755 Y5.517 Z-15.972
N760 Y5.63 Z-15.993
N765 Y5.745 Z-16
N770 Y6.697
N775 G02 X14.031 Y7.65 I0.953
N780 G01 X214.03
N785 G03 X218.792 Y12.412 J4.762
N790 G01 Y112.412
N795 G03 X214.03 Y117.174 I-4.762
N800 G01 X14.031
N805 G03 X9.268 Y112.412 J-4.762
N810 G01 Y12.412
N815 G03 X14.031 Y7.65 I4.763
N820 G02 X14.983 Y6.697 J-0.952
N825 G01 Y5.745
N830 Y5.63 Z-15.993
N835 Y5.517 Z-15.972
N840 Y5.407 Z-15.938
N845 Y5.302 Z-15.891
N850 Y5.204 Z-15.831
N855 Y5.113 Z-15.76
N860 Y5.032 Z-15.679
N865 Y4.961 Z-15.589
N870 Y4.901 Z-15.49
N875 Y4.854 Z-15.385
N880 Y4.82 Z-15.275
N885 Y4.799 Z-15.162
N890 Y4.792 Z-15.048
N895 Z5
N900 X13.078
N905 Z-15 F260
N910 Z-19.048
N915 Y4.799 Z-19.162 F780
N920 Y4.82 Z-19.275
N925 Y4.854 Z-19.385
N930 Y4.901 Z-19.49
N935 Y4.961 Z-19.589
N940 Y5.032 Z-19.679
N945 Y5.113 Z-19.76
N950 Y5.204 Z-19.831
N955 Y5.302 Z-19.891
N960 Y5.407 Z-19.938
N965 Y5.517 Z-19.972
N970 Y5.63 Z-19.993
N975 Y5.745 Z-20
N980 Y6.697
N985 G02 X14.031 Y7.65 I0.953
N990 G01 X54.506
N995 Z-17.619
N1000 X73.555
N1005 Z-20 F260
N1010 X214.03 F780
N1015 G03 X218.792 Y12.412 J4.762
N1020 G01 Y112.412
N1025 G03 X214.03 Y117.174 I-4.762
N1030 G01 X173.555
N1035 Z-17.619
N1040 X154.505
N1045 Z-20 F260
N1050 X14.031 F780
N1055 G03 X9.268 Y112.412 J-4.762
N1060 G01 Y12.412
N1065 G03 X14.031 Y7.65 I4.763
N1070 G02 X14.983 Y6.697 J-0.952
N1075 G01 Y5.745
N1080 Y5.63 Z-19.993
N1085 Y5.517 Z-19.972
N1090 Y5.407 Z-19.938
N1095 Y5.302 Z-19.891
N1100 Y5.204 Z-19.831
N1105 Y5.113 Z-19.76
N1110 Y5.032 Z-19.679
N1115 Y4.961 Z-19.589
N1120 Y4.901 Z-19.49
N1125 Y4.854 Z-19.385
N1130 Y4.82 Z-19.275
N1135 Y4.799 Z-19.162
N1140 Y4.792 Z-19.048
N1145 Z15
N1150 G28 G91 Z0
N1155 G90
N1160 M30
%
