%
(1001)
N10 G90
G21
(When using Fusion 360 for Personal Use, the feedrate of)
(rapid moves is reduced to match the feedrate of cutting)
(moves, which can increase machining time. Unrestricted rapid)
(moves are available with a Fusion 360 Subscription.)
N15 G28 G91 Z0
N20 G90

(2D Pocket5)
N25 T1
N30 M06
N35 S5000
N40 M04
N45 G90
N50 M08
N55 G00 X-351.054 Y-29.735
N60 Z35
N65 G01 Z25 F1000
N70 Z22.5 F333.3
N75 Z16.077
N80 X-351.058 Y-29.703 Z15.831
N85 X-351.066 Y-29.608 Z15.601
N90 X-351.065 Y-29.532 Z15.503
N95 X-351.059 Y-29.457 Z15.404
N100 X-351.041 Y-29.36 Z15.328
N105 X-351.014 Y-29.265 Z15.253
N110 X-350.97 Y-29.159 Z15.205
N115 X-350.913 Y-29.059 Z15.157
N120 X-350.839 Y-28.961 Z15.141
N125 X-350.754 Y-28.872 Z15.125
N130 G03 X-347.487 Y-21.506 I-6.674 J7.367 F1000
N135 G01 Y20.161
N140 G03 X-357.428 Y30.102 I-9.941
N145 G01 X-367.213 Y30.057
N150 G02 X-367.532 Y30.376 J0.319
N155 G01 Y30.78
N160 G02 X-367.213 Y31.099 I0.319
N165 G01 X-347.643
N170 G02 X-347.324 Y30.78 J-0.319
N175 G01 Y-32.124
N180 G02 X-347.643 Y-32.443 I-0.319
N185 G01 X-367.213
N190 G02 X-367.532 Y-32.124 J0.319
N195 G01 Y-31.72
N200 G02 X-367.213 Y-31.401 I0.319
N205 G01 X-357.428 Y-31.446
N210 G03 X-350.754 Y-28.872 J9.941
N215 X-350.402 Y-23.727 I-2.496 J2.755
N220 G02 X-352.165 Y-18.881 I5.776 J4.846
N225 G01 Y20.161
N230 G03 X-357.428 Y25.424 I-5.263
N235 G01 X-372.165
N240 Y35.732
N245 X-342.69
N250 Y-37.076
N255 X-372.165
N260 Y-26.768
N265 X-357.428
N270 G03 X-352.165 Y-21.506 J5.262
N275 G01 Y-18.881
N280 G02 X-351.44 Y-18.75 I0.375
N285 G01 X-351.015 Y-19.89
N290 X-350.998 Y-19.946
N295 X-350.991 Y-20.004
N300 X-350.584 Y-29.155
N305 X-350.729 Y-29.749
N310 G02 X-351.054 Y-29.735 I-0.161 J0.041
N315 G01 Z11.202 F333.3
N320 X-351.058 Y-29.703 Z10.956
N325 X-351.066 Y-29.608 Z10.726
N330 X-351.065 Y-29.532 Z10.628
N335 X-351.059 Y-29.457 Z10.529
N340 X-351.041 Y-29.36 Z10.453
N345 X-351.014 Y-29.265 Z10.378
N350 X-350.97 Y-29.159 Z10.33
N355 X-350.913 Y-29.059 Z10.282
N360 X-350.839 Y-28.961 Z10.266
N365 X-350.754 Y-28.872 Z10.25
N370 G03 X-347.487 Y-21.506 I-6.674 J7.367 F1000
N375 G01 Y20.161
N380 G03 X-357.428 Y30.102 I-9.941
N385 G01 X-367.213 Y30.057
N390 G02 X-367.532 Y30.376 J0.319
N395 G01 Y30.78
N400 G02 X-367.213 Y31.099 I0.319
N405 G01 X-347.643
N410 G02 X-347.324 Y30.78 J-0.319
N415 G01 Y-32.124
N420 G02 X-347.643 Y-32.443 I-0.319
N425 G01 X-367.213
N430 G02 X-367.532 Y-32.124 J0.319
N435 G01 Y-31.72
N440 G02 X-367.213 Y-31.401 I0.319
N445 G01 X-357.428 Y-31.446
N450 G03 X-350.754 Y-28.872 J9.941
N455 X-350.402 Y-23.727 I-2.496 J2.755
N460 G02 X-352.165 Y-18.881 I5.776 J4.846
N465 G01 Y20.161
N470 G03 X-357.428 Y25.424 I-5.263
N475 G01 X-372.165
N480 Y35.732
N485 X-342.69
N490 Y-37.076
N495 X-372.165
N500 Y-26.768
N505 X-357.428
N510 G03 X-352.165 Y-21.506 J5.262
N515 G01 Y-18.881
N520 G02 X-351.44 Y-18.75 I0.375
N525 G01 X-351.015 Y-19.89
N530 X-350.998 Y-19.946
N535 X-350.991 Y-20.004
N540 X-350.584 Y-29.155
N545 X-350.729 Y-29.749
N550 G02 X-351.054 Y-29.735 I-0.161 J0.041
N555 G01 Z6.327 F333.3
N560 X-351.058 Y-29.703 Z6.081
N565 X-351.066 Y-29.608 Z5.851
N570 X-351.065 Y-29.532 Z5.753
N575 X-351.059 Y-29.457 Z5.654
N580 X-351.041 Y-29.36 Z5.578
N585 X-351.014 Y-29.265 Z5.503
N590 X-350.97 Y-29.159 Z5.455
N595 X-350.913 Y-29.059 Z5.407
N600 X-350.839 Y-28.961 Z5.391
N605 X-350.754 Y-28.872 Z5.375
N610 G03 X-347.487 Y-21.506 I-6.674 J7.367 F1000
N615 G01 Y20.161
N620 G03 X-357.428 Y30.102 I-9.941
N625 G01 X-367.213 Y30.057
N630 G02 X-367.532 Y30.376 J0.319
N635 G01 Y30.78
N640 G02 X-367.213 Y31.099 I0.319
N645 G01 X-347.643
N650 G02 X-347.324 Y30.78 J-0.319
N655 G01 Y-32.124
N660 G02 X-347.643 Y-32.443 I-0.319
N665 G01 X-367.213
N670 G02 X-367.532 Y-32.124 J0.319
N675 G01 Y-31.72
N680 G02 X-367.213 Y-31.401 I0.319
N685 G01 X-357.428 Y-31.446
N690 G03 X-350.754 Y-28.872 J9.941
N695 X-350.402 Y-23.727 I-2.496 J2.755
N700 G02 X-352.165 Y-18.881 I5.776 J4.846
N705 G01 Y20.161
N710 G03 X-357.428 Y25.424 I-5.263
N715 G01 X-372.165
N720 Y35.732
N725 X-342.69
N730 Y-37.076
N735 X-372.165
N740 Y-26.768
N745 X-357.428
N750 G03 X-352.165 Y-21.506 J5.262
N755 G01 Y-18.881
N760 G02 X-351.44 Y-18.75 I0.375
N765 G01 X-351.015 Y-19.89
N770 X-350.998 Y-19.946
N775 X-350.991 Y-20.004
N780 X-350.584 Y-29.155
N785 X-350.729 Y-29.749
N790 G02 X-351.054 Y-29.735 I-0.161 J0.041
N795 G01 Z1.452 F333.3
N800 X-351.058 Y-29.703 Z1.206
N805 X-351.066 Y-29.608 Z0.976
N810 X-351.065 Y-29.532 Z0.878
N815 X-351.059 Y-29.457 Z0.779
N820 X-351.041 Y-29.36 Z0.703
N825 X-351.014 Y-29.265 Z0.628
N830 X-350.97 Y-29.159 Z0.58
N835 X-350.913 Y-29.059 Z0.532
N840 X-350.839 Y-28.961 Z0.516
N845 X-350.754 Y-28.872 Z0.5
N850 G03 X-347.487 Y-21.506 I-6.674 J7.367 F1000
N855 G01 Y20.161
N860 G03 X-357.428 Y30.102 I-9.941
N865 G01 X-367.213 Y30.057
N870 G02 X-367.532 Y30.376 J0.319
N875 G01 Y30.78
N880 G02 X-367.213 Y31.099 I0.319
N885 G01 X-347.643
N890 G02 X-347.324 Y30.78 J-0.319
N895 G01 Y-32.124
N900 G02 X-347.643 Y-32.443 I-0.319
N905 G01 X-367.213
N910 G02 X-367.532 Y-32.124 J0.319
N915 G01 Y-31.72
N920 G02 X-367.213 Y-31.401 I0.319
N925 G01 X-357.428 Y-31.446
N930 G03 X-350.754 Y-28.872 J9.941
N935 X-350.402 Y-23.727 I-2.496 J2.755
N940 G02 X-352.165 Y-18.881 I5.776 J4.846
N945 G01 Y20.161
N950 G03 X-357.428 Y25.424 I-5.263
N955 G01 X-372.165
N960 Y35.732
N965 X-342.69
N970 Y-37.076
N975 X-372.165
N980 Y-26.768
N985 X-357.428
N990 G03 X-352.165 Y-21.506 J5.262
N995 G01 Y-18.881
N1000 X-352.158 Y-18.758 Z0.516
N1005 X-352.134 Y-18.637 Z0.532
N1010 X-352.098 Y-18.528 Z0.58
N1015 X-352.049 Y-18.424 Z0.628
N1020 X-351.997 Y-18.34 Z0.703
N1025 X-351.937 Y-18.262 Z0.779
N1030 X-351.886 Y-18.206 Z0.878
N1035 X-351.83 Y-18.155 Z0.976
N1040 X-351.755 Y-18.097 Z1.206
N1045 X-351.728 Y-18.079 Z1.452
N1050 Z25
N1055 X-469.646 Y-13.264
N1060 Z22.5 F333.3
N1065 Z16.077
N1070 X-469.663 Y-13.291 Z15.831
N1075 X-469.721 Y-13.367 Z15.601
N1080 X-469.773 Y-13.422 Z15.503
N1085 X-469.828 Y-13.474 Z15.404
N1090 X-469.906 Y-13.534 Z15.328
N1095 X-469.99 Y-13.585 Z15.253
N1100 X-470.094 Y-13.634 Z15.205
N1105 X-470.203 Y-13.67 Z15.157
N1110 X-470.324 Y-13.694 Z15.141
N1115 X-470.447 Y-13.702 Z15.125
N1120 X-471.686 F1000
N1125 G02 X-472.005 Y-13.383 J0.319
N1130 G01 Y10.762
N1135 G02 X-471.686 Y11.081 I0.319
N1140 G01 X-469.208
N1145 G02 X-468.889 Y10.762 J-0.319
N1150 G01 Y-13.383
N1155 G02 X-469.208 Y-13.702 I-0.319
N1160 G01 X-470.447
N1165 G03 X-472.658 Y-15.065 J-2.474
N1170 G02 X-475.185 Y-14.466 I-1.192 J0.599
N1175 G01 Y14.26
N1180 X-465.71
N1185 Y-16.881
N1190 X-475.185
N1195 Y-14.466
N1200 G02 X-474.845 Y-14.126 I0.34
N1205 G01 X-474.844
N1210 X-473.332 Y-14.128
N1215 X-473.271 Y-14.122
N1220 X-473.212 Y-14.106
N1225 X-470.688 Y-13.154
N1230 X-469.852 Y-12.968
N1235 G02 X-469.646 Y-13.264 I0.042 J-0.191
N1240 G01 Z11.202 F333.3
N1245 X-469.663 Y-13.291 Z10.956
N1250 X-469.721 Y-13.367 Z10.726
N1255 X-469.773 Y-13.422 Z10.628
N1260 X-469.828 Y-13.474 Z10.529
N1265 X-469.906 Y-13.534 Z10.453
N1270 X-469.99 Y-13.585 Z10.378
N1275 X-470.094 Y-13.634 Z10.33
N1280 X-470.203 Y-13.67 Z10.282
N1285 X-470.324 Y-13.694 Z10.266
N1290 X-470.447 Y-13.702 Z10.25
N1295 X-471.686 F1000
N1300 G02 X-472.005 Y-13.383 J0.319
N1305 G01 Y10.762
N1310 G02 X-471.686 Y11.081 I0.319
N1315 G01 X-469.208
N1320 G02 X-468.889 Y10.762 J-0.319
N1325 G01 Y-13.383
N1330 G02 X-469.208 Y-13.702 I-0.319
N1335 G01 X-470.447
N1340 G03 X-472.658 Y-15.065 J-2.474
N1345 G02 X-475.185 Y-14.466 I-1.192 J0.599
N1350 G01 Y14.26
N1355 X-465.71
N1360 Y-16.881
N1365 X-475.185
N1370 Y-14.466
N1375 G02 X-474.845 Y-14.126 I0.34
N1380 G01 X-474.844
N1385 X-473.332 Y-14.128
N1390 X-473.271 Y-14.122
N1395 X-473.212 Y-14.106
N1400 X-470.688 Y-13.154
N1405 X-469.852 Y-12.968
N1410 G02 X-469.646 Y-13.264 I0.042 J-0.191
N1415 G01 Z6.327 F333.3
N1420 X-469.663 Y-13.291 Z6.081
N1425 X-469.721 Y-13.367 Z5.851
N1430 X-469.773 Y-13.422 Z5.753
N1435 X-469.828 Y-13.474 Z5.654
N1440 X-469.906 Y-13.534 Z5.578
N1445 X-469.99 Y-13.585 Z5.503
N1450 X-470.094 Y-13.634 Z5.455
N1455 X-470.203 Y-13.67 Z5.407
N1460 X-470.324 Y-13.694 Z5.391
N1465 X-470.447 Y-13.702 Z5.375
N1470 X-471.686 F1000
N1475 G02 X-472.005 Y-13.383 J0.319
N1480 G01 Y10.762
N1485 G02 X-471.686 Y11.081 I0.319
N1490 G01 X-469.208
N1495 G02 X-468.889 Y10.762 J-0.319
N1500 G01 Y-13.383
N1505 G02 X-469.208 Y-13.702 I-0.319
N1510 G01 X-470.447
N1515 G03 X-472.658 Y-15.065 J-2.474
N1520 G02 X-475.185 Y-14.466 I-1.192 J0.599
N1525 G01 Y14.26
N1530 X-465.71
N1535 Y-16.881
N1540 X-475.185
N1545 Y-14.466
N1550 G02 X-474.845 Y-14.126 I0.34
N1555 G01 X-474.844
N1560 X-473.332 Y-14.128
N1565 X-473.271 Y-14.122
N1570 X-473.212 Y-14.106
N1575 X-470.688 Y-13.154
N1580 X-469.852 Y-12.968
N1585 G02 X-469.646 Y-13.264 I0.042 J-0.191
N1590 G01 Z1.452 F333.3
N1595 X-469.663 Y-13.291 Z1.206
N1600 X-469.721 Y-13.367 Z0.976
N1605 X-469.773 Y-13.422 Z0.878
N1610 X-469.828 Y-13.474 Z0.779
N1615 X-469.906 Y-13.534 Z0.703
N1620 X-469.99 Y-13.585 Z0.628
N1625 X-470.094 Y-13.634 Z0.58
N1630 X-470.203 Y-13.67 Z0.532
N1635 X-470.324 Y-13.694 Z0.516
N1640 X-470.447 Y-13.702 Z0.5
N1645 X-471.686 F1000
N1650 G02 X-472.005 Y-13.383 J0.319
N1655 G01 Y10.762
N1660 G02 X-471.686 Y11.081 I0.319
N1665 G01 X-469.208
N1670 G02 X-468.889 Y10.762 J-0.319
N1675 G01 Y-13.383
N1680 G02 X-469.208 Y-13.702 I-0.319
N1685 G01 X-470.447
N1690 G03 X-472.658 Y-15.065 J-2.474
N1695 G02 X-475.185 Y-14.466 I-1.192 J0.599
N1700 G01 Y14.26
N1705 X-465.71
N1710 Y-16.881
N1715 X-475.185
N1720 Y-14.466
N1725 X-475.177 Y-14.343 Z0.516
N1730 X-475.153 Y-14.222 Z0.532
N1735 X-475.117 Y-14.113 Z0.58
N1740 X-475.068 Y-14.009 Z0.628
N1745 X-475.016 Y-13.925 Z0.703
N1750 X-474.956 Y-13.847 Z0.779
N1755 X-474.905 Y-13.791 Z0.878
N1760 X-474.849 Y-13.74 Z0.976
N1765 X-474.774 Y-13.682 Z1.206
N1770 X-474.747 Y-13.664 Z1.452
N1775 Z25
N1780 X-549.326 Y10.324
N1785 Z22.5 F333.3
N1790 Z16.077
N1795 X-549.299 Y10.306 Z15.831
N1800 X-549.224 Y10.248 Z15.601
N1805 X-549.168 Y10.197 Z15.503
N1810 X-549.117 Y10.142 Z15.404
N1815 X-549.057 Y10.064 Z15.328
N1820 X-549.005 Y9.98 Z15.253
N1825 X-548.956 Y9.876 Z15.205
N1830 X-548.92 Y9.767 Z15.157
N1835 X-548.897 Y9.646 Z15.141
N1840 X-548.889 Y9.523 Z15.125
N1845 Y-13.383 F1000
N1850 G02 X-549.208 Y-13.702 I-0.319
N1855 G01 X-551.686
N1860 G02 X-552.005 Y-13.383 J0.319
N1865 G01 Y10.762
N1870 G02 X-551.686 Y11.081 I0.319
N1875 G01 X-549.208
N1880 G02 X-548.889 Y10.762 J-0.319
N1885 G01 Y9.523
N1890 G03 X-547.299 Y7.139 I2.583
N1895 G02 X-545.709 Y4.754 I-0.993 J-2.384
N1900 G01 Y-16.881
N1905 X-555.185
N1910 Y14.26
N1915 X-545.709
N1920 Y4.754
N1925 G02 X-546.375 Y4.518 I-0.375
N1930 G01 X-547.324 Y5.686
N1935 X-547.364 Y5.745
N1940 X-549.36 Y9.476
N1945 X-549.572 Y10.137
N1950 G02 X-549.326 Y10.324 I0.156 J0.049
N1955 G01 Z11.202 F333.3
N1960 X-549.299 Y10.306 Z10.956
N1965 X-549.224 Y10.248 Z10.726
N1970 X-549.168 Y10.197 Z10.628
N1975 X-549.117 Y10.142 Z10.529
N1980 X-549.057 Y10.064 Z10.453
N1985 X-549.005 Y9.98 Z10.378
N1990 X-548.956 Y9.876 Z10.33
N1995 X-548.92 Y9.767 Z10.282
N2000 X-548.897 Y9.646 Z10.266
N2005 X-548.889 Y9.523 Z10.25
N2010 Y-13.383 F1000
N2015 G02 X-549.208 Y-13.702 I-0.319
N2020 G01 X-551.686
N2025 G02 X-552.005 Y-13.383 J0.319
N2030 G01 Y10.762
N2035 G02 X-551.686 Y11.081 I0.319
N2040 G01 X-549.208
N2045 G02 X-548.889 Y10.762 J-0.319
N2050 G01 Y9.523
N2055 G03 X-547.299 Y7.139 I2.583
N2060 G02 X-545.709 Y4.754 I-0.993 J-2.384
N2065 G01 Y-16.881
N2070 X-555.185
N2075 Y14.26
N2080 X-545.709
N2085 Y4.754
N2090 G02 X-546.375 Y4.518 I-0.375
N2095 G01 X-547.324 Y5.686
N2100 X-547.364 Y5.745
N2105 X-549.36 Y9.476
N2110 X-549.572 Y10.137
N2115 G02 X-549.326 Y10.324 I0.156 J0.049
N2120 G01 Z6.327 F333.3
N2125 X-549.299 Y10.306 Z6.081
N2130 X-549.224 Y10.248 Z5.851
N2135 X-549.168 Y10.197 Z5.753
N2140 X-549.117 Y10.142 Z5.654
N2145 X-549.057 Y10.064 Z5.578
N2150 X-549.005 Y9.98 Z5.503
N2155 X-548.956 Y9.876 Z5.455
N2160 X-548.92 Y9.767 Z5.407
N2165 X-548.897 Y9.646 Z5.391
N2170 X-548.889 Y9.523 Z5.375
N2175 Y-13.383 F1000
N2180 G02 X-549.208 Y-13.702 I-0.319
N2185 G01 X-551.686
N2190 G02 X-552.005 Y-13.383 J0.319
N2195 G01 Y10.762
N2200 G02 X-551.686 Y11.081 I0.319
N2205 G01 X-549.208
N2210 G02 X-548.889 Y10.762 J-0.319
N2215 G01 Y9.523
N2220 G03 X-547.299 Y7.139 I2.583
N2225 G02 X-545.709 Y4.754 I-0.993 J-2.384
N2230 G01 Y-16.881
N2235 X-555.185
N2240 Y14.26
N2245 X-545.709
N2250 Y4.754
N2255 G02 X-546.375 Y4.518 I-0.375
N2260 G01 X-547.324 Y5.686
N2265 X-547.364 Y5.745
N2270 X-549.36 Y9.476
N2275 X-549.572 Y10.137
N2280 G02 X-549.326 Y10.324 I0.156 J0.049
N2285 G01 Z1.452 F333.3
N2290 X-549.299 Y10.306 Z1.206
N2295 X-549.224 Y10.248 Z0.976
N2300 X-549.168 Y10.197 Z0.878
N2305 X-549.117 Y10.142 Z0.779
N2310 X-549.057 Y10.064 Z0.703
N2315 X-549.005 Y9.98 Z0.628
N2320 X-548.956 Y9.876 Z0.58
N2325 X-548.92 Y9.767 Z0.532
N2330 X-548.897 Y9.646 Z0.516
N2335 X-548.889 Y9.523 Z0.5
N2340 Y-13.383 F1000
N2345 G02 X-549.208 Y-13.702 I-0.319
N2350 G01 X-551.686
N2355 G02 X-552.005 Y-13.383 J0.319
N2360 G01 Y10.762
N2365 G02 X-551.686 Y11.081 I0.319
N2370 G01 X-549.208
N2375 G02 X-548.889 Y10.762 J-0.319
N2380 G01 Y9.523
N2385 G03 X-547.299 Y7.139 I2.583
N2390 G02 X-545.709 Y4.754 I-0.993 J-2.384
N2395 G01 Y-16.881
N2400 X-555.185
N2405 Y14.26
N2410 X-545.709
N2415 Y4.754
N2420 X-545.717 Y4.631 Z0.516
N2425 X-545.741 Y4.51 Z0.532
N2430 X-545.777 Y4.401 Z0.58
N2435 X-545.826 Y4.298 Z0.628
N2440 X-545.878 Y4.214 Z0.703
N2445 X-545.938 Y4.135 Z0.779
N2450 X-545.989 Y4.08 Z0.878
N2455 X-546.045 Y4.029 Z0.976
N2460 X-546.12 Y3.971 Z1.206
N2465 X-546.147 Y3.953 Z1.452
N2470 Z25
N2475 X-197.001 Y27.653
N2480 Z22.5 F333.3
N2485 Z16.077
N2490 X-197.032 Y27.645 Z15.831
N2495 X-197.126 Y27.628 Z15.601
N2500 X-197.201 Y27.621 Z15.503
N2505 X-197.277 Y27.62 Z15.404
N2510 X-197.375 Y27.628 Z15.328
N2515 X-197.472 Y27.646 Z15.253
N2520 X-197.582 Y27.679 Z15.205
N2525 X-197.687 Y27.726 Z15.157
N2530 X-197.792 Y27.79 Z15.141
N2535 X-197.889 Y27.866 Z15.125
N2540 G03 X-204.563 Y30.44 I-6.674 J-7.367 F1000
N2545 G01 X-214.348 Y30.395
N2550 G02 X-214.667 Y30.714 J0.319
N2555 G01 Y31.118
N2560 G02 X-214.348 Y31.437 I0.319
N2565 G01 X-194.778
N2570 G02 X-194.459 Y31.118 J-0.319
N2575 G01 Y-31.786
N2580 G02 X-194.778 Y-32.105 I-0.319
N2585 G01 X-214.348
N2590 G02 X-214.667 Y-31.786 J0.319
N2595 G01 Y-31.382
N2600 G02 X-214.348 Y-31.063 I0.319
N2605 G01 X-204.563 Y-31.108
N2610 G03 X-194.622 Y-21.167 J9.941
N2615 G01 Y20.5
N2620 G03 X-197.889 Y27.866 I-9.941
N2625 X-202.993 Y27.728 I-2.48 J-2.737
N2630 G02 X-207.706 Y25.762 I-4.713 J4.667
N2635 G01 X-219.301
N2640 Y36.07
N2645 X-189.826
N2650 Y-36.738
N2655 X-219.301
N2660 Y-26.43
N2665 X-204.563
N2670 G03 X-199.301 Y-21.167 J5.263
N2675 G01 Y20.5
N2680 G03 X-204.563 Y25.762 I-5.262
N2685 G01 X-207.706
N2690 G02 X-207.868 Y26.544 J0.408
N2695 G01 X-206.607 Y27.088
N2700 X-206.55 Y27.108
N2705 X-206.49 Y27.119
N2710 X-197.645 Y28.092
N2715 X-197.015 Y27.986
N2720 G02 X-197.001 Y27.653 I-0.03 J-0.168
N2725 G01 Z11.202 F333.3
N2730 X-197.032 Y27.645 Z10.956
N2735 X-197.126 Y27.628 Z10.726
N2740 X-197.201 Y27.621 Z10.628
N2745 X-197.277 Y27.62 Z10.529
N2750 X-197.375 Y27.628 Z10.453
N2755 X-197.472 Y27.646 Z10.378
N2760 X-197.582 Y27.679 Z10.33
N2765 X-197.687 Y27.726 Z10.282
N2770 X-197.792 Y27.79 Z10.266
N2775 X-197.889 Y27.866 Z10.25
N2780 G03 X-204.563 Y30.44 I-6.674 J-7.367 F1000
N2785 G01 X-214.348 Y30.395
N2790 G02 X-214.667 Y30.714 J0.319
N2795 G01 Y31.118
N2800 G02 X-214.348 Y31.437 I0.319
N2805 G01 X-194.778
N2810 G02 X-194.459 Y31.118 J-0.319
N2815 G01 Y-31.786
N2820 G02 X-194.778 Y-32.105 I-0.319
N2825 G01 X-214.348
N2830 G02 X-214.667 Y-31.786 J0.319
N2835 G01 Y-31.382
N2840 G02 X-214.348 Y-31.063 I0.319
N2845 G01 X-204.563 Y-31.108
N2850 G03 X-194.622 Y-21.167 J9.941
N2855 G01 Y20.5
N2860 G03 X-197.889 Y27.866 I-9.941
N2865 X-202.993 Y27.728 I-2.48 J-2.737
N2870 G02 X-207.706 Y25.762 I-4.713 J4.667
N2875 G01 X-219.301
N2880 Y36.07
N2885 X-189.826
N2890 Y-36.738
N2895 X-219.301
N2900 Y-26.43
N2905 X-204.563
N2910 G03 X-199.301 Y-21.167 J5.263
N2915 G01 Y20.5
N2920 G03 X-204.563 Y25.762 I-5.262
N2925 G01 X-207.706
N2930 G02 X-207.868 Y26.544 J0.408
N2935 G01 X-206.607 Y27.088
N2940 X-206.55 Y27.108
N2945 X-206.49 Y27.119
N2950 X-197.645 Y28.092
N2955 X-197.015 Y27.986
N2960 G02 X-197.001 Y27.653 I-0.03 J-0.168
N2965 G01 Z6.327 F333.3
N2970 X-197.032 Y27.645 Z6.081
N2975 X-197.126 Y27.628 Z5.851
N2980 X-197.201 Y27.621 Z5.753
N2985 X-197.277 Y27.62 Z5.654
N2990 X-197.375 Y27.628 Z5.578
N2995 X-197.472 Y27.646 Z5.503
N3000 X-197.582 Y27.679 Z5.455
N3005 X-197.687 Y27.726 Z5.407
N3010 X-197.792 Y27.79 Z5.391
N3015 X-197.889 Y27.866 Z5.375
N3020 G03 X-204.563 Y30.44 I-6.674 J-7.367 F1000
N3025 G01 X-214.348 Y30.395
N3030 G02 X-214.667 Y30.714 J0.319
N3035 G01 Y31.118
N3040 G02 X-214.348 Y31.437 I0.319
N3045 G01 X-194.778
N3050 G02 X-194.459 Y31.118 J-0.319
N3055 G01 Y-31.786
N3060 G02 X-194.778 Y-32.105 I-0.319
N3065 G01 X-214.348
N3070 G02 X-214.667 Y-31.786 J0.319
N3075 G01 Y-31.382
N3080 G02 X-214.348 Y-31.063 I0.319
N3085 G01 X-204.563 Y-31.108
N3090 G03 X-194.622 Y-21.167 J9.941
N3095 G01 Y20.5
N3100 G03 X-197.889 Y27.866 I-9.941
N3105 X-202.993 Y27.728 I-2.48 J-2.737
N3110 G02 X-207.706 Y25.762 I-4.713 J4.667
N3115 G01 X-219.301
N3120 Y36.07
N3125 X-189.826
N3130 Y-36.738
N3135 X-219.301
N3140 Y-26.43
N3145 X-204.563
N3150 G03 X-199.301 Y-21.167 J5.263
N3155 G01 Y20.5
N3160 G03 X-204.563 Y25.762 I-5.262
N3165 G01 X-207.706
N3170 G02 X-207.868 Y26.544 J0.408
N3175 G01 X-206.607 Y27.088
N3180 X-206.55 Y27.108
N3185 X-206.49 Y27.119
N3190 X-197.645 Y28.092
N3195 X-197.015 Y27.986
N3200 G02 X-197.001 Y27.653 I-0.03 J-0.168
N3205 G01 Z1.452 F333.3
N3210 X-197.032 Y27.645 Z1.206
N3215 X-197.126 Y27.628 Z0.976
N3220 X-197.201 Y27.621 Z0.878
N3225 X-197.277 Y27.62 Z0.779
N3230 X-197.375 Y27.628 Z0.703
N3235 X-197.472 Y27.646 Z0.628
N3240 X-197.582 Y27.679 Z0.58
N3245 X-197.687 Y27.726 Z0.532
N3250 X-197.792 Y27.79 Z0.516
N3255 X-197.889 Y27.866 Z0.5
N3260 G03 X-204.563 Y30.44 I-6.674 J-7.367 F1000
N3265 G01 X-214.348 Y30.395
N3270 G02 X-214.667 Y30.714 J0.319
N3275 G01 Y31.118
N3280 G02 X-214.348 Y31.437 I0.319
N3285 G01 X-194.778
N3290 G02 X-194.459 Y31.118 J-0.319
N3295 G01 Y-31.786
N3300 G02 X-194.778 Y-32.105 I-0.319
N3305 G01 X-214.348
N3310 G02 X-214.667 Y-31.786 J0.319
N3315 G01 Y-31.382
N3320 G02 X-214.348 Y-31.063 I0.319
N3325 G01 X-204.563 Y-31.108
N3330 G03 X-194.622 Y-21.167 J9.941
N3335 G01 Y20.5
N3340 G03 X-197.889 Y27.866 I-9.941
N3345 X-202.993 Y27.728 I-2.48 J-2.737
N3350 G02 X-207.706 Y25.762 I-4.713 J4.667
N3355 G01 X-219.301
N3360 Y36.07
N3365 X-189.826
N3370 Y-36.738
N3375 X-219.301
N3380 Y-26.43
N3385 X-204.563
N3390 G03 X-199.301 Y-21.167 J5.263
N3395 G01 Y20.5
N3400 G03 X-204.563 Y25.762 I-5.262
N3405 G01 X-207.706
N3410 X-207.829 Y25.77 Z0.516
N3415 X-207.95 Y25.794 Z0.532
N3420 X-208.059 Y25.83 Z0.58
N3425 X-208.163 Y25.879 Z0.628
N3430 X-208.247 Y25.93 Z0.703
N3435 X-208.325 Y25.99 Z0.779
N3440 X-208.381 Y26.042 Z0.878
N3445 X-208.432 Y26.097 Z0.976
N3450 X-208.49 Y26.173 Z1.206
N3455 X-208.508 Y26.2 Z1.452
N3460 Z35
N3465 M09
(When using Fusion 360 for Personal Use, the feedrate of)
(rapid moves is reduced to match the feedrate of cutting)
(moves, which can increase machining time. Unrestricted rapid)
(moves are available with a Fusion 360 Subscription.)

(2D Contour4)
N3470 S13000
N3475 M04
N3480 G00 X-405.048 Y124.643
N3485 G01 Z35 F780
N3490 Z25
N3495 Z21 F260
N3500 Z15.952
N3505 X-405.041 Z15.838 F780
N3510 X-405.02 Z15.725
N3515 X-404.986 Z15.615
N3520 X-404.939 Z15.51
N3525 X-404.879 Z15.411
N3530 X-404.808 Z15.321
N3535 X-404.727 Z15.24
N3540 X-404.637 Z15.169
N3545 X-404.538 Z15.109
N3550 X-404.433 Z15.062
N3555 X-404.323 Z15.028
N3560 X-404.21 Z15.007
N3565 X-404.095 Z15
N3570 X-403.143
N3575 G02 X-402.19 Y123.69 J-0.952
N3580 G01 Y-125.672
N3585 G03 X-397.428 Y-130.434 I4.762
N3590 G01 X-297.428
N3595 G03 X-292.665 Y-125.672 J4.762
N3600 G01 Y124.328
N3605 G03 X-297.428 Y129.09 I-4.763
N3610 G01 X-397.428
N3615 G03 X-402.19 Y124.328 J-4.762
N3620 G01 Y123.69
N3625 G02 X-403.143 Y122.738 I-0.953
N3630 G01 X-404.095
N3635 X-404.21 Z15.007
N3640 X-404.323 Z15.028
N3645 X-404.433 Z15.062
N3650 X-404.538 Z15.109
N3655 X-404.637 Z15.169
N3660 X-404.727 Z15.24
N3665 X-404.808 Z15.321
N3670 X-404.879 Z15.411
N3675 X-404.939 Z15.51
N3680 X-404.986 Z15.615
N3685 X-405.02 Z15.725
N3690 X-405.041 Z15.838
N3695 X-405.048 Z15.952
N3700 Z25
N3705 Y124.643
N3710 Z16 F260
N3715 Z10.952
N3720 X-405.041 Z10.838 F780
N3725 X-405.02 Z10.725
N3730 X-404.986 Z10.615
N3735 X-404.939 Z10.51
N3740 X-404.879 Z10.411
N3745 X-404.808 Z10.321
N3750 X-404.727 Z10.24
N3755 X-404.637 Z10.169
N3760 X-404.538 Z10.109
N3765 X-404.433 Z10.062
N3770 X-404.323 Z10.028
N3775 X-404.21 Z10.007
N3780 X-404.095 Z10
N3785 X-403.143
N3790 G02 X-402.19 Y123.69 J-0.952
N3795 G01 Y-125.672
N3800 G03 X-397.428 Y-130.434 I4.762
N3805 G01 X-297.428
N3810 G03 X-292.665 Y-125.672 J4.762
N3815 G01 Y124.328
N3820 G03 X-297.428 Y129.09 I-4.763
N3825 G01 X-397.428
N3830 G03 X-402.19 Y124.328 J-4.762
N3835 G01 Y123.69
N3840 G02 X-403.143 Y122.738 I-0.953
N3845 G01 X-404.095
N3850 X-404.21 Z10.007
N3855 X-404.323 Z10.028
N3860 X-404.433 Z10.062
N3865 X-404.538 Z10.109
N3870 X-404.637 Z10.169
N3875 X-404.727 Z10.24
N3880 X-404.808 Z10.321
N3885 X-404.879 Z10.411
N3890 X-404.939 Z10.51
N3895 X-404.986 Z10.615
N3900 X-405.02 Z10.725
N3905 X-405.041 Z10.838
N3910 X-405.048 Z10.952
N3915 Z25
N3920 Y124.643
N3925 Z11 F260
N3930 Z5.952
N3935 X-405.041 Z5.838 F780
N3940 X-405.02 Z5.725
N3945 X-404.986 Z5.615
N3950 X-404.939 Z5.51
N3955 X-404.879 Z5.411
N3960 X-404.808 Z5.321
N3965 X-404.727 Z5.24
N3970 X-404.637 Z5.169
N3975 X-404.538 Z5.109
N3980 X-404.433 Z5.062
N3985 X-404.323 Z5.028
N3990 X-404.21 Z5.007
N3995 X-404.095 Z5
N4000 X-403.143
N4005 G02 X-402.19 Y123.69 J-0.952
N4010 G01 Y-125.672
N4015 G03 X-397.428 Y-130.434 I4.762
N4020 G01 X-297.428
N4025 G03 X-292.665 Y-125.672 J4.762
N4030 G01 Y124.328
N4035 G03 X-297.428 Y129.09 I-4.763
N4040 G01 X-397.428
N4045 G03 X-402.19 Y124.328 J-4.762
N4050 G01 Y123.69
N4055 G02 X-403.143 Y122.738 I-0.953
N4060 G01 X-404.095
N4065 X-404.21 Z5.007
N4070 X-404.323 Z5.028
N4075 X-404.433 Z5.062
N4080 X-404.538 Z5.109
N4085 X-404.637 Z5.169
N4090 X-404.727 Z5.24
N4095 X-404.808 Z5.321
N4100 X-404.879 Z5.411
N4105 X-404.939 Z5.51
N4110 X-404.986 Z5.615
N4115 X-405.02 Z5.725
N4120 X-405.041 Z5.838
N4125 X-405.048 Z5.952
N4130 Z25
N4135 Y124.643
N4140 Z6 F260
N4145 Z0.952
N4150 X-405.041 Z0.838 F780
N4155 X-405.02 Z0.725
N4160 X-404.986 Z0.615
N4165 X-404.939 Z0.51
N4170 X-404.879 Z0.411
N4175 X-404.808 Z0.321
N4180 X-404.727 Z0.24
N4185 X-404.637 Z0.169
N4190 X-404.538 Z0.109
N4195 X-404.433 Z0.062
N4200 X-404.323 Z0.028
N4205 X-404.21 Z0.007
N4210 X-404.095 Z0
N4215 X-403.143
N4220 G02 X-402.19 Y123.69 J-0.952
N4225 G01 Y-125.672
N4230 G03 X-397.428 Y-130.434 I4.762
N4235 G01 X-297.428
N4240 G03 X-292.665 Y-125.672 J4.762
N4245 G01 Y124.328
N4250 G03 X-297.428 Y129.09 I-4.763
N4255 G01 X-397.428
N4260 G03 X-402.19 Y124.328 J-4.762
N4265 G01 Y123.69
N4270 G02 X-403.143 Y122.738 I-0.953
N4275 G01 X-404.095
N4280 X-404.21 Z0.007
N4285 X-404.323 Z0.028
N4290 X-404.433 Z0.062
N4295 X-404.538 Z0.109
N4300 X-404.637 Z0.169
N4305 X-404.727 Z0.24
N4310 X-404.808 Z0.321
N4315 X-404.879 Z0.411
N4320 X-404.939 Z0.51
N4325 X-404.986 Z0.615
N4330 X-405.02 Z0.725
N4335 X-405.041 Z0.838
N4340 X-405.048 Z0.952
N4345 Z25
N4350 X-472.827 Y-126.624
N4355 Z21 F260
N4360 Z15.952
N4365 X-472.834 Z15.838 F780
N4370 X-472.855 Z15.725
N4375 X-472.889 Z15.615
N4380 X-472.936 Z15.51
N4385 X-472.996 Z15.411
N4390 X-473.067 Z15.321
N4395 X-473.148 Z15.24
N4400 X-473.238 Z15.169
N4405 X-473.337 Z15.109
N4410 X-473.442 Z15.062
N4415 X-473.552 Z15.028
N4420 X-473.665 Z15.007
N4425 X-473.78 Z15
N4430 X-474.732
N4435 G02 X-475.685 Y-125.672 J0.952
N4440 G01 Y-47.74
N4445 X-440.447
N4450 G03 X-435.685 Y-42.977 J4.763
N4455 G01 Y40.356
N4460 G03 X-440.447 Y45.119 I-4.762
N4465 G01 X-475.685
N4470 Y123.69
N4475 G03 X-480.447 Y128.452 I-4.762
N4480 G01 X-540.447
N4485 G03 X-545.209 Y123.69 J-4.762
N4490 G01 Y45.119
N4495 X-580.447
N4500 G03 X-585.209 Y40.356 J-4.763
N4505 G01 Y-42.977
N4510 G03 X-580.447 Y-47.74 I4.762
N4515 G01 X-545.209
N4520 Y-126.31
N4525 G03 X-540.447 Y-131.072 I4.762
N4530 G01 X-480.447
N4535 G03 X-475.685 Y-126.31 J4.762
N4540 G01 Y-125.672
N4545 G02 X-474.732 Y-124.719 I0.953
N4550 G01 X-473.78
N4555 X-473.665 Z15.007
N4560 X-473.552 Z15.028
N4565 X-473.442 Z15.062
N4570 X-473.337 Z15.109
N4575 X-473.238 Z15.169
N4580 X-473.148 Z15.24
N4585 X-473.067 Z15.321
N4590 X-472.996 Z15.411
N4595 X-472.936 Z15.51
N4600 X-472.889 Z15.615
N4605 X-472.855 Z15.725
N4610 X-472.834 Z15.838
N4615 X-472.827 Z15.952
N4620 Z25
N4625 Y-126.624
N4630 Z16 F260
N4635 Z10.952
N4640 X-472.834 Z10.838 F780
N4645 X-472.855 Z10.725
N4650 X-472.889 Z10.615
N4655 X-472.936 Z10.51
N4660 X-472.996 Z10.411
N4665 X-473.067 Z10.321
N4670 X-473.148 Z10.24
N4675 X-473.238 Z10.169
N4680 X-473.337 Z10.109
N4685 X-473.442 Z10.062
N4690 X-473.552 Z10.028
N4695 X-473.665 Z10.007
N4700 X-473.78 Z10
N4705 X-474.732
N4710 G02 X-475.685 Y-125.672 J0.952
N4715 G01 Y-47.74
N4720 X-440.447
N4725 G03 X-435.685 Y-42.977 J4.763
N4730 G01 Y40.356
N4735 G03 X-440.447 Y45.119 I-4.762
N4740 G01 X-475.685
N4745 Y123.69
N4750 G03 X-480.447 Y128.452 I-4.762
N4755 G01 X-540.447
N4760 G03 X-545.209 Y123.69 J-4.762
N4765 G01 Y45.119
N4770 X-580.447
N4775 G03 X-585.209 Y40.356 J-4.763
N4780 G01 Y-42.977
N4785 G03 X-580.447 Y-47.74 I4.762
N4790 G01 X-545.209
N4795 Y-126.31
N4800 G03 X-540.447 Y-131.072 I4.762
N4805 G01 X-480.447
N4810 G03 X-475.685 Y-126.31 J4.762
N4815 G01 Y-125.672
N4820 G02 X-474.732 Y-124.719 I0.953
N4825 G01 X-473.78
N4830 X-473.665 Z10.007
N4835 X-473.552 Z10.028
N4840 X-473.442 Z10.062
N4845 X-473.337 Z10.109
N4850 X-473.238 Z10.169
N4855 X-473.148 Z10.24
N4860 X-473.067 Z10.321
N4865 X-472.996 Z10.411
N4870 X-472.936 Z10.51
N4875 X-472.889 Z10.615
N4880 X-472.855 Z10.725
N4885 X-472.834 Z10.838
N4890 X-472.827 Z10.952
N4895 Z25
N4900 Y-126.624
N4905 Z11 F260
N4910 Z5.952
N4915 X-472.834 Z5.838 F780
N4920 X-472.855 Z5.725
N4925 X-472.889 Z5.615
N4930 X-472.936 Z5.51
N4935 X-472.996 Z5.411
N4940 X-473.067 Z5.321
N4945 X-473.148 Z5.24
N4950 X-473.238 Z5.169
N4955 X-473.337 Z5.109
N4960 X-473.442 Z5.062
N4965 X-473.552 Z5.028
N4970 X-473.665 Z5.007
N4975 X-473.78 Z5
N4980 X-474.732
N4985 G02 X-475.685 Y-125.672 J0.952
N4990 G01 Y-47.74
N4995 X-440.447
N5000 G03 X-435.685 Y-42.977 J4.763
N5005 G01 Y40.356
N5010 G03 X-440.447 Y45.119 I-4.762
N5015 G01 X-475.685
N5020 Y123.69
N5025 G03 X-480.447 Y128.452 I-4.762
N5030 G01 X-540.447
N5035 G03 X-545.209 Y123.69 J-4.762
N5040 G01 Y45.119
N5045 X-580.447
N5050 G03 X-585.209 Y40.356 J-4.763
N5055 G01 Y-42.977
N5060 G03 X-580.447 Y-47.74 I4.762
N5065 G01 X-545.209
N5070 Y-126.31
N5075 G03 X-540.447 Y-131.072 I4.762
N5080 G01 X-480.447
N5085 G03 X-475.685 Y-126.31 J4.762
N5090 G01 Y-125.672
N5095 G02 X-474.732 Y-124.719 I0.953
N5100 G01 X-473.78
N5105 X-473.665 Z5.007
N5110 X-473.552 Z5.028
N5115 X-473.442 Z5.062
N5120 X-473.337 Z5.109
N5125 X-473.238 Z5.169
N5130 X-473.148 Z5.24
N5135 X-473.067 Z5.321
N5140 X-472.996 Z5.411
N5145 X-472.936 Z5.51
N5150 X-472.889 Z5.615
N5155 X-472.855 Z5.725
N5160 X-472.834 Z5.838
N5165 X-472.827 Z5.952
N5170 Z25
N5175 Y-126.624
N5180 Z6 F260
N5185 Z0.952
N5190 X-472.834 Z0.838 F780
N5195 X-472.855 Z0.725
N5200 X-472.889 Z0.615
N5205 X-472.936 Z0.51
N5210 X-472.996 Z0.411
N5215 X-473.067 Z0.321
N5220 X-473.148 Z0.24
N5225 X-473.238 Z0.169
N5230 X-473.337 Z0.109
N5235 X-473.442 Z0.062
N5240 X-473.552 Z0.028
N5245 X-473.665 Z0.007
N5250 X-473.78 Z0
N5255 X-474.732
N5260 G02 X-475.685 Y-125.672 J0.952
N5265 G01 Y-47.74
N5270 X-440.447
N5275 G03 X-435.685 Y-42.977 J4.763
N5280 G01 Y40.356
N5285 G03 X-440.447 Y45.119 I-4.762
N5290 G01 X-475.685
N5295 Y123.69
N5300 G03 X-480.447 Y128.452 I-4.762
N5305 G01 X-540.447
N5310 G03 X-545.209 Y123.69 J-4.762
N5315 G01 Y45.119
N5320 X-580.447
N5325 G03 X-585.209 Y40.356 J-4.763
N5330 G01 Y-42.977
N5335 G03 X-580.447 Y-47.74 I4.762
N5340 G01 X-545.209
N5345 Y-126.31
N5350 G03 X-540.447 Y-131.072 I4.762
N5355 G01 X-480.447
N5360 G03 X-475.685 Y-126.31 J4.762
N5365 G01 Y-125.672
N5370 G02 X-474.732 Y-124.719 I0.953
N5375 G01 X-473.78
N5380 X-473.665 Z0.007
N5385 X-473.552 Z0.028
N5390 X-473.442 Z0.062
N5395 X-473.337 Z0.109
N5400 X-473.238 Z0.169
N5405 X-473.148 Z0.24
N5410 X-473.067 Z0.321
N5415 X-472.996 Z0.411
N5420 X-472.936 Z0.51
N5425 X-472.889 Z0.615
N5430 X-472.855 Z0.725
N5435 X-472.834 Z0.838
N5440 X-472.827 Z0.952
N5445 Z25
N5450 X-245.736 Y-132.923
N5455 Z21 F260
N5460 Z15.952
N5465 Y-132.916 Z15.838 F780
N5470 X-245.735 Y-132.896 Z15.725
N5475 X-245.734 Y-132.861 Z15.615
N5480 X-245.733 Y-132.814 Z15.51
N5485 X-245.731 Y-132.755 Z15.411
N5490 X-245.729 Y-132.684 Z15.321
N5495 X-245.727 Y-132.602 Z15.24
N5500 X-245.724 Y-132.512 Z15.169
N5505 X-245.721 Y-132.414 Z15.109
N5510 X-245.718 Y-132.309 Z15.062
N5515 X-245.715 Y-132.199 Z15.028
N5520 X-245.712 Y-132.086 Z15.007
N5525 X-245.708 Y-131.971 Z15
N5530 X-245.681 Y-131.019
N5535 G02 X-244.701 Y-130.094 I0.952 J-0.028
N5540 G01 X-244.563 Y-130.096
N5545 X-144.563
N5550 G03 X-139.801 Y-125.334 J4.762
N5555 G01 Y124.666
N5560 G03 X-144.563 Y129.428 I-4.762
N5565 G01 X-244.563
N5570 G03 X-249.326 Y124.666 J-4.762
N5575 G01 Y-125.334
N5580 G03 X-244.701 Y-130.094 I4.762
N5585 G02 X-243.777 Y-131.074 I-0.028 J-0.952
N5590 G01 X-243.804 Y-132.026
N5595 X-243.808 Y-132.141 Z15.007
N5600 X-243.811 Y-132.254 Z15.028
N5605 X-243.814 Y-132.364 Z15.062
N5610 X-243.817 Y-132.469 Z15.109
N5615 X-243.82 Y-132.567 Z15.169
N5620 X-243.823 Y-132.658 Z15.24
N5625 X-243.825 Y-132.739 Z15.321
N5630 X-243.827 Y-132.81 Z15.411
N5635 X-243.829 Y-132.869 Z15.51
N5640 X-243.83 Y-132.917 Z15.615
N5645 X-243.831 Y-132.951 Z15.725
N5650 X-243.832 Y-132.971 Z15.838
N5655 Y-132.978 Z15.952
N5660 Z25
N5665 X-245.736 Y-132.923
N5670 Z16 F260
N5675 Z10.952
N5680 Y-132.916 Z10.838 F780
N5685 X-245.735 Y-132.896 Z10.725
N5690 X-245.734 Y-132.861 Z10.615
N5695 X-245.733 Y-132.814 Z10.51
N5700 X-245.731 Y-132.755 Z10.411
N5705 X-245.729 Y-132.684 Z10.321
N5710 X-245.727 Y-132.602 Z10.24
N5715 X-245.724 Y-132.512 Z10.169
N5720 X-245.721 Y-132.414 Z10.109
N5725 X-245.718 Y-132.309 Z10.062
N5730 X-245.715 Y-132.199 Z10.028
N5735 X-245.712 Y-132.086 Z10.007
N5740 X-245.708 Y-131.971 Z10
N5745 X-245.681 Y-131.019
N5750 G02 X-244.701 Y-130.094 I0.952 J-0.028
N5755 G01 X-244.563 Y-130.096
N5760 X-144.563
N5765 G03 X-139.801 Y-125.334 J4.762
N5770 G01 Y124.666
N5775 G03 X-144.563 Y129.428 I-4.762
N5780 G01 X-244.563
N5785 G03 X-249.326 Y124.666 J-4.762
N5790 G01 Y-125.334
N5795 G03 X-244.701 Y-130.094 I4.762
N5800 G02 X-243.777 Y-131.074 I-0.028 J-0.952
N5805 G01 X-243.804 Y-132.026
N5810 X-243.808 Y-132.141 Z10.007
N5815 X-243.811 Y-132.254 Z10.028
N5820 X-243.814 Y-132.364 Z10.062
N5825 X-243.817 Y-132.469 Z10.109
N5830 X-243.82 Y-132.567 Z10.169
N5835 X-243.823 Y-132.658 Z10.24
N5840 X-243.825 Y-132.739 Z10.321
N5845 X-243.827 Y-132.81 Z10.411
N5850 X-243.829 Y-132.869 Z10.51
N5855 X-243.83 Y-132.917 Z10.615
N5860 X-243.831 Y-132.951 Z10.725
N5865 X-243.832 Y-132.971 Z10.838
N5870 Y-132.978 Z10.952
N5875 Z25
N5880 X-245.736 Y-132.923
N5885 Z11 F260
N5890 Z5.952
N5895 Y-132.916 Z5.838 F780
N5900 X-245.735 Y-132.896 Z5.725
N5905 X-245.734 Y-132.861 Z5.615
N5910 X-245.733 Y-132.814 Z5.51
N5915 X-245.731 Y-132.755 Z5.411
N5920 X-245.729 Y-132.684 Z5.321
N5925 X-245.727 Y-132.602 Z5.24
N5930 X-245.724 Y-132.512 Z5.169
N5935 X-245.721 Y-132.414 Z5.109
N5940 X-245.718 Y-132.309 Z5.062
N5945 X-245.715 Y-132.199 Z5.028
N5950 X-245.712 Y-132.086 Z5.007
N5955 X-245.708 Y-131.971 Z5
N5960 X-245.681 Y-131.019
N5965 G02 X-244.701 Y-130.094 I0.952 J-0.028
N5970 G01 X-244.563 Y-130.096
N5975 X-144.563
N5980 G03 X-139.801 Y-125.334 J4.762
N5985 G01 Y124.666
N5990 G03 X-144.563 Y129.428 I-4.762
N5995 G01 X-244.563
N6000 G03 X-249.326 Y124.666 J-4.762
N6005 G01 Y-125.334
N6010 G03 X-244.701 Y-130.094 I4.762
N6015 G02 X-243.777 Y-131.074 I-0.028 J-0.952
N6020 G01 X-243.804 Y-132.026
N6025 X-243.808 Y-132.141 Z5.007
N6030 X-243.811 Y-132.254 Z5.028
N6035 X-243.814 Y-132.364 Z5.062
N6040 X-243.817 Y-132.469 Z5.109
N6045 X-243.82 Y-132.567 Z5.169
N6050 X-243.823 Y-132.658 Z5.24
N6055 X-243.825 Y-132.739 Z5.321
N6060 X-243.827 Y-132.81 Z5.411
N6065 X-243.829 Y-132.869 Z5.51
N6070 X-243.83 Y-132.917 Z5.615
N6075 X-243.831 Y-132.951 Z5.725
N6080 X-243.832 Y-132.971 Z5.838
N6085 Y-132.978 Z5.952
N6090 Z25
N6095 X-245.736 Y-132.923
N6100 Z6 F260
N6105 Z0.952
N6110 Y-132.916 Z0.838 F780
N6115 X-245.735 Y-132.896 Z0.725
N6120 X-245.734 Y-132.861 Z0.615
N6125 X-245.733 Y-132.814 Z0.51
N6130 X-245.731 Y-132.755 Z0.411
N6135 X-245.729 Y-132.684 Z0.321
N6140 X-245.727 Y-132.602 Z0.24
N6145 X-245.724 Y-132.512 Z0.169
N6150 X-245.721 Y-132.414 Z0.109
N6155 X-245.718 Y-132.309 Z0.062
N6160 X-245.715 Y-132.199 Z0.028
N6165 X-245.712 Y-132.086 Z0.007
N6170 X-245.708 Y-131.971 Z0
N6175 X-245.681 Y-131.019
N6180 G02 X-244.701 Y-130.094 I0.952 J-0.028
N6185 G01 X-244.563 Y-130.096
N6190 X-144.563
N6195 G03 X-139.801 Y-125.334 J4.762
N6200 G01 Y124.666
N6205 G03 X-144.563 Y129.428 I-4.762
N6210 G01 X-244.563
N6215 G03 X-249.326 Y124.666 J-4.762
N6220 G01 Y-125.334
N6225 G03 X-244.701 Y-130.094 I4.762
N6230 G02 X-243.777 Y-131.074 I-0.028 J-0.952
N6235 G01 X-243.804 Y-132.026
N6240 X-243.808 Y-132.141 Z0.007
N6245 X-243.811 Y-132.254 Z0.028
N6250 X-243.814 Y-132.364 Z0.062
N6255 X-243.817 Y-132.469 Z0.109
N6260 X-243.82 Y-132.567 Z0.169
N6265 X-243.823 Y-132.658 Z0.24
N6270 X-243.825 Y-132.739 Z0.321
N6275 X-243.827 Y-132.81 Z0.411
N6280 X-243.829 Y-132.869 Z0.51
N6285 X-243.83 Y-132.917 Z0.615
N6290 X-243.831 Y-132.951 Z0.725
N6295 X-243.832 Y-132.971 Z0.838
N6300 Y-132.978 Z0.952
N6305 Z35
N6310 G28 G91 Z0
N6315 G90
N6320 M30
%
