%
(1001)
(T1 D=9.525 CR=0 - ZMIN=-20 - flat end mill)
N10 G90
G21
(When using Fusion 360 for Personal Use, the feedrate of)
(rapid moves is reduced to match the feedrate of cutting)
(moves, which can increase machining time. Unrestricted rapid)
(moves are available with a Fusion 360 Subscription.)
N15 G28 G91 Z0
N20 G90

(2D Pocket1)
N25 T1
N30 M06
N35 S13000
N40 M04
N45 G90
N50 G00 X255.742 Y169.586
N55 Z16
N60 G01 Z6 F780
N65 Z3.5 F260
N70 Z-2.148
N75 X255.747 Y169.554 Z-2.394
N80 X255.755 Y169.459 Z-2.624
N85 X255.754 Y169.384 Z-2.722
N90 X255.748 Y169.308 Z-2.821
N95 X255.73 Y169.211 Z-2.897
N100 X255.703 Y169.117 Z-2.972
N105 X255.658 Y169.011 Z-3.02
N110 X255.602 Y168.911 Z-3.068
N115 X255.528 Y168.812 Z-3.084
N120 X255.442 Y168.724 Z-3.1
N125 G03 X252.176 Y161.357 I6.675 J-7.367 F780
N130 G01 Y119.69
N135 G03 X262.117 Y109.749 I9.941
N140 G01 X271.902 Y109.794
N145 G02 X272.221 Y109.475 J-0.319
N150 G01 Y109.072
N155 G02 X271.902 Y108.753 I-0.319
N160 G01 X252.332
N165 G02 X252.013 Y109.072 J0.319
N170 G01 Y171.975
N175 G02 X252.332 Y172.294 I0.319
N180 G01 X271.902
N185 G02 X272.221 Y171.975 J-0.319
N190 G01 Y171.572
N195 G02 X271.902 Y171.253 I-0.319
N200 G01 X262.117 Y171.298
N205 G03 X255.442 Y168.724 J-9.941
N210 X255.091 Y163.578 I2.496 J-2.755
N215 G02 X256.854 Y158.732 I-5.776 J-4.846
N220 G01 Y119.69
N225 G03 X262.117 Y114.427 I5.263
N230 G01 X276.854
N235 Y104.12
N240 X247.38
N245 Y176.928
N250 X276.854
N255 Y166.62
N260 X262.117
N265 G03 X256.854 Y161.357 J-5.263
N270 G01 Y158.732
N275 G02 X256.129 Y158.601 I-0.375
N280 G01 X255.704 Y159.741
N285 X255.687 Y159.797
N290 X255.68 Y159.855
N295 X255.273 Y169.006
N300 X255.418 Y169.6
N305 G02 X255.742 Y169.586 I0.161 J-0.041
N310 G01 Z-6.248 F260
N315 X255.747 Y169.554 Z-6.494
N320 X255.755 Y169.459 Z-6.724
N325 X255.754 Y169.384 Z-6.822
N330 X255.748 Y169.308 Z-6.921
N335 X255.73 Y169.211 Z-6.997
N340 X255.703 Y169.117 Z-7.072
N345 X255.658 Y169.011 Z-7.12
N350 X255.602 Y168.911 Z-7.168
N355 X255.528 Y168.812 Z-7.184
N360 X255.442 Y168.724 Z-7.2
N365 G03 X252.176 Y161.357 I6.675 J-7.367 F780
N370 G01 Y119.69
N375 G03 X262.117 Y109.749 I9.941
N380 G01 X271.902 Y109.794
N385 G02 X272.221 Y109.475 J-0.319
N390 G01 Y109.072
N395 G02 X271.902 Y108.753 I-0.319
N400 G01 X252.332
N405 G02 X252.013 Y109.072 J0.319
N410 G01 Y171.975
N415 G02 X252.332 Y172.294 I0.319
N420 G01 X271.902
N425 G02 X272.221 Y171.975 J-0.319
N430 G01 Y171.572
N435 G02 X271.902 Y171.253 I-0.319
N440 G01 X262.117 Y171.298
N445 G03 X255.442 Y168.724 J-9.941
N450 X255.091 Y163.578 I2.496 J-2.755
N455 G02 X256.854 Y158.732 I-5.776 J-4.846
N460 G01 Y119.69
N465 G03 X262.117 Y114.427 I5.263
N470 G01 X276.854
N475 Y104.12
N480 X247.38
N485 Y176.928
N490 X276.854
N495 Y166.62
N500 X262.117
N505 G03 X256.854 Y161.357 J-5.263
N510 G01 Y158.732
N515 G02 X256.129 Y158.601 I-0.375
N520 G01 X255.704 Y159.741
N525 X255.687 Y159.797
N530 X255.68 Y159.855
N535 X255.273 Y169.006
N540 X255.418 Y169.6
N545 G02 X255.742 Y169.586 I0.161 J-0.041
N550 G01 Z-10.348 F260
N555 X255.747 Y169.554 Z-10.594
N560 X255.755 Y169.459 Z-10.824
N565 X255.754 Y169.384 Z-10.922
N570 X255.748 Y169.308 Z-11.021
N575 X255.73 Y169.211 Z-11.097
N580 X255.703 Y169.117 Z-11.172
N585 X255.658 Y169.011 Z-11.22
N590 X255.602 Y168.911 Z-11.268
N595 X255.528 Y168.812 Z-11.284
N600 X255.442 Y168.724 Z-11.3
N605 G03 X252.176 Y161.357 I6.675 J-7.367 F780
N610 G01 Y119.69
N615 G03 X262.117 Y109.749 I9.941
N620 G01 X271.902 Y109.794
N625 G02 X272.221 Y109.475 J-0.319
N630 G01 Y109.072
N635 G02 X271.902 Y108.753 I-0.319
N640 G01 X252.332
N645 G02 X252.013 Y109.072 J0.319
N650 G01 Y171.975
N655 G02 X252.332 Y172.294 I0.319
N660 G01 X271.902
N665 G02 X272.221 Y171.975 J-0.319
N670 G01 Y171.572
N675 G02 X271.902 Y171.253 I-0.319
N680 G01 X262.117 Y171.298
N685 G03 X255.442 Y168.724 J-9.941
N690 X255.091 Y163.578 I2.496 J-2.755
N695 G02 X256.854 Y158.732 I-5.776 J-4.846
N700 G01 Y119.69
N705 G03 X262.117 Y114.427 I5.263
N710 G01 X276.854
N715 Y104.12
N720 X247.38
N725 Y176.928
N730 X276.854
N735 Y166.62
N740 X262.117
N745 G03 X256.854 Y161.357 J-5.263
N750 G01 Y158.732
N755 G02 X256.129 Y158.601 I-0.375
N760 G01 X255.704 Y159.741
N765 X255.687 Y159.797
N770 X255.68 Y159.855
N775 X255.273 Y169.006
N780 X255.418 Y169.6
N785 G02 X255.742 Y169.586 I0.161 J-0.041
N790 G01 Z-14.448 F260
N795 X255.747 Y169.554 Z-14.694
N800 X255.755 Y169.459 Z-14.924
N805 X255.754 Y169.384 Z-15.022
N810 X255.748 Y169.308 Z-15.121
N815 X255.73 Y169.211 Z-15.197
N820 X255.703 Y169.117 Z-15.272
N825 X255.658 Y169.011 Z-15.32
N830 X255.602 Y168.911 Z-15.368
N835 X255.528 Y168.812 Z-15.384
N840 X255.442 Y168.724 Z-15.4
N845 G03 X252.176 Y161.357 I6.675 J-7.367 F780
N850 G01 Y119.69
N855 G03 X262.117 Y109.749 I9.941
N860 G01 X271.902 Y109.794
N865 G02 X272.221 Y109.475 J-0.319
N870 G01 Y109.072
N875 G02 X271.902 Y108.753 I-0.319
N880 G01 X252.332
N885 G02 X252.013 Y109.072 J0.319
N890 G01 Y171.975
N895 G02 X252.332 Y172.294 I0.319
N900 G01 X271.902
N905 G02 X272.221 Y171.975 J-0.319
N910 G01 Y171.572
N915 G02 X271.902 Y171.253 I-0.319
N920 G01 X262.117 Y171.298
N925 G03 X255.442 Y168.724 J-9.941
N930 X255.091 Y163.578 I2.496 J-2.755
N935 G02 X256.854 Y158.732 I-5.776 J-4.846
N940 G01 Y119.69
N945 G03 X262.117 Y114.427 I5.263
N950 G01 X276.854
N955 Y104.12
N960 X247.38
N965 Y176.928
N970 X276.854
N975 Y166.62
N980 X262.117
N985 G03 X256.854 Y161.357 J-5.263
N990 G01 Y158.732
N995 G02 X256.129 Y158.601 I-0.375
N1000 G01 X255.704 Y159.741
N1005 X255.687 Y159.797
N1010 X255.68 Y159.855
N1015 X255.273 Y169.006
N1020 X255.418 Y169.6
N1025 G02 X255.742 Y169.586 I0.161 J-0.041
N1030 G01 Z-18.548 F260
N1035 X255.747 Y169.554 Z-18.794
N1040 X255.755 Y169.459 Z-19.024
N1045 X255.754 Y169.384 Z-19.122
N1050 X255.748 Y169.308 Z-19.221
N1055 X255.73 Y169.211 Z-19.297
N1060 X255.703 Y169.117 Z-19.372
N1065 X255.658 Y169.011 Z-19.42
N1070 X255.602 Y168.911 Z-19.468
N1075 X255.528 Y168.812 Z-19.484
N1080 X255.442 Y168.724 Z-19.5
N1085 G03 X252.176 Y161.357 I6.675 J-7.367 F780
N1090 G01 Y119.69
N1095 G03 X262.117 Y109.749 I9.941
N1100 G01 X271.902 Y109.794
N1105 G02 X272.221 Y109.475 J-0.319
N1110 G01 Y109.072
N1115 G02 X271.902 Y108.753 I-0.319
N1120 G01 X252.332
N1125 G02 X252.013 Y109.072 J0.319
N1130 G01 Y171.975
N1135 G02 X252.332 Y172.294 I0.319
N1140 G01 X271.902
N1145 G02 X272.221 Y171.975 J-0.319
N1150 G01 Y171.572
N1155 G02 X271.902 Y171.253 I-0.319
N1160 G01 X262.117 Y171.298
N1165 G03 X255.442 Y168.724 J-9.941
N1170 X255.091 Y163.578 I2.496 J-2.755
N1175 G02 X256.854 Y158.732 I-5.776 J-4.846
N1180 G01 Y119.69
N1185 G03 X262.117 Y114.427 I5.263
N1190 G01 X276.854
N1195 Y104.12
N1200 X247.38
N1205 Y176.928
N1210 X276.854
N1215 Y166.62
N1220 X262.117
N1225 G03 X256.854 Y161.357 J-5.263
N1230 G01 Y158.732
N1235 X256.847 Y158.609 Z-19.484
N1240 X256.823 Y158.488 Z-19.468
N1245 X256.787 Y158.379 Z-19.42
N1250 X256.738 Y158.276 Z-19.372
N1255 X256.686 Y158.192 Z-19.297
N1260 X256.626 Y158.113 Z-19.221
N1265 X256.575 Y158.058 Z-19.122
N1270 X256.519 Y158.007 Z-19.024
N1275 X256.444 Y157.949 Z-18.794
N1280 X256.417 Y157.931 Z-18.548
N1285 Z6
N1290 X135.08 Y153.799
N1295 Z3.5 F260
N1300 Z-2.148
N1305 X135.107 Y153.781 Z-2.394
N1310 X135.182 Y153.723 Z-2.624
N1315 X135.238 Y153.671 Z-2.722
N1320 X135.289 Y153.616 Z-2.821
N1325 X135.349 Y153.538 Z-2.897
N1330 X135.401 Y153.454 Z-2.972
N1335 X135.45 Y153.35 Z-3.02
N1340 X135.486 Y153.241 Z-3.068
N1345 X135.509 Y153.12 Z-3.084
N1350 X135.517 Y152.997 Z-3.1
N1355 Y130.091 F780
N1360 G02 X135.198 Y129.772 I-0.319
N1365 G01 X132.72
N1370 G02 X132.401 Y130.091 J0.319
N1375 G01 Y154.236
N1380 G02 X132.72 Y154.555 I0.319
N1385 G01 X135.198
N1390 G02 X135.517 Y154.236 J-0.319
N1395 G01 Y152.997
N1400 G03 X137.107 Y150.613 I2.583
N1405 G02 X138.697 Y148.228 I-0.993 J-2.384
N1410 G01 Y126.592
N1415 X129.221
N1420 Y157.734
N1425 X138.697
N1430 Y148.228
N1435 G02 X138.031 Y147.992 I-0.375
N1440 G01 X137.082 Y149.16
N1445 X137.042 Y149.22
N1450 X135.046 Y152.95
N1455 X134.834 Y153.611
N1460 G02 X135.08 Y153.799 I0.156 J0.049
N1465 G01 Z-6.248 F260
N1470 X135.107 Y153.781 Z-6.494
N1475 X135.182 Y153.723 Z-6.724
N1480 X135.238 Y153.671 Z-6.822
N1485 X135.289 Y153.616 Z-6.921
N1490 X135.349 Y153.538 Z-6.997
N1495 X135.401 Y153.454 Z-7.072
N1500 X135.45 Y153.35 Z-7.12
N1505 X135.486 Y153.241 Z-7.168
N1510 X135.509 Y153.12 Z-7.184
N1515 X135.517 Y152.997 Z-7.2
N1520 Y130.091 F780
N1525 G02 X135.198 Y129.772 I-0.319
N1530 G01 X132.72
N1535 G02 X132.401 Y130.091 J0.319
N1540 G01 Y154.236
N1545 G02 X132.72 Y154.555 I0.319
N1550 G01 X135.198
N1555 G02 X135.517 Y154.236 J-0.319
N1560 G01 Y152.997
N1565 G03 X137.107 Y150.613 I2.583
N1570 G02 X138.697 Y148.228 I-0.993 J-2.384
N1575 G01 Y126.592
N1580 X129.221
N1585 Y157.734
N1590 X138.697
N1595 Y148.228
N1600 G02 X138.031 Y147.992 I-0.375
N1605 G01 X137.082 Y149.16
N1610 X137.042 Y149.22
N1615 X135.046 Y152.95
N1620 X134.834 Y153.611
N1625 G02 X135.08 Y153.799 I0.156 J0.049
N1630 G01 Z-10.348 F260
N1635 X135.107 Y153.781 Z-10.594
N1640 X135.182 Y153.723 Z-10.824
N1645 X135.238 Y153.671 Z-10.922
N1650 X135.289 Y153.616 Z-11.021
N1655 X135.349 Y153.538 Z-11.097
N1660 X135.401 Y153.454 Z-11.172
N1665 X135.45 Y153.35 Z-11.22
N1670 X135.486 Y153.241 Z-11.268
N1675 X135.509 Y153.12 Z-11.284
N1680 X135.517 Y152.997 Z-11.3
N1685 Y130.091 F780
N1690 G02 X135.198 Y129.772 I-0.319
N1695 G01 X132.72
N1700 G02 X132.401 Y130.091 J0.319
N1705 G01 Y154.236
N1710 G02 X132.72 Y154.555 I0.319
N1715 G01 X135.198
N1720 G02 X135.517 Y154.236 J-0.319
N1725 G01 Y152.997
N1730 G03 X137.107 Y150.613 I2.583
N1735 G02 X138.697 Y148.228 I-0.993 J-2.384
N1740 G01 Y126.592
N1745 X129.221
N1750 Y157.734
N1755 X138.697
N1760 Y148.228
N1765 G02 X138.031 Y147.992 I-0.375
N1770 G01 X137.082 Y149.16
N1775 X137.042 Y149.22
N1780 X135.046 Y152.95
N1785 X134.834 Y153.611
N1790 G02 X135.08 Y153.799 I0.156 J0.049
N1795 G01 Z-14.448 F260
N1800 X135.107 Y153.781 Z-14.694
N1805 X135.182 Y153.723 Z-14.924
N1810 X135.238 Y153.671 Z-15.022
N1815 X135.289 Y153.616 Z-15.121
N1820 X135.349 Y153.538 Z-15.197
N1825 X135.401 Y153.454 Z-15.272
N1830 X135.45 Y153.35 Z-15.32
N1835 X135.486 Y153.241 Z-15.368
N1840 X135.509 Y153.12 Z-15.384
N1845 X135.517 Y152.997 Z-15.4
N1850 Y130.091 F780
N1855 G02 X135.198 Y129.772 I-0.319
N1860 G01 X132.72
N1865 G02 X132.401 Y130.091 J0.319
N1870 G01 Y154.236
N1875 G02 X132.72 Y154.555 I0.319
N1880 G01 X135.198
N1885 G02 X135.517 Y154.236 J-0.319
N1890 G01 Y152.997
N1895 G03 X137.107 Y150.613 I2.583
N1900 G02 X138.697 Y148.228 I-0.993 J-2.384
N1905 G01 Y126.592
N1910 X129.221
N1915 Y157.734
N1920 X138.697
N1925 Y148.228
N1930 G02 X138.031 Y147.992 I-0.375
N1935 G01 X137.082 Y149.16
N1940 X137.042 Y149.22
N1945 X135.046 Y152.95
N1950 X134.834 Y153.611
N1955 G02 X135.08 Y153.799 I0.156 J0.049
N1960 G01 Z-18.548 F260
N1965 X135.107 Y153.781 Z-18.794
N1970 X135.182 Y153.723 Z-19.024
N1975 X135.238 Y153.671 Z-19.122
N1980 X135.289 Y153.616 Z-19.221
N1985 X135.349 Y153.538 Z-19.297
N1990 X135.401 Y153.454 Z-19.372
N1995 X135.45 Y153.35 Z-19.42
N2000 X135.486 Y153.241 Z-19.468
N2005 X135.509 Y153.12 Z-19.484
N2010 X135.517 Y152.997 Z-19.5
N2015 Y130.091 F780
N2020 G02 X135.198 Y129.772 I-0.319
N2025 G01 X132.72
N2030 G02 X132.401 Y130.091 J0.319
N2035 G01 Y154.236
N2040 G02 X132.72 Y154.555 I0.319
N2045 G01 X135.198
N2050 G02 X135.517 Y154.236 J-0.319
N2055 G01 Y152.997
N2060 G03 X137.107 Y150.613 I2.583
N2065 G02 X138.697 Y148.228 I-0.993 J-2.384
N2070 G01 Y126.592
N2075 X129.221
N2080 Y157.734
N2085 X138.697
N2090 Y148.228
N2095 X138.689 Y148.105 Z-19.484
N2100 X138.665 Y147.985 Z-19.468
N2105 X138.629 Y147.876 Z-19.42
N2110 X138.58 Y147.772 Z-19.372
N2115 X138.528 Y147.688 Z-19.297
N2120 X138.468 Y147.61 Z-19.221
N2125 X138.417 Y147.554 Z-19.122
N2130 X138.361 Y147.503 Z-19.024
N2135 X138.286 Y147.445 Z-18.794
N2140 X138.259 Y147.427 Z-18.548
N2145 Z6
N2150 X55.079 Y153.799
N2155 Z3.5 F260
N2160 Z-2.148
N2165 X55.106 Y153.781 Z-2.394
N2170 X55.182 Y153.723 Z-2.624
N2175 X55.237 Y153.671 Z-2.722
N2180 X55.289 Y153.616 Z-2.821
N2185 X55.349 Y153.538 Z-2.897
N2190 X55.401 Y153.454 Z-2.972
N2195 X55.449 Y153.35 Z-3.02
N2200 X55.485 Y153.241 Z-3.068
N2205 X55.509 Y153.12 Z-3.084
N2210 X55.517 Y152.997 Z-3.1
N2215 Y130.091 F780
N2220 G02 X55.198 Y129.772 I-0.319
N2225 G01 X52.72
N2230 G02 X52.4 Y130.091 J0.319
N2235 G01 Y154.236
N2240 G02 X52.72 Y154.555 I0.319
N2245 G01 X55.198
N2250 G02 X55.517 Y154.236 J-0.319
N2255 G01 Y152.997
N2260 G03 X57.107 Y150.613 I2.583
N2265 G02 X58.696 Y148.228 I-0.993 J-2.384
N2270 G01 Y126.592
N2275 X49.221
N2280 Y157.734
N2285 X58.696
N2290 Y148.228
N2295 G02 X58.031 Y147.992 I-0.375
N2300 G01 X57.081 Y149.16
N2305 X57.042 Y149.22
N2310 X55.046 Y152.95
N2315 X54.834 Y153.611
N2320 G02 X55.079 Y153.799 I0.156 J0.049
N2325 G01 Z-6.248 F260
N2330 X55.106 Y153.781 Z-6.494
N2335 X55.182 Y153.723 Z-6.724
N2340 X55.237 Y153.671 Z-6.822
N2345 X55.289 Y153.616 Z-6.921
N2350 X55.349 Y153.538 Z-6.997
N2355 X55.401 Y153.454 Z-7.072
N2360 X55.449 Y153.35 Z-7.12
N2365 X55.485 Y153.241 Z-7.168
N2370 X55.509 Y153.12 Z-7.184
N2375 X55.517 Y152.997 Z-7.2
N2380 Y130.091 F780
N2385 G02 X55.198 Y129.772 I-0.319
N2390 G01 X52.72
N2395 G02 X52.4 Y130.091 J0.319
N2400 G01 Y154.236
N2405 G02 X52.72 Y154.555 I0.319
N2410 G01 X55.198
N2415 G02 X55.517 Y154.236 J-0.319
N2420 G01 Y152.997
N2425 G03 X57.107 Y150.613 I2.583
N2430 G02 X58.696 Y148.228 I-0.993 J-2.384
N2435 G01 Y126.592
N2440 X49.221
N2445 Y157.734
N2450 X58.696
N2455 Y148.228
N2460 G02 X58.031 Y147.992 I-0.375
N2465 G01 X57.081 Y149.16
N2470 X57.042 Y149.22
N2475 X55.046 Y152.95
N2480 X54.834 Y153.611
N2485 G02 X55.079 Y153.799 I0.156 J0.049
N2490 G01 Z-10.348 F260
N2495 X55.106 Y153.781 Z-10.594
N2500 X55.182 Y153.723 Z-10.824
N2505 X55.237 Y153.671 Z-10.922
N2510 X55.289 Y153.616 Z-11.021
N2515 X55.349 Y153.538 Z-11.097
N2520 X55.401 Y153.454 Z-11.172
N2525 X55.449 Y153.35 Z-11.22
N2530 X55.485 Y153.241 Z-11.268
N2535 X55.509 Y153.12 Z-11.284
N2540 X55.517 Y152.997 Z-11.3
N2545 Y130.091 F780
N2550 G02 X55.198 Y129.772 I-0.319
N2555 G01 X52.72
N2560 G02 X52.4 Y130.091 J0.319
N2565 G01 Y154.236
N2570 G02 X52.72 Y154.555 I0.319
N2575 G01 X55.198
N2580 G02 X55.517 Y154.236 J-0.319
N2585 G01 Y152.997
N2590 G03 X57.107 Y150.613 I2.583
N2595 G02 X58.696 Y148.228 I-0.993 J-2.384
N2600 G01 Y126.592
N2605 X49.221
N2610 Y157.734
N2615 X58.696
N2620 Y148.228
N2625 G02 X58.031 Y147.992 I-0.375
N2630 G01 X57.081 Y149.16
N2635 X57.042 Y149.22
N2640 X55.046 Y152.95
N2645 X54.834 Y153.611
N2650 G02 X55.079 Y153.799 I0.156 J0.049
N2655 G01 Z-14.448 F260
N2660 X55.106 Y153.781 Z-14.694
N2665 X55.182 Y153.723 Z-14.924
N2670 X55.237 Y153.671 Z-15.022
N2675 X55.289 Y153.616 Z-15.121
N2680 X55.349 Y153.538 Z-15.197
N2685 X55.401 Y153.454 Z-15.272
N2690 X55.449 Y153.35 Z-15.32
N2695 X55.485 Y153.241 Z-15.368
N2700 X55.509 Y153.12 Z-15.384
N2705 X55.517 Y152.997 Z-15.4
N2710 Y130.091 F780
N2715 G02 X55.198 Y129.772 I-0.319
N2720 G01 X52.72
N2725 G02 X52.4 Y130.091 J0.319
N2730 G01 Y154.236
N2735 G02 X52.72 Y154.555 I0.319
N2740 G01 X55.198
N2745 G02 X55.517 Y154.236 J-0.319
N2750 G01 Y152.997
N2755 G03 X57.107 Y150.613 I2.583
N2760 G02 X58.696 Y148.228 I-0.993 J-2.384
N2765 G01 Y126.592
N2770 X49.221
N2775 Y157.734
N2780 X58.696
N2785 Y148.228
N2790 G02 X58.031 Y147.992 I-0.375
N2795 G01 X57.081 Y149.16
N2800 X57.042 Y149.22
N2805 X55.046 Y152.95
N2810 X54.834 Y153.611
N2815 G02 X55.079 Y153.799 I0.156 J0.049
N2820 G01 Z-18.548 F260
N2825 X55.106 Y153.781 Z-18.794
N2830 X55.182 Y153.723 Z-19.024
N2835 X55.237 Y153.671 Z-19.122
N2840 X55.289 Y153.616 Z-19.221
N2845 X55.349 Y153.538 Z-19.297
N2850 X55.401 Y153.454 Z-19.372
N2855 X55.449 Y153.35 Z-19.42
N2860 X55.485 Y153.241 Z-19.468
N2865 X55.509 Y153.12 Z-19.484
N2870 X55.517 Y152.997 Z-19.5
N2875 Y130.091 F780
N2880 G02 X55.198 Y129.772 I-0.319
N2885 G01 X52.72
N2890 G02 X52.4 Y130.091 J0.319
N2895 G01 Y154.236
N2900 G02 X52.72 Y154.555 I0.319
N2905 G01 X55.198
N2910 G02 X55.517 Y154.236 J-0.319
N2915 G01 Y152.997
N2920 G03 X57.107 Y150.613 I2.583
N2925 G02 X58.696 Y148.228 I-0.993 J-2.384
N2930 G01 Y126.592
N2935 X49.221
N2940 Y157.734
N2945 X58.696
N2950 Y148.228
N2955 X58.688 Y148.105 Z-19.484
N2960 X58.665 Y147.985 Z-19.468
N2965 X58.629 Y147.876 Z-19.42
N2970 X58.58 Y147.772 Z-19.372
N2975 X58.528 Y147.688 Z-19.297
N2980 X58.468 Y147.61 Z-19.221
N2985 X58.417 Y147.554 Z-19.122
N2990 X58.361 Y147.503 Z-19.024
N2995 X58.285 Y147.445 Z-18.794
N3000 X58.258 Y147.427 Z-18.548
N3005 Z6
N3010 X400.926 Y170.6
N3015 Z3.5 F260
N3020 Z-2.148
N3025 X400.931 Y170.568 Z-2.394
N3030 X400.939 Y170.473 Z-2.624
N3035 X400.938 Y170.397 Z-2.722
N3040 X400.931 Y170.322 Z-2.821
N3045 X400.914 Y170.225 Z-2.897
N3050 X400.886 Y170.13 Z-2.972
N3055 X400.842 Y170.024 Z-3.02
N3060 X400.785 Y169.925 Z-3.068
N3065 X400.712 Y169.826 Z-3.084
N3070 X400.626 Y169.737 Z-3.1
N3075 G03 X397.837 Y163.448 I5.698 J-6.289 F780
N3080 G01 Y121.782
N3085 G03 X406.324 Y113.295 I8.487
N3090 G01 X417.563 Y113.34
N3095 G02 X417.882 Y113.021 J-0.319
N3100 G01 Y109.709
N3105 G02 X417.563 Y109.39 I-0.319
N3110 G01 X395.085
N3115 G02 X394.766 Y109.709 J0.319
N3120 G01 Y175.521
N3125 G02 X395.085 Y175.84 I0.319
N3130 G01 X417.563
N3135 G02 X417.882 Y175.521 J-0.319
N3140 G01 Y172.209
N3145 G02 X417.563 Y171.89 I-0.319
N3150 G01 X406.324 Y171.935
N3155 G03 X400.626 Y169.737 J-8.487
N3160 X400.131 Y166.325 I1.817 J-2.006
N3165 G02 X401.061 Y163.004 I-5.458 J-3.32
N3170 G01 Y121.782
N3175 G03 X406.324 Y116.52 I5.263
N3180 G01 X421.061
N3185 Y106.211
N3190 X391.586
N3195 Y179.02
N3200 X421.061
N3205 Y168.71
N3210 X406.324
N3215 G03 X401.061 Y163.448 J-5.262
N3220 G01 Y163.004
N3225 G02 X400.651 Y162.938 I-0.211
N3230 G01 X400.442 Y163.57
N3235 X400.434 Y163.603
N3240 X400.431 Y163.637
N3245 X400.454 Y170.045
N3250 X400.617 Y170.619
N3255 G02 X400.926 Y170.6 I0.152 J-0.045
N3260 G01 Z-6.248 F260
N3265 X400.931 Y170.568 Z-6.494
N3270 X400.939 Y170.473 Z-6.724
N3275 X400.938 Y170.397 Z-6.822
N3280 X400.931 Y170.322 Z-6.921
N3285 X400.914 Y170.225 Z-6.997
N3290 X400.886 Y170.13 Z-7.072
N3295 X400.842 Y170.024 Z-7.12
N3300 X400.785 Y169.925 Z-7.168
N3305 X400.712 Y169.826 Z-7.184
N3310 X400.626 Y169.737 Z-7.2
N3315 G03 X397.837 Y163.448 I5.698 J-6.289 F780
N3320 G01 Y121.782
N3325 G03 X406.324 Y113.295 I8.487
N3330 G01 X417.563 Y113.34
N3335 G02 X417.882 Y113.021 J-0.319
N3340 G01 Y109.709
N3345 G02 X417.563 Y109.39 I-0.319
N3350 G01 X395.085
N3355 G02 X394.766 Y109.709 J0.319
N3360 G01 Y175.521
N3365 G02 X395.085 Y175.84 I0.319
N3370 G01 X417.563
N3375 G02 X417.882 Y175.521 J-0.319
N3380 G01 Y172.209
N3385 G02 X417.563 Y171.89 I-0.319
N3390 G01 X406.324 Y171.935
N3395 G03 X400.626 Y169.737 J-8.487
N3400 X400.131 Y166.325 I1.817 J-2.006
N3405 G02 X401.061 Y163.004 I-5.458 J-3.32
N3410 G01 Y121.782
N3415 G03 X406.324 Y116.52 I5.263
N3420 G01 X421.061
N3425 Y106.211
N3430 X391.586
N3435 Y179.02
N3440 X421.061
N3445 Y168.71
N3450 X406.324
N3455 G03 X401.061 Y163.448 J-5.262
N3460 G01 Y163.004
N3465 G02 X400.651 Y162.938 I-0.211
N3470 G01 X400.442 Y163.57
N3475 X400.434 Y163.603
N3480 X400.431 Y163.637
N3485 X400.454 Y170.045
N3490 X400.617 Y170.619
N3495 G02 X400.926 Y170.6 I0.152 J-0.045
N3500 G01 Z-10.348 F260
N3505 X400.931 Y170.568 Z-10.594
N3510 X400.939 Y170.473 Z-10.824
N3515 X400.938 Y170.397 Z-10.922
N3520 X400.931 Y170.322 Z-11.021
N3525 X400.914 Y170.225 Z-11.097
N3530 X400.886 Y170.13 Z-11.172
N3535 X400.842 Y170.024 Z-11.22
N3540 X400.785 Y169.925 Z-11.268
N3545 X400.712 Y169.826 Z-11.284
N3550 X400.626 Y169.737 Z-11.3
N3555 G03 X397.837 Y163.448 I5.698 J-6.289 F780
N3560 G01 Y121.782
N3565 G03 X406.324 Y113.295 I8.487
N3570 G01 X417.563 Y113.34
N3575 G02 X417.882 Y113.021 J-0.319
N3580 G01 Y109.709
N3585 G02 X417.563 Y109.39 I-0.319
N3590 G01 X395.085
N3595 G02 X394.766 Y109.709 J0.319
N3600 G01 Y175.521
N3605 G02 X395.085 Y175.84 I0.319
N3610 G01 X417.563
N3615 G02 X417.882 Y175.521 J-0.319
N3620 G01 Y172.209
N3625 G02 X417.563 Y171.89 I-0.319
N3630 G01 X406.324 Y171.935
N3635 G03 X400.626 Y169.737 J-8.487
N3640 X400.131 Y166.325 I1.817 J-2.006
N3645 G02 X401.061 Y163.004 I-5.458 J-3.32
N3650 G01 Y121.782
N3655 G03 X406.324 Y116.52 I5.263
N3660 G01 X421.061
N3665 Y106.211
N3670 X391.586
N3675 Y179.02
N3680 X421.061
N3685 Y168.71
N3690 X406.324
N3695 G03 X401.061 Y163.448 J-5.262
N3700 G01 Y163.004
N3705 G02 X400.651 Y162.938 I-0.211
N3710 G01 X400.442 Y163.57
N3715 X400.434 Y163.603
N3720 X400.431 Y163.637
N3725 X400.454 Y170.045
N3730 X400.617 Y170.619
N3735 G02 X400.926 Y170.6 I0.152 J-0.045
N3740 G01 Z-14.448 F260
N3745 X400.931 Y170.568 Z-14.694
N3750 X400.939 Y170.473 Z-14.924
N3755 X400.938 Y170.397 Z-15.022
N3760 X400.931 Y170.322 Z-15.121
N3765 X400.914 Y170.225 Z-15.197
N3770 X400.886 Y170.13 Z-15.272
N3775 X400.842 Y170.024 Z-15.32
N3780 X400.785 Y169.925 Z-15.368
N3785 X400.712 Y169.826 Z-15.384
N3790 X400.626 Y169.737 Z-15.4
N3795 G03 X397.837 Y163.448 I5.698 J-6.289 F780
N3800 G01 Y121.782
N3805 G03 X406.324 Y113.295 I8.487
N3810 G01 X417.563 Y113.34
N3815 G02 X417.882 Y113.021 J-0.319
N3820 G01 Y109.709
N3825 G02 X417.563 Y109.39 I-0.319
N3830 G01 X395.085
N3835 G02 X394.766 Y109.709 J0.319
N3840 G01 Y175.521
N3845 G02 X395.085 Y175.84 I0.319
N3850 G01 X417.563
N3855 G02 X417.882 Y175.521 J-0.319
N3860 G01 Y172.209
N3865 G02 X417.563 Y171.89 I-0.319
N3870 G01 X406.324 Y171.935
N3875 G03 X400.626 Y169.737 J-8.487
N3880 X400.131 Y166.325 I1.817 J-2.006
N3885 G02 X401.061 Y163.004 I-5.458 J-3.32
N3890 G01 Y121.782
N3895 G03 X406.324 Y116.52 I5.263
N3900 G01 X421.061
N3905 Y106.211
N3910 X391.586
N3915 Y179.02
N3920 X421.061
N3925 Y168.71
N3930 X406.324
N3935 G03 X401.061 Y163.448 J-5.262
N3940 G01 Y163.004
N3945 G02 X400.651 Y162.938 I-0.211
N3950 G01 X400.442 Y163.57
N3955 X400.434 Y163.603
N3960 X400.431 Y163.637
N3965 X400.454 Y170.045
N3970 X400.617 Y170.619
N3975 G02 X400.926 Y170.6 I0.152 J-0.045
N3980 G01 Z-18.548 F260
N3985 X400.931 Y170.568 Z-18.794
N3990 X400.939 Y170.473 Z-19.024
N3995 X400.938 Y170.397 Z-19.122
N4000 X400.931 Y170.322 Z-19.221
N4005 X400.914 Y170.225 Z-19.297
N4010 X400.886 Y170.13 Z-19.372
N4015 X400.842 Y170.024 Z-19.42
N4020 X400.785 Y169.925 Z-19.468
N4025 X400.712 Y169.826 Z-19.484
N4030 X400.626 Y169.737 Z-19.5
N4035 G03 X397.837 Y163.448 I5.698 J-6.289 F780
N4040 G01 Y121.782
N4045 G03 X406.324 Y113.295 I8.487
N4050 G01 X417.563 Y113.34
N4055 G02 X417.882 Y113.021 J-0.319
N4060 G01 Y109.709
N4065 G02 X417.563 Y109.39 I-0.319
N4070 G01 X395.085
N4075 G02 X394.766 Y109.709 J0.319
N4080 G01 Y175.521
N4085 G02 X395.085 Y175.84 I0.319
N4090 G01 X417.563
N4095 G02 X417.882 Y175.521 J-0.319
N4100 G01 Y172.209
N4105 G02 X417.563 Y171.89 I-0.319
N4110 G01 X406.324 Y171.935
N4115 G03 X400.626 Y169.737 J-8.487
N4120 X400.131 Y166.325 I1.817 J-2.006
N4125 G02 X401.061 Y163.004 I-5.458 J-3.32
N4130 G01 Y121.782
N4135 G03 X406.324 Y116.52 I5.263
N4140 G01 X421.061
N4145 Y106.211
N4150 X391.586
N4155 Y179.02
N4160 X421.061
N4165 Y168.71
N4170 X406.324
N4175 G03 X401.061 Y163.448 J-5.262
N4180 G01 Y163.004
N4185 X401.054 Y162.882 Z-19.484
N4190 X401.03 Y162.761 Z-19.468
N4195 X400.994 Y162.652 Z-19.42
N4200 X400.945 Y162.548 Z-19.372
N4205 X400.893 Y162.464 Z-19.297
N4210 X400.833 Y162.386 Z-19.221
N4215 X400.782 Y162.33 Z-19.122
N4220 X400.726 Y162.279 Z-19.024
N4225 X400.651 Y162.221 Z-18.794
N4230 X400.624 Y162.203 Z-18.548
N4235 Z16
(When using Fusion 360 for Personal Use, the feedrate of)
(rapid moves is reduced to match the feedrate of cutting)
(moves, which can increase machining time. Unrestricted rapid)
(moves are available with a Fusion 360 Subscription.)

(2D Contour1)
N4240 G00 X194.497 Y262.189
N4245 G01 Z16 F780
N4250 Z6
N4255 Z2 F260
N4260 Z-3.048
N4265 X194.504 Z-3.162 F780
N4270 X194.525 Z-3.275
N4275 X194.559 Z-3.385
N4280 X194.606 Z-3.49
N4285 X194.666 Z-3.589
N4290 X194.737 Z-3.679
N4295 X194.818 Z-3.76
N4300 X194.908 Z-3.831
N4305 X195.007 Z-3.891
N4310 X195.112 Z-3.938
N4315 X195.222 Z-3.972
N4320 X195.335 Z-3.993
N4325 X195.449 Z-4
N4330 X196.402
N4335 G02 X197.355 Y261.237 J-0.953
N4340 G01 Y100.132
N4345 Y14.088
N4350 G03 X202.117 Y9.326 I4.762
N4355 G01 X302.117
N4360 G03 X306.879 Y14.088 J4.762
N4365 G01 Y264.088
N4370 G03 X302.117 Y268.85 I-4.762
N4375 G01 X202.117
N4380 G03 X197.355 Y264.088 J-4.762
N4385 G01 Y261.237
N4390 G02 X196.402 Y260.284 I-0.953
N4395 G01 X195.449
N4400 X195.335 Z-3.993
N4405 X195.222 Z-3.972
N4410 X195.112 Z-3.938
N4415 X195.007 Z-3.891
N4420 X194.908 Z-3.831
N4425 X194.818 Z-3.76
N4430 X194.737 Z-3.679
N4435 X194.666 Z-3.589
N4440 X194.606 Z-3.49
N4445 X194.559 Z-3.385
N4450 X194.525 Z-3.275
N4455 X194.504 Z-3.162
N4460 X194.497 Z-3.048
N4465 Z6
N4470 Y262.189
N4475 Z-3 F260
N4480 Z-8.048
N4485 X194.504 Z-8.162 F780
N4490 X194.525 Z-8.275
N4495 X194.559 Z-8.385
N4500 X194.606 Z-8.49
N4505 X194.666 Z-8.589
N4510 X194.737 Z-8.679
N4515 X194.818 Z-8.76
N4520 X194.908 Z-8.831
N4525 X195.007 Z-8.891
N4530 X195.112 Z-8.938
N4535 X195.222 Z-8.972
N4540 X195.335 Z-8.993
N4545 X195.449 Z-9
N4550 X196.402
N4555 G02 X197.355 Y261.237 J-0.953
N4560 G01 Y100.132
N4565 Y14.088
N4570 G03 X202.117 Y9.326 I4.762
N4575 G01 X302.117
N4580 G03 X306.879 Y14.088 J4.762
N4585 G01 Y264.088
N4590 G03 X302.117 Y268.85 I-4.762
N4595 G01 X202.117
N4600 G03 X197.355 Y264.088 J-4.762
N4605 G01 Y261.237
N4610 G02 X196.402 Y260.284 I-0.953
N4615 G01 X195.449
N4620 X195.335 Z-8.993
N4625 X195.222 Z-8.972
N4630 X195.112 Z-8.938
N4635 X195.007 Z-8.891
N4640 X194.908 Z-8.831
N4645 X194.818 Z-8.76
N4650 X194.737 Z-8.679
N4655 X194.666 Z-8.589
N4660 X194.606 Z-8.49
N4665 X194.559 Z-8.385
N4670 X194.525 Z-8.275
N4675 X194.504 Z-8.162
N4680 X194.497 Z-8.048
N4685 Z6
N4690 Y262.189
N4695 Z-8 F260
N4700 Z-13.048
N4705 X194.504 Z-13.162 F780
N4710 X194.525 Z-13.275
N4715 X194.559 Z-13.385
N4720 X194.606 Z-13.49
N4725 X194.666 Z-13.589
N4730 X194.737 Z-13.679
N4735 X194.818 Z-13.76
N4740 X194.908 Z-13.831
N4745 X195.007 Z-13.891
N4750 X195.112 Z-13.938
N4755 X195.222 Z-13.972
N4760 X195.335 Z-13.993
N4765 X195.449 Z-14
N4770 X196.402
N4775 G02 X197.355 Y261.237 J-0.953
N4780 G01 Y100.132
N4785 Y14.088
N4790 G03 X202.117 Y9.326 I4.762
N4795 G01 X302.117
N4800 G03 X306.879 Y14.088 J4.762
N4805 G01 Y264.088
N4810 G03 X302.117 Y268.85 I-4.762
N4815 G01 X202.117
N4820 G03 X197.355 Y264.088 J-4.762
N4825 G01 Y261.237
N4830 G02 X196.402 Y260.284 I-0.953
N4835 G01 X195.449
N4840 X195.335 Z-13.993
N4845 X195.222 Z-13.972
N4850 X195.112 Z-13.938
N4855 X195.007 Z-13.891
N4860 X194.908 Z-13.831
N4865 X194.818 Z-13.76
N4870 X194.737 Z-13.679
N4875 X194.666 Z-13.589
N4880 X194.606 Z-13.49
N4885 X194.559 Z-13.385
N4890 X194.525 Z-13.275
N4895 X194.504 Z-13.162
N4900 X194.497 Z-13.048
N4905 Z6
N4910 Y262.189
N4915 Z-13 F260
N4920 Z-16.048
N4925 X194.504 Z-16.162 F780
N4930 X194.525 Z-16.275
N4935 X194.559 Z-16.385
N4940 X194.606 Z-16.49
N4945 X194.666 Z-16.589
N4950 X194.737 Z-16.679
N4955 X194.818 Z-16.76
N4960 X194.908 Z-16.831
N4965 X195.007 Z-16.891
N4970 X195.112 Z-16.938
N4975 X195.222 Z-16.972
N4980 X195.335 Z-16.993
N4985 X195.449 Z-17
N4990 X196.402
N4995 G02 X197.355 Y261.237 J-0.953
N5000 G01 Y100.132
N5005 Y14.088
N5010 G03 X202.117 Y9.326 I4.762
N5015 G01 X302.117
N5020 G03 X306.879 Y14.088 J4.762
N5025 G01 Y264.088
N5030 G03 X302.117 Y268.85 I-4.762
N5035 G01 X202.117
N5040 G03 X197.355 Y264.088 J-4.762
N5045 G01 Y261.237
N5050 G02 X196.402 Y260.284 I-0.953
N5055 G01 X195.449
N5060 X195.335 Z-16.993
N5065 X195.222 Z-16.972
N5070 X195.112 Z-16.938
N5075 X195.007 Z-16.891
N5080 X194.908 Z-16.831
N5085 X194.818 Z-16.76
N5090 X194.737 Z-16.679
N5095 X194.666 Z-16.589
N5100 X194.606 Z-16.49
N5105 X194.559 Z-16.385
N5110 X194.525 Z-16.275
N5115 X194.504 Z-16.162
N5120 X194.497 Z-16.048
N5125 Z6
N5130 Y262.189
N5135 Z-16 F260
N5140 Z-19.048
N5145 X194.504 Z-19.162 F780
N5150 X194.525 Z-19.275
N5155 X194.559 Z-19.385
N5160 X194.606 Z-19.49
N5165 X194.666 Z-19.589
N5170 X194.737 Z-19.679
N5175 X194.818 Z-19.76
N5180 X194.908 Z-19.831
N5185 X195.007 Z-19.891
N5190 X195.112 Z-19.938
N5195 X195.222 Z-19.972
N5200 X195.335 Z-19.993
N5205 X195.449 Z-20
N5210 X196.402
N5215 G02 X197.355 Y261.237 J-0.953
N5220 G01 Y100.132
N5225 Y14.088
N5230 G03 X202.117 Y9.326 I4.762
N5235 G01 X302.117
N5240 G03 X306.879 Y14.088 J4.762
N5245 G01 Y264.088
N5250 G03 X302.117 Y268.85 I-4.762
N5255 G01 X202.117
N5260 G03 X197.355 Y264.088 J-4.762
N5265 G01 Y261.237
N5270 G02 X196.402 Y260.284 I-0.953
N5275 G01 X195.449
N5280 X195.335 Z-19.993
N5285 X195.222 Z-19.972
N5290 X195.112 Z-19.938
N5295 X195.007 Z-19.891
N5300 X194.908 Z-19.831
N5305 X194.818 Z-19.76
N5310 X194.737 Z-19.679
N5315 X194.666 Z-19.589
N5320 X194.606 Z-19.49
N5325 X194.559 Z-19.385
N5330 X194.525 Z-19.275
N5335 X194.504 Z-19.162
N5340 X194.497 Z-19.048
N5345 Z6
N5350 X131.579 Y265.846
N5355 Z2 F260
N5360 Z-3.048
N5365 X131.572 Z-3.162 F780
N5370 X131.551 Z-3.275
N5375 X131.517 Z-3.385
N5380 X131.47 Z-3.49
N5385 X131.41 Z-3.589
N5390 X131.339 Z-3.679
N5395 X131.258 Z-3.76
N5400 X131.168 Z-3.831
N5405 X131.069 Z-3.891
N5410 X130.964 Z-3.938
N5415 X130.854 Z-3.972
N5420 X130.741 Z-3.993
N5425 X130.626 Z-4
N5430 X129.674
N5435 G02 X128.721 Y266.799 J0.953
N5440 G03 X123.959 Y271.561 I-4.762
N5445 G01 X63.959
N5450 G03 X59.196 Y266.799 J-4.762
N5455 G01 Y188.227
N5460 X23.959
N5465 G03 X19.196 Y183.465 J-4.762
N5470 G01 Y100.132
N5475 G03 X23.959 Y95.369 I4.762
N5480 G01 X59.196
N5485 Y16.799
N5490 G03 X63.959 Y12.036 I4.763
N5495 G01 X123.959
N5500 G03 X128.721 Y16.799 J4.762
N5505 G01 Y95.369
N5510 X163.959
N5515 G03 X168.721 Y100.132 J4.763
N5520 G01 Y183.465
N5525 G03 X163.959 Y188.227 I-4.762
N5530 G01 X128.721
N5535 Y266.799
N5540 G02 X129.674 Y267.751 I0.952
N5545 G01 X130.626
N5550 X130.741 Z-3.993
N5555 X130.854 Z-3.972
N5560 X130.964 Z-3.938
N5565 X131.069 Z-3.891
N5570 X131.168 Z-3.831
N5575 X131.258 Z-3.76
N5580 X131.339 Z-3.679
N5585 X131.41 Z-3.589
N5590 X131.47 Z-3.49
N5595 X131.517 Z-3.385
N5600 X131.551 Z-3.275
N5605 X131.572 Z-3.162
N5610 X131.579 Z-3.048
N5615 Z6
N5620 Y265.846
N5625 Z-3 F260
N5630 Z-8.048
N5635 X131.572 Z-8.162 F780
N5640 X131.551 Z-8.275
N5645 X131.517 Z-8.385
N5650 X131.47 Z-8.49
N5655 X131.41 Z-8.589
N5660 X131.339 Z-8.679
N5665 X131.258 Z-8.76
N5670 X131.168 Z-8.831
N5675 X131.069 Z-8.891
N5680 X130.964 Z-8.938
N5685 X130.854 Z-8.972
N5690 X130.741 Z-8.993
N5695 X130.626 Z-9
N5700 X129.674
N5705 G02 X128.721 Y266.799 J0.953
N5710 G03 X123.959 Y271.561 I-4.762
N5715 G01 X63.959
N5720 G03 X59.196 Y266.799 J-4.762
N5725 G01 Y188.227
N5730 X23.959
N5735 G03 X19.196 Y183.465 J-4.762
N5740 G01 Y100.132
N5745 G03 X23.959 Y95.369 I4.762
N5750 G01 X59.196
N5755 Y16.799
N5760 G03 X63.959 Y12.036 I4.763
N5765 G01 X123.959
N5770 G03 X128.721 Y16.799 J4.762
N5775 G01 Y95.369
N5780 X163.959
N5785 G03 X168.721 Y100.132 J4.763
N5790 G01 Y183.465
N5795 G03 X163.959 Y188.227 I-4.762
N5800 G01 X128.721
N5805 Y266.799
N5810 G02 X129.674 Y267.751 I0.952
N5815 G01 X130.626
N5820 X130.741 Z-8.993
N5825 X130.854 Z-8.972
N5830 X130.964 Z-8.938
N5835 X131.069 Z-8.891
N5840 X131.168 Z-8.831
N5845 X131.258 Z-8.76
N5850 X131.339 Z-8.679
N5855 X131.41 Z-8.589
N5860 X131.47 Z-8.49
N5865 X131.517 Z-8.385
N5870 X131.551 Z-8.275
N5875 X131.572 Z-8.162
N5880 X131.579 Z-8.048
N5885 Z6
N5890 Y265.846
N5895 Z-8 F260
N5900 Z-13.048
N5905 X131.572 Z-13.162 F780
N5910 X131.551 Z-13.275
N5915 X131.517 Z-13.385
N5920 X131.47 Z-13.49
N5925 X131.41 Z-13.589
N5930 X131.339 Z-13.679
N5935 X131.258 Z-13.76
N5940 X131.168 Z-13.831
N5945 X131.069 Z-13.891
N5950 X130.964 Z-13.938
N5955 X130.854 Z-13.972
N5960 X130.741 Z-13.993
N5965 X130.626 Z-14
N5970 X129.674
N5975 G02 X128.721 Y266.799 J0.953
N5980 G03 X123.959 Y271.561 I-4.762
N5985 G01 X63.959
N5990 G03 X59.196 Y266.799 J-4.762
N5995 G01 Y188.227
N6000 X23.959
N6005 G03 X19.196 Y183.465 J-4.762
N6010 G01 Y100.132
N6015 G03 X23.959 Y95.369 I4.762
N6020 G01 X59.196
N6025 Y16.799
N6030 G03 X63.959 Y12.036 I4.763
N6035 G01 X123.959
N6040 G03 X128.721 Y16.799 J4.762
N6045 G01 Y95.369
N6050 X163.959
N6055 G03 X168.721 Y100.132 J4.763
N6060 G01 Y183.465
N6065 G03 X163.959 Y188.227 I-4.762
N6070 G01 X128.721
N6075 Y266.799
N6080 G02 X129.674 Y267.751 I0.952
N6085 G01 X130.626
N6090 X130.741 Z-13.993
N6095 X130.854 Z-13.972
N6100 X130.964 Z-13.938
N6105 X131.069 Z-13.891
N6110 X131.168 Z-13.831
N6115 X131.258 Z-13.76
N6120 X131.339 Z-13.679
N6125 X131.41 Z-13.589
N6130 X131.47 Z-13.49
N6135 X131.517 Z-13.385
N6140 X131.551 Z-13.275
N6145 X131.572 Z-13.162
N6150 X131.579 Z-13.048
N6155 Z6
N6160 Y265.846
N6165 Z-13 F260
N6170 Z-16.048
N6175 X131.572 Z-16.162 F780
N6180 X131.551 Z-16.275
N6185 X131.517 Z-16.385
N6190 X131.47 Z-16.49
N6195 X131.41 Z-16.589
N6200 X131.339 Z-16.679
N6205 X131.258 Z-16.76
N6210 X131.168 Z-16.831
N6215 X131.069 Z-16.891
N6220 X130.964 Z-16.938
N6225 X130.854 Z-16.972
N6230 X130.741 Z-16.993
N6235 X130.626 Z-17
N6240 X129.674
N6245 G02 X128.721 Y266.799 J0.953
N6250 G03 X123.959 Y271.561 I-4.762
N6255 G01 X63.959
N6260 G03 X59.196 Y266.799 J-4.762
N6265 G01 Y188.227
N6270 X23.959
N6275 G03 X19.196 Y183.465 J-4.762
N6280 G01 Y100.132
N6285 G03 X23.959 Y95.369 I4.762
N6290 G01 X59.196
N6295 Y16.799
N6300 G03 X63.959 Y12.036 I4.763
N6305 G01 X123.959
N6310 G03 X128.721 Y16.799 J4.762
N6315 G01 Y95.369
N6320 X163.959
N6325 G03 X168.721 Y100.132 J4.763
N6330 G01 Y183.465
N6335 G03 X163.959 Y188.227 I-4.762
N6340 G01 X128.721
N6345 Y266.799
N6350 G02 X129.674 Y267.751 I0.952
N6355 G01 X130.626
N6360 X130.741 Z-16.993
N6365 X130.854 Z-16.972
N6370 X130.964 Z-16.938
N6375 X131.069 Z-16.891
N6380 X131.168 Z-16.831
N6385 X131.258 Z-16.76
N6390 X131.339 Z-16.679
N6395 X131.41 Z-16.589
N6400 X131.47 Z-16.49
N6405 X131.517 Z-16.385
N6410 X131.551 Z-16.275
N6415 X131.572 Z-16.162
N6420 X131.579 Z-16.048
N6425 Z6
N6430 Y265.846
N6435 Z-16 F260
N6440 Z-19.048
N6445 X131.572 Z-19.162 F780
N6450 X131.551 Z-19.275
N6455 X131.517 Z-19.385
N6460 X131.47 Z-19.49
N6465 X131.41 Z-19.589
N6470 X131.339 Z-19.679
N6475 X131.258 Z-19.76
N6480 X131.168 Z-19.831
N6485 X131.069 Z-19.891
N6490 X130.964 Z-19.938
N6495 X130.854 Z-19.972
N6500 X130.741 Z-19.993
N6505 X130.626 Z-20
N6510 X129.674
N6515 G02 X128.721 Y266.799 J0.953
N6520 G03 X123.959 Y271.561 I-4.762
N6525 G01 X63.959
N6530 G03 X59.196 Y266.799 J-4.762
N6535 G01 Y188.227
N6540 X23.959
N6545 G03 X19.196 Y183.465 J-4.762
N6550 G01 Y100.132
N6555 G03 X23.959 Y95.369 I4.762
N6560 G01 X59.196
N6565 Y16.799
N6570 G03 X63.959 Y12.036 I4.763
N6575 G01 X123.959
N6580 G03 X128.721 Y16.799 J4.762
N6585 G01 Y95.369
N6590 X163.959
N6595 G03 X168.721 Y100.132 J4.763
N6600 G01 Y183.465
N6605 G03 X163.959 Y188.227 I-4.762
N6610 G01 X128.721
N6615 Y266.799
N6620 G02 X129.674 Y267.751 I0.952
N6625 G01 X130.626
N6630 X130.741 Z-19.993
N6635 X130.854 Z-19.972
N6640 X130.964 Z-19.938
N6645 X131.069 Z-19.891
N6650 X131.168 Z-19.831
N6655 X131.258 Z-19.76
N6660 X131.339 Z-19.679
N6665 X131.41 Z-19.589
N6670 X131.47 Z-19.49
N6675 X131.517 Z-19.385
N6680 X131.551 Z-19.275
N6685 X131.572 Z-19.162
N6690 X131.579 Z-19.048
N6695 Z6
N6700 X447.276 Y273.8
N6705 Z2 F260
N6710 Z-3.048
N6715 Y273.793 Z-3.162 F780
N6720 Y273.772 Z-3.275
N6725 Y273.738 Z-3.385
N6730 Y273.691 Z-3.49
N6735 Y273.631 Z-3.589
N6740 Y273.56 Z-3.679
N6745 Y273.479 Z-3.76
N6750 Y273.389 Z-3.831
N6755 Y273.29 Z-3.891
N6760 Y273.185 Z-3.938
N6765 Y273.075 Z-3.972
N6770 Y272.962 Z-3.993
N6775 Y272.848 Z-4
N6780 Y271.895
N6785 G02 X446.324 Y270.943 I-0.952
N6790 G01 X346.324
N6795 G03 X341.561 Y266.18 J-4.763
N6800 G01 Y16.18
N6805 G03 X346.324 Y11.417 I4.763
N6810 G01 X446.324
N6815 G03 X451.086 Y16.18 J4.762
N6820 G01 Y266.18
N6825 G03 X446.324 Y270.943 I-4.762
N6830 G02 X445.371 Y271.895 J0.952
N6835 G01 Y272.848
N6840 Y272.962 Z-3.993
N6845 Y273.075 Z-3.972
N6850 Y273.185 Z-3.938
N6855 Y273.29 Z-3.891
N6860 Y273.389 Z-3.831
N6865 Y273.479 Z-3.76
N6870 Y273.56 Z-3.679
N6875 Y273.631 Z-3.589
N6880 Y273.691 Z-3.49
N6885 Y273.738 Z-3.385
N6890 Y273.772 Z-3.275
N6895 Y273.793 Z-3.162
N6900 Y273.8 Z-3.048
N6905 Z6
N6910 X447.276
N6915 Z-3 F260
N6920 Z-8.048
N6925 Y273.793 Z-8.162 F780
N6930 Y273.772 Z-8.275
N6935 Y273.738 Z-8.385
N6940 Y273.691 Z-8.49
N6945 Y273.631 Z-8.589
N6950 Y273.56 Z-8.679
N6955 Y273.479 Z-8.76
N6960 Y273.389 Z-8.831
N6965 Y273.29 Z-8.891
N6970 Y273.185 Z-8.938
N6975 Y273.075 Z-8.972
N6980 Y272.962 Z-8.993
N6985 Y272.848 Z-9
N6990 Y271.895
N6995 G02 X446.324 Y270.943 I-0.952
N7000 G01 X346.324
N7005 G03 X341.561 Y266.18 J-4.763
N7010 G01 Y16.18
N7015 G03 X346.324 Y11.417 I4.763
N7020 G01 X446.324
N7025 G03 X451.086 Y16.18 J4.762
N7030 G01 Y266.18
N7035 G03 X446.324 Y270.943 I-4.762
N7040 G02 X445.371 Y271.895 J0.952
N7045 G01 Y272.848
N7050 Y272.962 Z-8.993
N7055 Y273.075 Z-8.972
N7060 Y273.185 Z-8.938
N7065 Y273.29 Z-8.891
N7070 Y273.389 Z-8.831
N7075 Y273.479 Z-8.76
N7080 Y273.56 Z-8.679
N7085 Y273.631 Z-8.589
N7090 Y273.691 Z-8.49
N7095 Y273.738 Z-8.385
N7100 Y273.772 Z-8.275
N7105 Y273.793 Z-8.162
N7110 Y273.8 Z-8.048
N7115 Z6
N7120 X447.276
N7125 Z-8 F260
N7130 Z-13.048
N7135 Y273.793 Z-13.162 F780
N7140 Y273.772 Z-13.275
N7145 Y273.738 Z-13.385
N7150 Y273.691 Z-13.49
N7155 Y273.631 Z-13.589
N7160 Y273.56 Z-13.679
N7165 Y273.479 Z-13.76
N7170 Y273.389 Z-13.831
N7175 Y273.29 Z-13.891
N7180 Y273.185 Z-13.938
N7185 Y273.075 Z-13.972
N7190 Y272.962 Z-13.993
N7195 Y272.848 Z-14
N7200 Y271.895
N7205 G02 X446.324 Y270.943 I-0.952
N7210 G01 X346.324
N7215 G03 X341.561 Y266.18 J-4.763
N7220 G01 Y16.18
N7225 G03 X346.324 Y11.417 I4.763
N7230 G01 X446.324
N7235 G03 X451.086 Y16.18 J4.762
N7240 G01 Y266.18
N7245 G03 X446.324 Y270.943 I-4.762
N7250 G02 X445.371 Y271.895 J0.952
N7255 G01 Y272.848
N7260 Y272.962 Z-13.993
N7265 Y273.075 Z-13.972
N7270 Y273.185 Z-13.938
N7275 Y273.29 Z-13.891
N7280 Y273.389 Z-13.831
N7285 Y273.479 Z-13.76
N7290 Y273.56 Z-13.679
N7295 Y273.631 Z-13.589
N7300 Y273.691 Z-13.49
N7305 Y273.738 Z-13.385
N7310 Y273.772 Z-13.275
N7315 Y273.793 Z-13.162
N7320 Y273.8 Z-13.048
N7325 Z6
N7330 X447.276
N7335 Z-13 F260
N7340 Z-16.048
N7345 Y273.793 Z-16.162 F780
N7350 Y273.772 Z-16.275
N7355 Y273.738 Z-16.385
N7360 Y273.691 Z-16.49
N7365 Y273.631 Z-16.589
N7370 Y273.56 Z-16.679
N7375 Y273.479 Z-16.76
N7380 Y273.389 Z-16.831
N7385 Y273.29 Z-16.891
N7390 Y273.185 Z-16.938
N7395 Y273.075 Z-16.972
N7400 Y272.962 Z-16.993
N7405 Y272.848 Z-17
N7410 Y271.895
N7415 G02 X446.324 Y270.943 I-0.952
N7420 G01 X346.324
N7425 G03 X341.561 Y266.18 J-4.763
N7430 G01 Y16.18
N7435 G03 X346.324 Y11.417 I4.763
N7440 G01 X446.324
N7445 G03 X451.086 Y16.18 J4.762
N7450 G01 Y266.18
N7455 G03 X446.324 Y270.943 I-4.762
N7460 G02 X445.371 Y271.895 J0.952
N7465 G01 Y272.848
N7470 Y272.962 Z-16.993
N7475 Y273.075 Z-16.972
N7480 Y273.185 Z-16.938
N7485 Y273.29 Z-16.891
N7490 Y273.389 Z-16.831
N7495 Y273.479 Z-16.76
N7500 Y273.56 Z-16.679
N7505 Y273.631 Z-16.589
N7510 Y273.691 Z-16.49
N7515 Y273.738 Z-16.385
N7520 Y273.772 Z-16.275
N7525 Y273.793 Z-16.162
N7530 Y273.8 Z-16.048
N7535 Z6
N7540 X447.276
N7545 Z-16 F260
N7550 Z-19.048
N7555 Y273.793 Z-19.162 F780
N7560 Y273.772 Z-19.275
N7565 Y273.738 Z-19.385
N7570 Y273.691 Z-19.49
N7575 Y273.631 Z-19.589
N7580 Y273.56 Z-19.679
N7585 Y273.479 Z-19.76
N7590 Y273.389 Z-19.831
N7595 Y273.29 Z-19.891
N7600 Y273.185 Z-19.938
N7605 Y273.075 Z-19.972
N7610 Y272.962 Z-19.993
N7615 Y272.848 Z-20
N7620 Y271.895
N7625 G02 X446.324 Y270.943 I-0.952
N7630 G01 X346.324
N7635 G03 X341.561 Y266.18 J-4.763
N7640 G01 Y16.18
N7645 G03 X346.324 Y11.417 I4.763
N7650 G01 X446.324
N7655 G03 X451.086 Y16.18 J4.762
N7660 G01 Y266.18
N7665 G03 X446.324 Y270.943 I-4.762
N7670 G02 X445.371 Y271.895 J0.952
N7675 G01 Y272.848
N7680 Y272.962 Z-19.993
N7685 Y273.075 Z-19.972
N7690 Y273.185 Z-19.938
N7695 Y273.29 Z-19.891
N7700 Y273.389 Z-19.831
N7705 Y273.479 Z-19.76
N7710 Y273.56 Z-19.679
N7715 Y273.631 Z-19.589
N7720 Y273.691 Z-19.49
N7725 Y273.738 Z-19.385
N7730 Y273.772 Z-19.275
N7735 Y273.793 Z-19.162
N7740 Y273.8 Z-19.048
N7745 Z16
N7750 G28 G91 Z0
N7755 G90
N7760 M30
%
