%
(PanelCloseClearance)
(T5 D=9.525 CR=0 - ZMIN=-21 - flat end mill)
G21
N10 G90
(When using Fusion 360 for Personal Use, the feedrate of)
(rapid moves is reduced to match the feedrate of cutting)
(moves, which can increase machining time. Unrestricted rapid)
(moves are available with a Fusion 360 Subscription.)
N15 G28 G91 Z0
N20 G90

(2D Contour5)
N25 T5
N30 M06
N35 S13000
N40 M04
N45 G90
N50 G00 X99.097 Y672.38
N55 Z15
N60 G01 Z5 F5200
N65 Z3.453 F1733.3
N70 Y672.387 Z3.338 F5200
N75 Y672.408 Z3.225
N80 Y672.442 Z3.115
N85 Y672.489 Z3.01
N90 Y672.549 Z2.911
N95 Y672.62 Z2.821
N100 Y672.701 Z2.74
N105 Y672.791 Z2.669
N110 Y672.89 Z2.609
N115 Y672.995 Z2.562
N120 Y673.105 Z2.528
N125 Y673.218 Z2.507
N130 Y673.333 Z2.5
N135 Y674.285
N140 G03 X98.145 Y675.237 I-0.952
N145 G01 X92.733 Z2.406 F1733.3
N150 G02 X87.971 Y680 Z2.275 J4.763
N155 G01 Y620 Z1.228
N160 G02 X92.733 Y624.763 Z1.097 I4.762
N165 G01 X94.767 Z1.062
N170 G02 X99.529 Y620 Z0.931 J-4.763
N175 G01 X99.53 Y650 Z0.407
N180 G02 X104.292 Y654.763 Z0.277 I4.762
N185 G01 X145.708 Z-0.446
N190 G02 X150.471 Y650 Z-0.577 J-4.763
N195 G01 Y620 Z-1.1
N200 G02 X155.233 Y624.763 Z-1.231 I4.762
N205 G01 X157.267 Z-1.266
N210 G02 X162.029 Y620 Z-1.397 J-4.763
N215 G01 Y680 Z-2.444
N220 G02 X157.267 Y675.237 Z-2.575 I-4.762
N225 G01 X92.733 Z-3.701
N230 G02 X87.971 Y680 Z-3.832 J4.763
N235 G01 Y620 Z-4.879
N240 G02 X92.733 Y624.763 Z-5.01 I4.762
N245 G01 X94.767 Z-5.045
N250 G02 X99.529 Y620 Z-5.176 J-4.763
N255 G01 X99.53 Y650 Z-5.699
N260 G02 X104.292 Y654.763 Z-5.83 I4.762
N265 G01 X145.708 Z-6.553
N270 G02 X150.471 Y650 Z-6.684 J-4.763
N275 G01 Y620 Z-7.207
N280 G02 X155.233 Y624.763 Z-7.338 I4.762
N285 G01 X157.267 Z-7.373
N290 G02 X162.029 Y620 Z-7.504 J-4.763
N295 G01 Y680 Z-8.551
N300 G02 X157.267 Y675.237 Z-8.682 I-4.762
N305 G01 X92.733 Z-9.808
N310 G02 X87.971 Y680 Z-9.939 J4.763
N315 G01 Y620 Z-10.986
N320 G02 X92.733 Y624.763 Z-11.117 I4.762
N325 G01 X94.767 Z-11.152
N330 G02 X99.529 Y620 Z-11.283 J-4.763
N335 G01 X99.53 Y650 Z-11.806
N340 G02 X104.292 Y654.763 Z-11.937 I4.762
N345 G01 X145.708 Z-12.66
N350 G02 X150.471 Y650 Z-12.79 J-4.763
N355 G01 Y620 Z-13.314
N360 G02 X155.233 Y624.763 Z-13.445 I4.762
N365 G01 X157.267 Z-13.48
N370 G02 X162.029 Y620 Z-13.611 J-4.763
N375 G01 Y680 Z-14.658
N380 G02 X157.267 Y675.237 Z-14.789 I-4.762
N385 G01 X92.733 Z-15.915
N390 G02 X87.971 Y680 Z-16.046 J4.763
N395 G01 Y620 Z-17.093
N400 G02 X92.733 Y624.763 Z-17.223 I4.762
N405 G01 X94.767 Z-17.259
N410 G02 X99.529 Y620 Z-17.39 J-4.763
N415 G01 X99.53 Y650 Z-17.913
N420 G02 X104.292 Y654.763 Z-18.044 I4.762
N425 G01 X145.708 Z-18.767
N430 G02 X150.471 Y650 Z-18.897 J-4.763
N435 G01 Y620 Z-19.421
N440 G02 X155.233 Y624.763 Z-19.551 I4.762
N445 G01 X157.267 Z-19.587
N450 G02 X162.029 Y620 Z-19.718 J-4.763
N455 G01 Y680 Z-20.765
N460 G02 X157.267 Y675.237 Z-20.895 I-4.762
N465 G01 X151.275 Z-21
N470 X92.733 F5200
N475 G02 X87.971 Y680 J4.763
N480 G01 Y620
N485 G02 X92.733 Y624.763 I4.762
N490 G01 X94.767
N495 G02 X99.529 Y620 J-4.763
N500 G01 X99.53 Y650
N505 G02 X104.292 Y654.763 I4.762
N510 G01 X145.708
N515 G02 X150.471 Y650 J-4.763
N520 G01 Y620
N525 G02 X155.233 Y624.763 I4.762
N530 G01 X157.267
N535 G02 X162.029 Y620 J-4.763
N540 G01 Y680
N545 G02 X157.267 Y675.237 I-4.762
N550 G01 X151.275
N555 G03 X150.323 Y674.285 J-0.953
N560 G01 Y673.333
N565 Y673.218 Z-20.993
N570 Y673.105 Z-20.972
N575 Y672.995 Z-20.938
N580 Y672.89 Z-20.891
N585 Y672.791 Z-20.831
N590 Y672.701 Z-20.76
N595 Y672.62 Z-20.679
N600 Y672.549 Z-20.589
N605 Y672.489 Z-20.49
N610 Y672.442 Z-20.385
N615 Y672.408 Z-20.275
N620 Y672.387 Z-20.162
N625 Y672.38 Z-20.048
N630 Z5
N635 X99.097 Y972.38
N640 Z3.453 F1733.3
N645 Y972.387 Z3.338 F5200
N650 Y972.408 Z3.225
N655 Y972.442 Z3.115
N660 Y972.489 Z3.01
N665 Y972.549 Z2.911
N670 Y972.62 Z2.821
N675 Y972.701 Z2.74
N680 Y972.791 Z2.669
N685 Y972.89 Z2.609
N690 Y972.995 Z2.562
N695 Y973.105 Z2.528
N700 Y973.218 Z2.507
N705 Y973.333 Z2.5
N710 Y974.285
N715 G03 X98.145 Y975.237 I-0.952
N720 G01 X92.733 Z2.406 F1733.3
N725 G02 X87.971 Y980 Z2.275 J4.763
N730 G01 Y920 Z1.228
N735 G02 X92.733 Y924.763 Z1.097 I4.762
N740 G01 X94.767 Z1.062
N745 G02 X99.529 Y920 Z0.931 J-4.763
N750 G01 X99.53 Y950 Z0.407
N755 G02 X104.292 Y954.763 Z0.277 I4.762
N760 G01 X145.708 Z-0.446
N765 G02 X150.471 Y950 Z-0.577 J-4.763
N770 G01 Y920 Z-1.1
N775 G02 X155.233 Y924.763 Z-1.231 I4.762
N780 G01 X157.267 Z-1.266
N785 G02 X162.029 Y920 Z-1.397 J-4.763
N790 G01 Y980 Z-2.444
N795 G02 X157.267 Y975.237 Z-2.575 I-4.762
N800 G01 X92.733 Z-3.701
N805 G02 X87.971 Y980 Z-3.832 J4.763
N810 G01 Y920 Z-4.879
N815 G02 X92.733 Y924.763 Z-5.01 I4.762
N820 G01 X94.767 Z-5.045
N825 G02 X99.529 Y920 Z-5.176 J-4.763
N830 G01 X99.53 Y950 Z-5.699
N835 G02 X104.292 Y954.763 Z-5.83 I4.762
N840 G01 X145.708 Z-6.553
N845 G02 X150.471 Y950 Z-6.684 J-4.763
N850 G01 Y920 Z-7.207
N855 G02 X155.233 Y924.763 Z-7.338 I4.762
N860 G01 X157.267 Z-7.373
N865 G02 X162.029 Y920 Z-7.504 J-4.763
N870 G01 Y980 Z-8.551
N875 G02 X157.267 Y975.237 Z-8.682 I-4.762
N880 G01 X92.733 Z-9.808
N885 G02 X87.971 Y980 Z-9.939 J4.763
N890 G01 Y920 Z-10.986
N895 G02 X92.733 Y924.763 Z-11.117 I4.762
N900 G01 X94.767 Z-11.152
N905 G02 X99.529 Y920 Z-11.283 J-4.763
N910 G01 X99.53 Y950 Z-11.806
N915 G02 X104.292 Y954.763 Z-11.937 I4.762
N920 G01 X145.708 Z-12.66
N925 G02 X150.471 Y950 Z-12.79 J-4.763
N930 G01 Y920 Z-13.314
N935 G02 X155.233 Y924.763 Z-13.445 I4.762
N940 G01 X157.267 Z-13.48
N945 G02 X162.029 Y920 Z-13.611 J-4.763
N950 G01 Y980 Z-14.658
N955 G02 X157.267 Y975.237 Z-14.789 I-4.762
N960 G01 X92.733 Z-15.915
N965 G02 X87.971 Y980 Z-16.046 J4.763
N970 G01 Y920 Z-17.093
N975 G02 X92.733 Y924.763 Z-17.223 I4.762
N980 G01 X94.767 Z-17.259
N985 G02 X99.529 Y920 Z-17.39 J-4.763
N990 G01 X99.53 Y950 Z-17.913
N995 G02 X104.292 Y954.763 Z-18.044 I4.762
N1000 G01 X145.708 Z-18.767
N1005 G02 X150.471 Y950 Z-18.897 J-4.763
N1010 G01 Y920 Z-19.421
N1015 G02 X155.233 Y924.763 Z-19.551 I4.762
N1020 G01 X157.267 Z-19.587
N1025 G02 X162.029 Y920 Z-19.718 J-4.763
N1030 G01 Y980 Z-20.765
N1035 G02 X157.267 Y975.237 Z-20.895 I-4.762
N1040 G01 X151.275 Z-21
N1045 X92.733 F5200
N1050 G02 X87.971 Y980 J4.763
N1055 G01 Y920
N1060 G02 X92.733 Y924.763 I4.762
N1065 G01 X94.767
N1070 G02 X99.529 Y920 J-4.763
N1075 G01 X99.53 Y950
N1080 G02 X104.292 Y954.763 I4.762
N1085 G01 X145.708
N1090 G02 X150.471 Y950 J-4.763
N1095 G01 Y920
N1100 G02 X155.233 Y924.763 I4.762
N1105 G01 X157.267
N1110 G02 X162.029 Y920 J-4.763
N1115 G01 Y980
N1120 G02 X157.267 Y975.237 I-4.762
N1125 G01 X151.275
N1130 G03 X150.323 Y974.285 J-0.953
N1135 G01 Y973.333
N1140 Y973.218 Z-20.993
N1145 Y973.105 Z-20.972
N1150 Y972.995 Z-20.938
N1155 Y972.89 Z-20.891
N1160 Y972.791 Z-20.831
N1165 Y972.701 Z-20.76
N1170 Y972.62 Z-20.679
N1175 Y972.549 Z-20.589
N1180 Y972.489 Z-20.49
N1185 Y972.442 Z-20.385
N1190 Y972.408 Z-20.275
N1195 Y972.387 Z-20.162
N1200 Y972.38 Z-20.048
N1205 Z5
N1210 X99.097 Y372.38
N1215 Z3.453 F1733.3
N1220 Y372.387 Z3.338 F5200
N1225 Y372.408 Z3.225
N1230 Y372.442 Z3.115
N1235 Y372.489 Z3.01
N1240 Y372.549 Z2.911
N1245 Y372.62 Z2.821
N1250 Y372.701 Z2.74
N1255 Y372.791 Z2.669
N1260 Y372.89 Z2.609
N1265 Y372.995 Z2.562
N1270 Y373.105 Z2.528
N1275 Y373.218 Z2.507
N1280 Y373.332 Z2.5
N1285 Y374.285
N1290 G03 X98.145 Y375.237 I-0.952
N1295 G01 X92.733 Z2.406 F1733.3
N1300 G02 X87.971 Y380 Z2.275 J4.763
N1305 G01 Y320 Z1.228
N1310 G02 X92.733 Y324.763 Z1.097 I4.762
N1315 G01 X94.767 Z1.062
N1320 G02 X99.529 Y320 Z0.931 J-4.763
N1325 G01 X99.53 Y350 Z0.407
N1330 G02 X104.292 Y354.763 Z0.277 I4.762
N1335 G01 X145.708 Z-0.446
N1340 G02 X150.471 Y350 Z-0.577 J-4.763
N1345 G01 Y320 Z-1.1
N1350 G02 X155.233 Y324.763 Z-1.231 I4.762
N1355 G01 X157.267 Z-1.266
N1360 G02 X162.029 Y320 Z-1.397 J-4.763
N1365 G01 Y380 Z-2.444
N1370 G02 X157.267 Y375.237 Z-2.575 I-4.762
N1375 G01 X92.733 Z-3.701
N1380 G02 X87.971 Y380 Z-3.832 J4.763
N1385 G01 Y320 Z-4.879
N1390 G02 X92.733 Y324.763 Z-5.01 I4.762
N1395 G01 X94.767 Z-5.045
N1400 G02 X99.529 Y320 Z-5.176 J-4.763
N1405 G01 X99.53 Y350 Z-5.699
N1410 G02 X104.292 Y354.763 Z-5.83 I4.762
N1415 G01 X145.708 Z-6.553
N1420 G02 X150.471 Y350 Z-6.684 J-4.763
N1425 G01 Y320 Z-7.207
N1430 G02 X155.233 Y324.763 Z-7.338 I4.762
N1435 G01 X157.267 Z-7.373
N1440 G02 X162.029 Y320 Z-7.504 J-4.763
N1445 G01 Y380 Z-8.551
N1450 G02 X157.267 Y375.237 Z-8.682 I-4.762
N1455 G01 X92.733 Z-9.808
N1460 G02 X87.971 Y380 Z-9.939 J4.763
N1465 G01 Y320 Z-10.986
N1470 G02 X92.733 Y324.763 Z-11.117 I4.762
N1475 G01 X94.767 Z-11.152
N1480 G02 X99.529 Y320 Z-11.283 J-4.763
N1485 G01 X99.53 Y350 Z-11.806
N1490 G02 X104.292 Y354.763 Z-11.937 I4.762
N1495 G01 X145.708 Z-12.66
N1500 G02 X150.471 Y350 Z-12.79 J-4.763
N1505 G01 Y320 Z-13.314
N1510 G02 X155.233 Y324.763 Z-13.445 I4.762
N1515 G01 X157.267 Z-13.48
N1520 G02 X162.029 Y320 Z-13.611 J-4.763
N1525 G01 Y380 Z-14.658
N1530 G02 X157.267 Y375.237 Z-14.789 I-4.762
N1535 G01 X92.733 Z-15.915
N1540 G02 X87.971 Y380 Z-16.046 J4.763
N1545 G01 Y320 Z-17.093
N1550 G02 X92.733 Y324.763 Z-17.223 I4.762
N1555 G01 X94.767 Z-17.259
N1560 G02 X99.529 Y320 Z-17.39 J-4.763
N1565 G01 X99.53 Y350 Z-17.913
N1570 G02 X104.292 Y354.763 Z-18.044 I4.762
N1575 G01 X145.708 Z-18.767
N1580 G02 X150.471 Y350 Z-18.897 J-4.763
N1585 G01 Y320 Z-19.421
N1590 G02 X155.233 Y324.763 Z-19.551 I4.762
N1595 G01 X157.267 Z-19.587
N1600 G02 X162.029 Y320 Z-19.718 J-4.763
N1605 G01 Y380 Z-20.765
N1610 G02 X157.267 Y375.237 Z-20.895 I-4.762
N1615 G01 X151.275 Z-21
N1620 X92.733 F5200
N1625 G02 X87.971 Y380 J4.763
N1630 G01 Y320
N1635 G02 X92.733 Y324.763 I4.762
N1640 G01 X94.767
N1645 G02 X99.529 Y320 J-4.763
N1650 G01 X99.53 Y350
N1655 G02 X104.292 Y354.763 I4.762
N1660 G01 X145.708
N1665 G02 X150.471 Y350 J-4.763
N1670 G01 Y320
N1675 G02 X155.233 Y324.763 I4.762
N1680 G01 X157.267
N1685 G02 X162.029 Y320 J-4.763
N1690 G01 Y380
N1695 G02 X157.267 Y375.237 I-4.762
N1700 G01 X151.275
N1705 G03 X150.323 Y374.285 J-0.952
N1710 G01 Y373.332
N1715 Y373.218 Z-20.993
N1720 Y373.105 Z-20.972
N1725 Y372.995 Z-20.938
N1730 Y372.89 Z-20.891
N1735 Y372.791 Z-20.831
N1740 Y372.701 Z-20.76
N1745 Y372.62 Z-20.679
N1750 Y372.549 Z-20.589
N1755 Y372.489 Z-20.49
N1760 Y372.442 Z-20.385
N1765 Y372.408 Z-20.275
N1770 Y372.387 Z-20.162
N1775 Y372.38 Z-20.048
N1780 Z5
N1785 X99.097
N1790 Z3.453 F1733.3
N1795 Y372.387 Z3.338 F5200
N1800 Y372.408 Z3.225
N1805 Y372.442 Z3.115
N1810 Y372.489 Z3.01
N1815 Y372.549 Z2.911
N1820 Y372.62 Z2.821
N1825 Y372.701 Z2.74
N1830 Y372.791 Z2.669
N1835 Y372.89 Z2.609
N1840 Y372.995 Z2.562
N1845 Y373.105 Z2.528
N1850 Y373.218 Z2.507
N1855 Y373.332 Z2.5
N1860 Y374.285
N1865 G03 X98.145 Y375.237 I-0.952
N1870 G01 X92.733 Z2.406 F1733.3
N1875 G02 X87.971 Y380 Z2.275 J4.763
N1880 G01 Y320 Z1.228
N1885 G02 X92.733 Y324.763 Z1.097 I4.762
N1890 G01 X94.767 Z1.062
N1895 G02 X99.529 Y320 Z0.931 J-4.763
N1900 G01 X99.53 Y350 Z0.407
N1905 G02 X104.292 Y354.763 Z0.277 I4.762
N1910 G01 X145.708 Z-0.446
N1915 G02 X150.471 Y350 Z-0.577 J-4.763
N1920 G01 Y320 Z-1.1
N1925 G02 X155.233 Y324.763 Z-1.231 I4.762
N1930 G01 X157.267 Z-1.266
N1935 G02 X162.029 Y320 Z-1.397 J-4.763
N1940 G01 Y380 Z-2.444
N1945 G02 X157.267 Y375.237 Z-2.575 I-4.762
N1950 G01 X92.733 Z-3.701
N1955 G02 X87.971 Y380 Z-3.832 J4.763
N1960 G01 Y320 Z-4.879
N1965 G02 X92.733 Y324.763 Z-5.01 I4.762
N1970 G01 X94.767 Z-5.045
N1975 G02 X99.529 Y320 Z-5.176 J-4.763
N1980 G01 X99.53 Y350 Z-5.699
N1985 G02 X104.292 Y354.763 Z-5.83 I4.762
N1990 G01 X145.708 Z-6.553
N1995 G02 X150.471 Y350 Z-6.684 J-4.763
N2000 G01 Y320 Z-7.207
N2005 G02 X155.233 Y324.763 Z-7.338 I4.762
N2010 G01 X157.267 Z-7.373
N2015 G02 X162.029 Y320 Z-7.504 J-4.763
N2020 G01 Y380 Z-8.551
N2025 G02 X157.267 Y375.237 Z-8.682 I-4.762
N2030 G01 X92.733 Z-9.808
N2035 G02 X87.971 Y380 Z-9.939 J4.763
N2040 G01 Y320 Z-10.986
N2045 G02 X92.733 Y324.763 Z-11.117 I4.762
N2050 G01 X94.767 Z-11.152
N2055 G02 X99.529 Y320 Z-11.283 J-4.763
N2060 G01 X99.53 Y350 Z-11.806
N2065 G02 X104.292 Y354.763 Z-11.937 I4.762
N2070 G01 X145.708 Z-12.66
N2075 G02 X150.471 Y350 Z-12.79 J-4.763
N2080 G01 Y320 Z-13.314
N2085 G02 X155.233 Y324.763 Z-13.445 I4.762
N2090 G01 X157.267 Z-13.48
N2095 G02 X162.029 Y320 Z-13.611 J-4.763
N2100 G01 Y380 Z-14.658
N2105 G02 X157.267 Y375.237 Z-14.789 I-4.762
N2110 G01 X92.733 Z-15.915
N2115 G02 X87.971 Y380 Z-16.046 J4.763
N2120 G01 Y320 Z-17.093
N2125 G02 X92.733 Y324.763 Z-17.223 I4.762
N2130 G01 X94.767 Z-17.259
N2135 G02 X99.529 Y320 Z-17.39 J-4.763
N2140 G01 X99.53 Y350 Z-17.913
N2145 G02 X104.292 Y354.763 Z-18.044 I4.762
N2150 G01 X145.708 Z-18.767
N2155 G02 X150.471 Y350 Z-18.897 J-4.763
N2160 G01 Y320 Z-19.421
N2165 G02 X155.233 Y324.763 Z-19.551 I4.762
N2170 G01 X157.267 Z-19.587
N2175 G02 X162.029 Y320 Z-19.718 J-4.763
N2180 G01 Y380 Z-20.765
N2185 G02 X157.267 Y375.237 Z-20.895 I-4.762
N2190 G01 X151.275 Z-21
N2195 X92.733 F5200
N2200 G02 X87.971 Y380 J4.763
N2205 G01 Y320
N2210 G02 X92.733 Y324.763 I4.762
N2215 G01 X94.767
N2220 G02 X99.529 Y320 J-4.763
N2225 G01 X99.53 Y350
N2230 G02 X104.292 Y354.763 I4.762
N2235 G01 X145.708
N2240 G02 X150.471 Y350 J-4.763
N2245 G01 Y320
N2250 G02 X155.233 Y324.763 I4.762
N2255 G01 X157.267
N2260 G02 X162.029 Y320 J-4.763
N2265 G01 Y380
N2270 G02 X157.267 Y375.237 I-4.762
N2275 G01 X151.275
N2280 G03 X150.323 Y374.285 J-0.952
N2285 G01 Y373.332
N2290 Y373.218 Z-20.993
N2295 Y373.105 Z-20.972
N2300 Y372.995 Z-20.938
N2305 Y372.89 Z-20.891
N2310 Y372.791 Z-20.831
N2315 Y372.701 Z-20.76
N2320 Y372.62 Z-20.679
N2325 Y372.549 Z-20.589
N2330 Y372.489 Z-20.49
N2335 Y372.442 Z-20.385
N2340 Y372.408 Z-20.275
N2345 Y372.387 Z-20.162
N2350 Y372.38 Z-20.048
N2355 Z5
N2360 X99.097 Y72.38
N2365 Z3.453 F1733.3
N2370 Y72.387 Z3.338 F5200
N2375 Y72.408 Z3.225
N2380 Y72.442 Z3.115
N2385 Y72.489 Z3.01
N2390 Y72.549 Z2.911
N2395 Y72.62 Z2.821
N2400 Y72.701 Z2.74
N2405 Y72.791 Z2.669
N2410 Y72.89 Z2.609
N2415 Y72.995 Z2.562
N2420 Y73.105 Z2.528
N2425 Y73.218 Z2.507
N2430 Y73.332 Z2.5
N2435 Y74.285
N2440 G03 X98.145 Y75.238 I-0.952
N2445 G01 X92.733 Z2.406 F1733.3
N2450 G02 X87.971 Y80 Z2.275 J4.762
N2455 G01 Y20 Z1.228
N2460 G02 X92.733 Y24.763 Z1.097 I4.762
N2465 G01 X94.767 Z1.062
N2470 G02 X99.529 Y20 Z0.931 J-4.763
N2475 G01 X99.53 Y50 Z0.407
N2480 G02 X104.292 Y54.763 Z0.277 I4.762
N2485 G01 X145.708 Z-0.446
N2490 G02 X150.471 Y50 Z-0.577 J-4.763
N2495 G01 Y20 Z-1.1
N2500 G02 X155.233 Y24.763 Z-1.231 I4.762
N2505 G01 X157.267 Z-1.266
N2510 G02 X162.029 Y20 Z-1.397 J-4.763
N2515 G01 Y79.999 Z-2.444
N2520 G02 X157.267 Y75.238 Z-2.575 I-4.762 J0.001
N2525 G01 X92.733 Z-3.701
N2530 G02 X87.971 Y80 Z-3.832 J4.762
N2535 G01 Y20 Z-4.879
N2540 G02 X92.733 Y24.763 Z-5.01 I4.762
N2545 G01 X94.767 Z-5.045
N2550 G02 X99.529 Y20 Z-5.176 J-4.763
N2555 G01 X99.53 Y50 Z-5.699
N2560 G02 X104.292 Y54.763 Z-5.83 I4.762
N2565 G01 X145.708 Z-6.553
N2570 G02 X150.471 Y50 Z-6.684 J-4.763
N2575 G01 Y20 Z-7.207
N2580 G02 X155.233 Y24.763 Z-7.338 I4.762
N2585 G01 X157.267 Z-7.373
N2590 G02 X162.029 Y20 Z-7.504 J-4.763
N2595 G01 Y79.999 Z-8.551
N2600 G02 X157.267 Y75.238 Z-8.682 I-4.762 J0.001
N2605 G01 X92.733 Z-9.808
N2610 G02 X87.971 Y80 Z-9.939 J4.762
N2615 G01 Y20 Z-10.986
N2620 G02 X92.733 Y24.763 Z-11.117 I4.762
N2625 G01 X94.767 Z-11.152
N2630 G02 X99.529 Y20 Z-11.283 J-4.763
N2635 G01 X99.53 Y50 Z-11.806
N2640 G02 X104.292 Y54.763 Z-11.937 I4.762
N2645 G01 X145.708 Z-12.66
N2650 G02 X150.471 Y50 Z-12.79 J-4.763
N2655 G01 Y20 Z-13.314
N2660 G02 X155.233 Y24.763 Z-13.445 I4.762
N2665 G01 X157.267 Z-13.48
N2670 G02 X162.029 Y20 Z-13.611 J-4.763
N2675 G01 Y79.999 Z-14.658
N2680 G02 X157.267 Y75.238 Z-14.789 I-4.762 J0.001
N2685 G01 X92.733 Z-15.915
N2690 G02 X87.971 Y80 Z-16.046 J4.762
N2695 G01 Y20 Z-17.093
N2700 G02 X92.733 Y24.763 Z-17.223 I4.762
N2705 G01 X94.767 Z-17.259
N2710 G02 X99.529 Y20 Z-17.39 J-4.763
N2715 G01 X99.53 Y50 Z-17.913
N2720 G02 X104.292 Y54.763 Z-18.044 I4.762
N2725 G01 X145.708 Z-18.767
N2730 G02 X150.471 Y50 Z-18.897 J-4.763
N2735 G01 Y20 Z-19.421
N2740 G02 X155.233 Y24.763 Z-19.551 I4.762
N2745 G01 X157.267 Z-19.587
N2750 G02 X162.029 Y20 Z-19.718 J-4.763
N2755 G01 Y79.999 Z-20.765
N2760 G02 X157.267 Y75.238 Z-20.895 I-4.762 J0.001
N2765 G01 X151.275 Z-21
N2770 X92.733 F5200
N2775 G02 X87.971 Y80 J4.762
N2780 G01 Y20
N2785 G02 X92.733 Y24.763 I4.762
N2790 G01 X94.767
N2795 G02 X99.529 Y20 J-4.763
N2800 G01 X99.53 Y50
N2805 G02 X104.292 Y54.763 I4.762
N2810 G01 X145.708
N2815 G02 X150.471 Y50 J-4.763
N2820 G01 Y20
N2825 G02 X155.233 Y24.763 I4.762
N2830 G01 X157.267
N2835 G02 X162.029 Y20 J-4.763
N2840 G01 Y79.999
N2845 G02 X157.267 Y75.238 I-4.762 J0.001
N2850 G01 X151.275
N2855 G03 X150.323 Y74.285 J-0.952
N2860 G01 Y73.332
N2865 Y73.218 Z-20.993
N2870 Y73.105 Z-20.972
N2875 Y72.995 Z-20.938
N2880 Y72.89 Z-20.891
N2885 Y72.791 Z-20.831
N2890 Y72.701 Z-20.76
N2895 Y72.62 Z-20.679
N2900 Y72.549 Z-20.589
N2905 Y72.489 Z-20.49
N2910 Y72.442 Z-20.385
N2915 Y72.408 Z-20.275
N2920 Y72.387 Z-20.162
N2925 Y72.38 Z-20.048
N2930 Z15
(When using Fusion 360 for Personal Use, the feedrate of)
(rapid moves is reduced to match the feedrate of cutting)
(moves, which can increase machining time. Unrestricted rapid)
(moves are available with a Fusion 360 Subscription.)

(2D Contour6)
N2935 G00 X-7.62 Y663.297
N2940 G01 Z15 F5200
N2945 Z5
N2950 Z3.453 F1733.3
N2955 X-7.613 Z3.338 F5200
N2960 X-7.592 Z3.225
N2965 X-7.558 Z3.115
N2970 X-7.511 Z3.01
N2975 X-7.451 Z2.911
N2980 X-7.38 Z2.821
N2985 X-7.299 Z2.74
N2990 X-7.209 Z2.669
N2995 X-7.11 Z2.609
N3000 X-7.005 Z2.562
N3005 X-6.895 Z2.528
N3010 X-6.782 Z2.507
N3015 X-6.668 Z2.5
N3020 X-5.715
N3025 G03 X-4.762 Y664.249 J0.953
N3030 G01 Y1000 Z1.797 F1733.3
N3035 G02 X0 Y1004.763 Z1.781 I4.762
N3040 G01 X250 Z1.258
N3045 G02 X254.762 Y1000 Z1.242 J-4.763
N3050 G01 Y0 Z-0.853
N3055 G02 X250 Y-4.762 Z-0.868 I-4.762
N3060 G01 X0 Z-1.392
N3065 G02 X-4.762 Y0 Z-1.407 J4.762
N3070 G01 Y1000 Z-3.502
N3075 G02 X0 Y1004.763 Z-3.518 I4.762
N3080 G01 X250 Z-4.041
N3085 G02 X254.762 Y1000 Z-4.057 J-4.763
N3090 G01 Y0 Z-6.151
N3095 G02 X250 Y-4.762 Z-6.167 I-4.762
N3100 G01 X0 Z-6.69
N3105 G02 X-4.762 Y0 Z-6.706 J4.762
N3110 G01 Y1000 Z-8.801
N3115 G02 X0 Y1004.763 Z-8.816 I4.762
N3120 G01 X250 Z-9.34
N3125 G02 X254.762 Y1000 Z-9.355 J-4.763
N3130 G01 Y0 Z-11.45
N3135 G02 X250 Y-4.762 Z-11.466 I-4.762
N3140 G01 X0 Z-11.989
N3145 G02 X-4.762 Y0 Z-12.005 J4.762
N3150 G01 Y1000 Z-14.099
N3155 G02 X0 Y1004.763 Z-14.115 I4.762
N3160 G01 X250 Z-14.638
N3165 G02 X254.762 Y1000 Z-14.654 J-4.763
N3170 G01 Y228.275 Z-16.27
N3175 Z-16
N3180 Y209.225
N3185 Z-16.31
N3190 Y0 Z-16.749
N3195 G02 X250 Y-4.762 Z-16.764 I-4.762
N3200 G01 X165.775 Z-16.941
N3205 Z-16
N3210 X146.725
N3215 Z-16.98
N3220 X0 Z-17.288
N3225 G02 X-4.762 Y0 Z-17.303 J4.762
N3230 G01 Y146.725 Z-17.611
N3235 Z-16
N3240 Y165.775
N3245 Z-17.651
N3250 Y459.225 Z-18.265
N3255 Z-16
N3260 Y478.275
N3265 Z-18.305
N3270 Y771.725 Z-18.92
N3275 Z-16
N3280 Y790.775
N3285 Z-18.96
N3290 Y1000 Z-19.398
N3295 G02 X0 Y1004.763 Z-19.414 I4.762
N3300 G01 X84.225 Z-19.59
N3305 Z-16
N3310 X103.275
N3315 Z-19.63
N3320 X250 Z-19.937
N3325 G02 X254.762 Y1000 Z-19.953 J-4.763
N3330 G01 Y853.275 Z-20.26
N3335 Z-16
N3340 Y834.225
N3345 Z-20.3
N3350 Y540.775 Z-20.915
N3355 Z-16
N3360 Y521.725
N3365 Z-20.954
N3370 Y500 Z-21
N3375 Y228.275 F5200
N3380 Z-16
N3385 Y209.225
N3390 Z-21 F1733.3
N3395 Y0 F5200
N3400 G02 X250 Y-4.762 I-4.762
N3405 G01 X165.775
N3410 Z-16
N3415 X146.725
N3420 Z-21 F1733.3
N3425 X0 F5200
N3430 G02 X-4.762 Y0 J4.762
N3435 G01 Y146.725
N3440 Z-16
N3445 Y165.775
N3450 Z-21 F1733.3
N3455 Y459.225 F5200
N3460 Z-16
N3465 Y478.275
N3470 Z-21 F1733.3
N3475 Y771.725 F5200
N3480 Z-16
N3485 Y790.775
N3490 Z-21 F1733.3
N3495 Y1000 F5200
N3500 G02 X0 Y1004.763 I4.762
N3505 G01 X84.225
N3510 Z-16
N3515 X103.275
N3520 Z-21 F1733.3
N3525 X250 F5200
N3530 G02 X254.762 Y1000 J-4.763
N3535 G01 Y853.275
N3540 Z-16
N3545 Y834.225
N3550 Z-21 F1733.3
N3555 Y540.775 F5200
N3560 Z-16
N3565 Y521.725
N3570 Z-21 F1733.3
N3575 Y500 F5200
N3580 G03 X255.715 Y499.047 I0.952
N3585 G01 X256.668
N3590 X256.782 Z-20.993
N3595 X256.895 Z-20.972
N3600 X257.005 Z-20.938
N3605 X257.11 Z-20.891
N3610 X257.209 Z-20.831
N3615 X257.299 Z-20.76
N3620 X257.38 Z-20.679
N3625 X257.451 Z-20.589
N3630 X257.511 Z-20.49
N3635 X257.558 Z-20.385
N3640 X257.592 Z-20.275
N3645 X257.613 Z-20.162
N3650 X257.62 Z-20.048
N3655 Z15
N3660 G28 G91 Z0
N3665 G90
N3670 M30
%
