%
(shelfFinal)
(T1 D=9.525 CR=0 - ZMIN=-21 - flat end mill)
N10 G90
(When using Fusion 360 for Personal Use, the feedrate of)
(rapid moves is reduced to match the feedrate of cutting)
(moves, which can increase machining time. Unrestricted rapid)
(moves are available with a Fusion 360 Subscription.)
N15 G28 G91 Z0
N20 G90

(2D Contour2)
N25 T1
N30 M06
N35 S13000
N40 M04
N45 G90
N50 G00 X502.1 Y140.859
N55 Z15
N60 G01 Z5 F780
N65 Z3.451 F260
N70 X502.104 Y140.858 Z3.366
N75 X502.114 Y140.853 Z3.282
N80 X502.131 Y140.844 Z3.199
N85 X502.154 Y140.833 Z3.118
N90 X502.184 Y140.817 Z3.04
N95 X502.219 Y140.799 Z2.965
N100 X502.26 Y140.777 Z2.894
N105 X502.307 Y140.752 Z2.827
N110 X502.358 Y140.723 Z2.765
N115 X502.413 Y140.691 Z2.709
N120 X502.472 Y140.656 Z2.659
N125 X502.534 Y140.618 Z2.615
N130 X502.598 Y140.576 Z2.577
N135 X502.664 Y140.533 Z2.547
N140 X502.732 Y140.486 Z2.524
N145 X502.8 Y140.438 Z2.508
N150 X502.868 Y140.387 Z2.5
N155 G02 X504.763 Y136.585 Z2.269 I-2.868 J-3.802
N160 G01 Y113.415 Z1.055
N165 G02 X500.506 Y108.679 Z0.689 I-4.763
N170 G01 X520.5 Z-0.358
N175 G02 X515.737 Y113.442 Z-0.75 J4.763
N180 G01 Y136.558 Z-1.962
N185 G02 X520.5 Y141.32 Z-2.354 I4.763
N190 G01 X500.506 Z-3.402
N195 G02 X504.763 Y136.585 Z-3.767 I-0.506 J-4.735
N200 G01 Y113.415 Z-4.981
N205 G02 X500.506 Y108.679 Z-5.347 I-4.763
N210 G01 X520.5 Z-6.395
N215 G02 X515.737 Y113.442 Z-6.787 J4.763
N220 G01 Y136.558 Z-7.998
N225 G02 X520.5 Y141.32 Z-8.39 I4.763
N230 G01 X500.506 Z-9.438
N235 G02 X504.763 Y136.585 Z-9.803 I-0.506 J-4.735
N240 G01 Y113.415 Z-11.018
N245 G02 X500.506 Y108.679 Z-11.383 I-4.763
N250 G01 X520.5 Z-12.431
N255 G02 X515.737 Y113.442 Z-12.823 J4.763
N260 G01 Y136.558 Z-14.034
N265 G02 X520.5 Y141.32 Z-14.427 I4.763
N270 G01 X500.506 Z-15.474
N275 G02 X504.763 Y136.585 Z-15.84 I-0.506 J-4.735
N280 G01 Y113.415 Z-17.054
N285 G02 X500.506 Y108.679 Z-17.42 I-4.763
N290 G01 X520.5 Z-18.467
N295 G02 X515.737 Y113.442 Z-18.859 J4.763
N300 G01 Y136.558 Z-20.071
N305 G02 X520.5 Y141.32 Z-20.463 I4.763
N310 G01 X510.25 Z-21
N315 X500.506 F780
N320 G02 X504.763 Y136.585 I-0.506 J-4.735
N325 G01 Y113.415
N330 G02 X500.506 Y108.679 I-4.763
N335 G01 X520.5
N340 G02 X515.737 Y113.442 J4.763
N345 G01 Y136.558
N350 G02 X520.5 Y141.32 I4.763
N355 G01 X510.25
N360 G03 X509.297 Y140.368 J-0.952
N365 G01 Y139.415
N370 Y139.301 Z-20.993
N375 Y139.188 Z-20.972
N380 Y139.078 Z-20.938
N385 Y138.973 Z-20.891
N390 Y138.874 Z-20.831
N395 Y138.784 Z-20.76
N400 Y138.703 Z-20.679
N405 Y138.632 Z-20.589
N410 Y138.572 Z-20.49
N415 Y138.525 Z-20.385
N420 Y138.491 Z-20.275
N425 Y138.47 Z-20.162
N430 Y138.463 Z-20.048
N435 Z5
N440 X20.651 Y141.179
N445 Z3.451 F260
N450 X20.654 Y141.178 Z3.366
N455 X20.665 Y141.176 Z3.282
N460 X20.684 Y141.171 Z3.199
N465 X20.709 Y141.165 Z3.118
N470 X20.741 Y141.156 Z3.04
N475 X20.78 Y141.145 Z2.965
N480 X20.825 Y141.133 Z2.894
N485 X20.875 Y141.118 Z2.827
N490 X20.931 Y141.1 Z2.765
N495 X20.992 Y141.081 Z2.709
N500 X21.057 Y141.059 Z2.659
N505 X21.126 Y141.035 Z2.615
N510 X21.197 Y141.008 Z2.577
N515 X21.271 Y140.979 Z2.547
N520 X21.347 Y140.948 Z2.524
N525 X21.424 Y140.915 Z2.508
N530 X21.501 Y140.88 Z2.5
N535 G02 X24.263 Y136.558 Z2.216 I-2.001 J-4.322
N540 G01 Y113.442 Z1.005
N545 G02 X19.5 Y108.679 Z0.613 I-4.763
N550 G01 X39.494 Z-0.435
N555 G02 X35.237 Y113.415 Z-0.801 I0.506 J4.736
N560 G01 Y136.585 Z-2.015
N565 G02 X39.494 Y141.32 Z-2.38 I4.763
N570 G01 X19.5 Z-3.428
N575 G02 X24.263 Y136.558 Z-3.82 J-4.762
N580 G01 Y113.442 Z-5.032
N585 G02 X19.5 Y108.679 Z-5.424 I-4.763
N590 G01 X39.494 Z-6.471
N595 G02 X35.237 Y113.415 Z-6.837 I0.506 J4.736
N600 G01 Y136.585 Z-8.051
N605 G02 X39.494 Y141.32 Z-8.417 I4.763
N610 G01 X19.5 Z-9.464
N615 G02 X24.263 Y136.558 Z-9.857 J-4.762
N620 G01 Y113.442 Z-11.068
N625 G02 X19.5 Y108.679 Z-11.46 I-4.763
N630 G01 X39.494 Z-12.508
N635 G02 X35.237 Y113.415 Z-12.873 I0.506 J4.736
N640 G01 Y136.585 Z-14.088
N645 G02 X39.494 Y141.32 Z-14.453 I4.763
N650 G01 X19.5 Z-15.501
N655 G02 X24.263 Y136.558 Z-15.893 J-4.762
N660 G01 Y113.442 Z-17.104
N665 G02 X19.5 Y108.679 Z-17.496 I-4.763
N670 G01 X39.494 Z-18.544
N675 G02 X35.237 Y113.415 Z-18.91 I0.506 J4.736
N680 G01 Y136.585 Z-20.124
N685 G02 X39.494 Y141.32 Z-20.489 I4.763
N690 G01 X29.75 Z-21
N695 X19.5 F780
N700 G02 X24.263 Y136.558 J-4.762
N705 G01 Y113.442
N710 G02 X19.5 Y108.679 I-4.763
N715 G01 X39.494
N720 G02 X35.237 Y113.415 I0.506 J4.736
N725 G01 Y136.585
N730 G02 X39.494 Y141.32 I4.763
N735 G01 X29.75
N740 G03 X28.798 Y140.368 J-0.952
N745 G01 Y139.415
N750 Y139.301 Z-20.993
N755 Y139.188 Z-20.972
N760 Y139.078 Z-20.938
N765 Y138.973 Z-20.891
N770 Y138.874 Z-20.831
N775 Y138.784 Z-20.76
N780 Y138.703 Z-20.679
N785 Y138.632 Z-20.589
N790 Y138.572 Z-20.49
N795 Y138.525 Z-20.385
N800 Y138.491 Z-20.275
N805 Y138.47 Z-20.162
N810 Y138.463 Z-20.048
N815 Z15
(When using Fusion 360 for Personal Use, the feedrate of)
(rapid moves is reduced to match the feedrate of cutting)
(moves, which can increase machining time. Unrestricted rapid)
(moves are available with a Fusion 360 Subscription.)

(2D Contour4)
N820 G00 X476.503 Y-7.62
N825 G01 Z15 F780
N830 Z5
N835 Z3.453 F260
N840 Y-7.613 Z3.338 F780
N845 Y-7.592 Z3.225
N850 Y-7.558 Z3.115
N855 Y-7.511 Z3.01
N860 Y-7.451 Z2.911
N865 Y-7.38 Z2.821
N870 Y-7.299 Z2.74
N875 Y-7.209 Z2.669
N880 Y-7.11 Z2.609
N885 Y-7.005 Z2.562
N890 Y-6.895 Z2.528
N895 Y-6.782 Z2.507
N900 Y-6.668 Z2.5
N905 Y-5.715
N910 G03 X475.551 Y-4.762 I-0.952
N915 G01 X40 Z0.98 F260
N920 G02 X35.237 Y0 Z0.954 J4.762
N925 G01 Y74.058 Z0.695
N930 G02 X40 Y78.821 Z0.669 I4.763
N935 G01 X0 Z0.529
N940 G02 X-4.762 Y83.583 Z0.503 J4.762
N945 G01 Y166.417 Z0.214
N950 G02 X0 Y171.18 Z0.188 I4.762
N955 G01 X40 Z0.048
N960 G02 X35.237 Y175.942 Z0.022 J4.762
N965 G01 Y250 Z-0.236
N970 G02 X40 Y254.762 Z-0.262 I4.763
N975 G01 X500 Z-1.868
N980 G02 X504.763 Y250 Z-1.894 J-4.762
N985 G01 Y175.942 Z-2.153
N990 G02 X500 Y171.18 Z-2.179 I-4.763
N995 G01 X540 Z-2.319
N1000 G02 X544.763 Y166.417 Z-2.345 J-4.762
N1005 G01 Y83.583 Z-2.634
N1010 G02 X540 Y78.821 Z-2.66 I-4.763
N1015 G01 X500 Z-2.8
N1020 G02 X504.763 Y74.058 Z-2.826 J-4.763
N1025 G01 Y0 Z-3.084
N1030 G02 X500 Y-4.762 Z-3.11 I-4.763
N1035 G01 X40 Z-4.716
N1040 G02 X35.237 Y0 Z-4.742 J4.762
N1045 G01 Y74.058 Z-5.001
N1050 G02 X40 Y78.821 Z-5.027 I4.763
N1055 G01 X0 Z-5.166
N1060 G02 X-4.762 Y83.583 Z-5.192 J4.762
N1065 G01 Y166.417 Z-5.482
N1070 G02 X0 Y171.18 Z-5.508 I4.762
N1075 G01 X40 Z-5.647
N1080 G02 X35.237 Y175.942 Z-5.673 J4.762
N1085 G01 Y250 Z-5.932
N1090 G02 X40 Y254.762 Z-5.958 I4.763
N1095 G01 X500 Z-7.564
N1100 G02 X504.763 Y250 Z-7.59 J-4.762
N1105 G01 Y175.942 Z-7.848
N1110 G02 X500 Y171.18 Z-7.875 I-4.763
N1115 G01 X540 Z-8.014
N1120 G02 X544.763 Y166.417 Z-8.04 J-4.762
N1125 G01 Y83.583 Z-8.329
N1130 G02 X540 Y78.821 Z-8.356 I-4.763
N1135 G01 X500 Z-8.495
N1140 G02 X504.763 Y74.058 Z-8.521 J-4.763
N1145 G01 Y0 Z-8.78
N1150 G02 X500 Y-4.762 Z-8.806 I-4.763
N1155 G01 X40 Z-10.412
N1160 G02 X35.237 Y0 Z-10.438 J4.762
N1165 G01 Y74.058 Z-10.696
N1170 G02 X40 Y78.821 Z-10.722 I4.763
N1175 G01 X0 Z-10.862
N1180 G02 X-4.762 Y83.583 Z-10.888 J4.762
N1185 G01 Y166.417 Z-11.177
N1190 G02 X0 Y171.18 Z-11.203 I4.762
N1195 G01 X40 Z-11.343
N1200 G02 X35.237 Y175.942 Z-11.369 J4.762
N1205 G01 Y250 Z-11.628
N1210 G02 X40 Y254.762 Z-11.654 I4.763
N1215 G01 X500 Z-13.259
N1220 G02 X504.763 Y250 Z-13.286 J-4.762
N1225 G01 Y175.942 Z-13.544
N1230 G02 X500 Y171.18 Z-13.57 I-4.763
N1235 G01 X540 Z-13.71
N1240 G02 X544.763 Y166.417 Z-13.736 J-4.762
N1245 G01 Y83.583 Z-14.025
N1250 G02 X540 Y78.821 Z-14.051 I-4.763
N1255 G01 X500 Z-14.191
N1260 G02 X504.763 Y74.058 Z-14.217 J-4.763
N1265 G01 Y0 Z-14.475
N1270 G02 X500 Y-4.762 Z-14.502 I-4.763
N1275 G01 X40 Z-16.107
N1280 G02 X35.237 Y0 Z-16.133 J4.762
N1285 G01 Y74.058 Z-16.392
N1290 G02 X40 Y78.821 Z-16.418 I4.763
N1295 G01 X0 Z-16.558
N1300 G02 X-4.762 Y83.583 Z-16.584 J4.762
N1305 G01 Y99.655 Z-16.64
N1310 Z-16
N1315 Y118.705
N1320 Z-16.706
N1325 Y141.964 Z-16.788
N1330 Z-16
N1335 Y161.014
N1340 Z-16.854
N1345 Y166.417 Z-16.873
N1350 G02 X0 Y171.18 Z-16.899 I4.762
N1355 G01 X40 Z-17.039
N1360 G02 X35.237 Y175.942 Z-17.065 J4.762
N1365 G01 Y250 Z-17.323
N1370 G02 X40 Y254.762 Z-17.349 I4.763
N1375 G01 X168.39 Z-17.798
N1380 Z-16
N1385 X187.44
N1390 Z-17.864
N1395 X420.4 Z-18.677
N1400 Z-16
N1405 X439.45
N1410 Z-18.744
N1415 X500 Z-18.955
N1420 G02 X504.763 Y250 Z-18.981 J-4.762
N1425 G01 Y175.942 Z-19.24
N1430 G02 X500 Y171.18 Z-19.266 I-4.763
N1435 G01 X540 Z-19.405
N1440 G02 X544.763 Y166.417 Z-19.432 J-4.762
N1445 G01 Y152.829 Z-19.479
N1450 Z-16
N1455 Y133.779
N1460 Z-19.545
N1465 Y112.609 Z-19.619
N1470 Z-16
N1475 Y93.559
N1480 Z-19.686
N1485 Y83.583 Z-19.721
N1490 G02 X540 Y78.821 Z-19.747 I-4.763
N1495 G01 X500 Z-19.886
N1500 G02 X504.763 Y74.058 Z-19.913 J-4.763
N1505 G01 Y0 Z-20.171
N1510 G02 X500 Y-4.762 Z-20.197 I-4.763
N1515 G01 X361.368 Z-20.681
N1520 Z-16
N1525 X342.318
N1530 Z-20.748
N1535 X270 Z-21
N1540 X166.489 F780
N1545 Z-16
N1550 X147.439
N1555 Z-21 F260
N1560 X40 F780
N1565 G02 X35.237 Y0 J4.762
N1570 G01 Y74.058
N1575 G02 X40 Y78.821 I4.763
N1580 G01 X0
N1585 G02 X-4.762 Y83.583 J4.762
N1590 G01 Y99.655
N1595 Z-16
N1600 Y118.705
N1605 Z-21 F260
N1610 Y141.964 F780
N1615 Z-16
N1620 Y161.014
N1625 Z-21 F260
N1630 Y166.417 F780
N1635 G02 X0 Y171.18 I4.762
N1640 G01 X40
N1645 G02 X35.237 Y175.942 J4.762
N1650 G01 Y250
N1655 G02 X40 Y254.762 I4.763
N1660 G01 X168.39
N1665 Z-16
N1670 X187.44
N1675 Z-21 F260
N1680 X420.4 F780
N1685 Z-16
N1690 X439.45
N1695 Z-21 F260
N1700 X500 F780
N1705 G02 X504.763 Y250 J-4.762
N1710 G01 Y175.942
N1715 G02 X500 Y171.18 I-4.763
N1720 G01 X540
N1725 G02 X544.763 Y166.417 J-4.762
N1730 G01 Y152.829
N1735 Z-16
N1740 Y133.779
N1745 Z-21 F260
N1750 Y112.609 F780
N1755 Z-16
N1760 Y93.559
N1765 Z-21 F260
N1770 Y83.583 F780
N1775 G02 X540 Y78.821 I-4.763
N1780 G01 X500
N1785 G02 X504.763 Y74.058 J-4.763
N1790 G01 Y0
N1795 G02 X500 Y-4.762 I-4.763
N1800 G01 X361.368
N1805 Z-16
N1810 X342.318
N1815 Z-21 F260
N1820 X270 F780
N1825 G03 X269.047 Y-5.715 J-0.953
N1830 G01 Y-6.668
N1835 Y-6.782 Z-20.993
N1840 Y-6.895 Z-20.972
N1845 Y-7.005 Z-20.938
N1850 Y-7.11 Z-20.891
N1855 Y-7.209 Z-20.831
N1860 Y-7.299 Z-20.76
N1865 Y-7.38 Z-20.679
N1870 Y-7.451 Z-20.589
N1875 Y-7.511 Z-20.49
N1880 Y-7.558 Z-20.385
N1885 Y-7.592 Z-20.275
N1890 Y-7.613 Z-20.162
N1895 Y-7.62 Z-20.048
N1900 Z15
N1905 G28 G91 Z0
N1910 G90
N1915 M30
%
