%
(shelf_test)
(T1 D=9.525 CR=0 - ZMIN=-22 - flat end mill)
G21
N10 G90
(When using Fusion 360 for Personal Use, the feedrate of)
(rapid moves is reduced to match the feedrate of cutting)
(moves, which can increase machining time. Unrestricted rapid)
(moves are available with a Fusion 360 Subscription.)
N15 G28 G91 Z0
N20 G90

(2D Contour2)
N25 T1
N30 M06
N35 S13000
N40 M04
N45 G90
N50 G00 X117.234 Y111.905
N55 Z15
N60 G01 Z5 F780
N65 Z3.451 F260
N70 X117.226 Z3.331
N75 X117.203 Z3.213
N80 X117.166 Z3.098
N85 X117.114 Z2.989
N90 X117.049 Z2.888
N95 X116.972 Z2.796
N100 X116.884 Z2.714
N105 X116.786 Z2.643
N110 X116.68 Z2.586
N115 X116.568 Z2.543
N120 X116.451 Z2.514
N125 X116.331 Z2.5
N130 X100.001 Z1.644
N135 G02 X104.762 Y107.142 Z1.252 I-0.001 J-4.763
N140 G01 Y92.858 Z0.504
N145 G02 X100 Y88.096 Z0.111 I-4.762
N150 G01 X120 Z-0.937
N155 G02 X115.238 Y92.858 Z-1.329 J4.762
N160 G01 Y107.142 Z-2.077
N165 G02 X119.999 Y111.905 Z-2.469 I4.762
N170 G01 X100.001 Z-3.517
N175 G02 X104.762 Y107.142 Z-3.909 I-0.001 J-4.763
N180 G01 Y92.858 Z-4.658
N185 G02 X100 Y88.096 Z-5.05 I-4.762
N190 G01 X120 Z-6.098
N195 G02 X115.238 Y92.858 Z-6.49 J4.762
N200 G01 Y107.142 Z-7.239
N205 G02 X119.999 Y111.905 Z-7.631 I4.762
N210 G01 X100.001 Z-8.679
N215 G02 X104.762 Y107.142 Z-9.071 I-0.001 J-4.763
N220 G01 Y92.858 Z-9.82
N225 G02 X100 Y88.096 Z-10.212 I-4.762
N230 G01 X120 Z-11.26
N235 G02 X115.238 Y92.858 Z-11.652 J4.762
N240 G01 Y107.142 Z-12.4
N245 G02 X119.999 Y111.905 Z-12.793 I4.762
N250 G01 X100.001 Z-13.841
N255 G02 X104.762 Y107.142 Z-14.233 I-0.001 J-4.763
N260 G01 Y92.858 Z-14.981
N265 G02 X100 Y88.096 Z-15.373 I-4.762
N270 G01 X120 Z-16.421
N275 G02 X115.238 Y92.858 Z-16.814 J4.762
N280 G01 Y107.142 Z-17.562
N285 G02 X119.999 Y111.905 Z-17.954 I4.762
N290 G01 X100.001 Z-19.002
N295 G02 X104.762 Y107.142 Z-19.394 I-0.001 J-4.763
N300 G01 Y92.858 Z-20.143
N305 G02 X100 Y88.096 Z-20.535 I-4.762
N310 G01 X120 Z-21.583
N315 G02 X115.238 Y92.858 Z-21.975 J4.762
N320 G01 Y93.333 Z-22
N325 Y107.142 F780
N330 G02 X119.999 Y111.905 I4.762
N335 G01 X100.001
N340 G02 X104.762 Y107.142 I-0.001 J-4.763
N345 G01 Y92.858
N350 G02 X100 Y88.096 I-4.762
N355 G01 X120
N360 G02 X115.238 Y92.858 J4.762
N365 G01 Y93.333
N370 G03 X114.285 Y94.286 I-0.952
N375 G01 X113.332
N380 X113.218 Z-21.993
N385 X113.105 Z-21.972
N390 X112.995 Z-21.938
N395 X112.89 Z-21.891
N400 X112.791 Z-21.831
N405 X112.701 Z-21.76
N410 X112.62 Z-21.679
N415 X112.549 Z-21.589
N420 X112.489 Z-21.49
N425 X112.442 Z-21.385
N430 X112.408 Z-21.275
N435 X112.387 Z-21.162
N440 X112.38 Z-21.048
N445 Z5
N450 X37.234 Y111.905
N455 Z3.451 F260
N460 X37.226 Z3.331
N465 X37.203 Z3.213
N470 X37.166 Z3.098
N475 X37.114 Z2.989
N480 X37.049 Z2.888
N485 X36.972 Z2.796
N490 X36.884 Z2.714
N495 X36.786 Z2.643
N500 X36.68 Z2.586
N505 X36.568 Z2.543
N510 X36.451 Z2.514
N515 X36.331 Z2.5
N520 X20 Z1.644
N525 G02 X24.763 Y107.142 Z1.252 J-4.763
N530 G01 Y92.858 Z0.504
N535 G02 X20 Y88.096 Z0.111 I-4.763
N540 G01 X40 Z-0.937
N545 G02 X35.237 Y92.858 Z-1.329 J4.762
N550 G01 Y107.142 Z-2.077
N555 G02 X40 Y111.905 Z-2.469 I4.763
N560 G01 X20 Z-3.517
N565 G02 X24.763 Y107.142 Z-3.909 J-4.763
N570 G01 Y92.858 Z-4.658
N575 G02 X20 Y88.096 Z-5.05 I-4.763
N580 G01 X40 Z-6.098
N585 G02 X35.237 Y92.858 Z-6.49 J4.762
N590 G01 Y107.142 Z-7.239
N595 G02 X40 Y111.905 Z-7.631 I4.763
N600 G01 X20 Z-8.679
N605 G02 X24.763 Y107.142 Z-9.071 J-4.763
N610 G01 Y92.858 Z-9.82
N615 G02 X20 Y88.096 Z-10.212 I-4.763
N620 G01 X40 Z-11.26
N625 G02 X35.237 Y92.858 Z-11.652 J4.762
N630 G01 Y107.142 Z-12.4
N635 G02 X40 Y111.905 Z-12.793 I4.763
N640 G01 X20 Z-13.841
N645 G02 X24.763 Y107.142 Z-14.233 J-4.763
N650 G01 Y92.858 Z-14.981
N655 G02 X20 Y88.096 Z-15.373 I-4.763
N660 G01 X40 Z-16.421
N665 G02 X35.237 Y92.858 Z-16.814 J4.762
N670 G01 Y107.142 Z-17.562
N675 G02 X40 Y111.905 Z-17.954 I4.763
N680 G01 X20 Z-19.002
N685 G02 X24.763 Y107.142 Z-19.394 J-4.763
N690 G01 Y92.858 Z-20.143
N695 G02 X20 Y88.096 Z-20.535 I-4.763
N700 G01 X40 Z-21.583
N705 G02 X35.237 Y92.858 Z-21.975 J4.762
N710 G01 Y93.333 Z-22
N715 Y107.142 F780
N720 G02 X40 Y111.905 I4.763
N725 G01 X20
N730 G02 X24.763 Y107.142 J-4.763
N735 G01 Y92.858
N740 G02 X20 Y88.096 I-4.763
N745 G01 X40
N750 G02 X35.237 Y92.858 J4.762
N755 G01 Y93.333
N760 G03 X34.285 Y94.286 I-0.952
N765 G01 X33.333
N770 X33.218 Z-21.993
N775 X33.105 Z-21.972
N780 X32.995 Z-21.938
N785 X32.89 Z-21.891
N790 X32.791 Z-21.831
N795 X32.701 Z-21.76
N800 X32.62 Z-21.679
N805 X32.549 Z-21.589
N810 X32.489 Z-21.49
N815 X32.442 Z-21.385
N820 X32.408 Z-21.275
N825 X32.387 Z-21.162
N830 X32.38 Z-21.048
N835 Z15
(When using Fusion 360 for Personal Use, the feedrate of)
(rapid moves is reduced to match the feedrate of cutting)
(moves, which can increase machining time. Unrestricted rapid)
(moves are available with a Fusion 360 Subscription.)

(2D Contour4)
N840 G00 X107.62 Y27.135
N845 G01 Z15 F780
N850 Z5
N855 Z3.453 F260
N860 X107.613 Z3.338 F780
N865 X107.592 Z3.225
N870 X107.558 Z3.115
N875 X107.511 Z3.01
N880 X107.451 Z2.911
N885 X107.38 Z2.821
N890 X107.299 Z2.74
N895 X107.209 Z2.669
N900 X107.11 Z2.609
N905 X107.005 Z2.562
N910 X106.895 Z2.528
N915 X106.782 Z2.507
N920 X106.668 Z2.5
N925 X105.715
N930 G03 X104.762 Y26.183 J-0.952
N935 G01 Y0 Z2.272 F260
N940 G02 X100 Y-4.762 Z2.206 I-4.762
N945 G01 X40 Z1.683
N950 G02 X35.237 Y0 Z1.617 J4.762
N955 G01 Y57.142 Z1.119
N960 G02 X40 Y61.904 Z1.053 I4.763
N965 G01 X0 Z0.704
N970 G02 X-4.762 Y66.667 Z0.639 J4.763
N975 G01 Y133.333 Z0.057
N980 G02 X0 Y138.096 Z-0.008 I4.762
N985 G01 X40 Z-0.357
N990 G02 X35.237 Y142.858 Z-0.422 J4.762
N995 G01 Y200 Z-0.921
N1000 G02 X40 Y204.762 Z-0.986 I4.763
N1005 G01 X100 Z-1.51
N1010 G02 X104.762 Y200 Z-1.575 J-4.762
N1015 G01 Y142.858 Z-2.074
N1020 G02 X100.001 Y138.096 Z-2.139 I-4.762
N1025 G01 X140 Z-2.488
N1030 G02 X144.762 Y133.333 Z-2.554 J-4.763
N1035 G01 Y66.667 Z-3.135
N1040 G02 X140 Y61.904 Z-3.201 I-4.762
N1045 G01 X100 Z-3.55
N1050 G02 X104.762 Y57.142 Z-3.615 J-4.763
N1055 G01 Y0 Z-4.114
N1060 G02 X100 Y-4.762 Z-4.179 I-4.762
N1065 G01 X40 Z-4.703
N1070 G02 X35.237 Y0 Z-4.768 J4.762
N1075 G01 Y57.142 Z-5.267
N1080 G02 X40 Y61.904 Z-5.332 I4.763
N1085 G01 X0 Z-5.681
N1090 G02 X-4.762 Y66.667 Z-5.746 J4.763
N1095 G01 Y133.333 Z-6.328
N1100 G02 X0 Y138.096 Z-6.393 I4.762
N1105 G01 X40 Z-6.742
N1110 G02 X35.237 Y142.858 Z-6.808 J4.762
N1115 G01 Y200 Z-7.306
N1120 G02 X40 Y204.762 Z-7.372 I4.763
N1125 G01 X100 Z-7.895
N1130 G02 X104.762 Y200 Z-7.96 J-4.762
N1135 G01 Y142.858 Z-8.459
N1140 G02 X100.001 Y138.096 Z-8.524 I-4.762
N1145 G01 X140 Z-8.873
N1150 G02 X144.762 Y133.333 Z-8.939 J-4.763
N1155 G01 Y66.667 Z-9.521
N1160 G02 X140 Y61.904 Z-9.586 I-4.762
N1165 G01 X100 Z-9.935
N1170 G02 X104.762 Y57.142 Z-10 J-4.763
N1175 G01 Y0 Z-10.499
N1180 G02 X100 Y-4.762 Z-10.564 I-4.762
N1185 G01 X40 Z-11.088
N1190 G02 X35.237 Y0 Z-11.153 J4.762
N1195 G01 Y57.142 Z-11.652
N1200 G02 X40 Y61.904 Z-11.717 I4.763
N1205 G01 X0 Z-12.066
N1210 G02 X-4.762 Y66.667 Z-12.131 J4.763
N1215 G01 Y133.333 Z-12.713
N1220 G02 X0 Y138.096 Z-12.778 I4.762
N1225 G01 X40 Z-13.127
N1230 G02 X35.237 Y142.858 Z-13.193 J4.762
N1235 G01 Y200 Z-13.691
N1240 G02 X40 Y204.762 Z-13.757 I4.763
N1245 G01 X100 Z-14.28
N1250 G02 X104.762 Y200 Z-14.346 J-4.762
N1255 G01 Y142.858 Z-14.844
N1260 G02 X100.001 Y138.096 Z-14.91 I-4.762
N1265 G01 X140 Z-15.259
N1270 G02 X144.762 Y133.333 Z-15.324 J-4.763
N1275 G01 Y66.667 Z-15.906
N1280 G02 X140 Y61.904 Z-15.971 I-4.762
N1285 G01 X100 Z-16.32
N1290 G02 X104.762 Y57.142 Z-16.385 J-4.763
N1295 G01 Y0 Z-16.884
N1300 G02 X100 Y-4.762 Z-16.949 I-4.762
N1305 G01 X90.2 Z-17.035
N1310 Z-17
N1315 X71.15
N1320 Z-17.201
N1325 X64.781 Z-17.257
N1330 Z-17
N1335 X45.731
N1340 Z-17.423
N1345 X40 Z-17.473
N1350 G02 X35.237 Y0 Z-17.538 J4.762
N1355 G01 Y57.142 Z-18.037
N1360 G02 X40 Y61.904 Z-18.102 I4.763
N1365 G01 X0 Z-18.451
N1370 G02 X-4.762 Y66.667 Z-18.517 J4.763
N1375 G01 Y77.743 Z-18.613
N1380 Z-17
N1385 Y96.793
N1390 Z-18.779
N1395 Y111.794 Z-18.91
N1400 Z-17
N1405 Y130.844
N1410 Z-19.077
N1415 Y133.333 Z-19.098
N1420 G02 X0 Y138.096 Z-19.164 I4.762
N1425 G01 X40 Z-19.513
N1430 G02 X35.237 Y142.858 Z-19.578 J4.762
N1435 G01 Y200 Z-20.077
N1440 G02 X40 Y204.762 Z-20.142 I4.763
N1445 G01 X48.464 Z-20.216
N1450 Z-17
N1455 X67.514
N1460 Z-20.382
N1465 X81.335 Z-20.503
N1470 Z-17
N1475 X100
N1480 G02 X100.385 Y204.747 J-4.762
N1485 G01 Z-20.669
N1490 G02 X104.762 Y200 Z-20.731 I-0.385 J-4.747
N1495 G01 Y142.858 Z-21.229
N1500 G02 X100.001 Y138.096 Z-21.295 I-4.762
N1505 G01 X140 Z-21.644
N1510 G02 X144.762 Y133.333 Z-21.709 J-4.763
N1515 G01 Y124.257 Z-21.788
N1520 Z-17
N1525 Y105.207
N1530 Z-21.955
N1535 Y100 Z-22
N1540 Y91.886 F780
N1545 Z-17
N1550 Y72.836
N1555 Z-22 F260
N1560 Y66.667 F780
N1565 G02 X140 Y61.904 I-4.762
N1570 G01 X100
N1575 G02 X104.762 Y57.142 J-4.763
N1580 G01 Y0
N1585 G02 X100 Y-4.762 I-4.762
N1590 G01 X90.2
N1595 Z-17
N1600 X71.15
N1605 Z-22 F260
N1610 X64.781 F780
N1615 Z-17
N1620 X45.731
N1625 Z-22 F260
N1630 X40 F780
N1635 G02 X35.237 Y0 J4.762
N1640 G01 Y57.142
N1645 G02 X40 Y61.904 I4.763
N1650 G01 X0
N1655 G02 X-4.762 Y66.667 J4.763
N1660 G01 Y77.743
N1665 Z-17
N1670 Y96.793
N1675 Z-22 F260
N1680 Y111.794 F780
N1685 Z-17
N1690 Y130.844
N1695 Z-22 F260
N1700 Y133.333 F780
N1705 G02 X0 Y138.096 I4.762
N1710 G01 X40
N1715 G02 X35.237 Y142.858 J4.762
N1720 G01 Y200
N1725 G02 X40 Y204.762 I4.763
N1730 G01 X48.464
N1735 Z-17
N1740 X67.514
N1745 Z-22 F260
N1750 X81.335 F780
N1755 Z-17
N1760 X100
N1765 G02 X100.385 Y204.747 J-4.762
N1770 G01 Z-22 F260
N1775 G02 X104.762 Y200 I-0.385 J-4.747 F780
N1780 G01 Y142.858
N1785 G02 X100.001 Y138.096 I-4.762
N1790 G01 X140
N1795 G02 X144.762 Y133.333 J-4.763
N1800 G01 Y124.257
N1805 Z-17
N1810 Y105.207
N1815 Z-22 F260
N1820 Y100 F780
N1825 G03 X145.715 Y99.048 I0.952
N1830 G01 X146.667
N1835 X146.782 Z-21.993
N1840 X146.895 Z-21.972
N1845 X147.005 Z-21.938
N1850 X147.11 Z-21.891
N1855 X147.209 Z-21.831
N1860 X147.299 Z-21.76
N1865 X147.38 Z-21.679
N1870 X147.451 Z-21.589
N1875 X147.511 Z-21.49
N1880 X147.558 Z-21.385
N1885 X147.592 Z-21.275
N1890 X147.613 Z-21.162
N1895 X147.62 Z-21.048
N1900 Z15
N1905 G28 G91 Z0
N1910 G90
N1915 M30
%
