%
(ShelfLowClearance)
(T5 D=9.525 CR=0 - ZMIN=-21 - flat end mill)
G21
N10 G90
(When using Fusion 360 for Personal Use, the feedrate of)
(rapid moves is reduced to match the feedrate of cutting)
(moves, which can increase machining time. Unrestricted rapid)
(moves are available with a Fusion 360 Subscription.)
N15 G28 G91 Z0
N20 G90

(2D Contour2)
N25 T5
N30 M06
N35 S13000
N40 M04
N45 G90
N50 G00 X124.652 Y512.63
N55 Z15
N60 G01 Z5 F5200
N65 Z3.453 F1733.3
N70 Y512.637 Z3.338 F5200
N75 Y512.658 Z3.225
N80 Y512.692 Z3.115
N85 Y512.739 Z3.01
N90 Y512.799 Z2.911
N95 Y512.87 Z2.821
N100 Y512.951 Z2.74
N105 Y513.041 Z2.669
N110 Y513.14 Z2.609
N115 Y513.245 Z2.562
N120 Y513.355 Z2.528
N125 Y513.468 Z2.507
N130 Y513.583 Z2.5
N135 Y514.535
N140 G03 X123.7 Y515.487 I-0.952
N145 G01 X113.567 Z1.969 F1733.3
N150 G02 X108.804 Y520.25 Z1.577 J4.763
N155 G01 Y500.258 Z0.529
N160 G02 X113.56 Y504.763 Z0.151 I4.756 J-0.258
N165 G01 X136.44 Z-1.048
N170 G02 X141.195 Y500.258 Z-1.427 J-4.763
N175 G01 Y520.25 Z-2.475
N180 G02 X136.433 Y515.487 Z-2.867 I-4.762
N185 G01 X113.567 Z-4.065
N190 G02 X108.804 Y520.25 Z-4.457 J4.763
N195 G01 Y500.258 Z-5.505
N200 G02 X113.56 Y504.763 Z-5.883 I4.756 J-0.258
N205 G01 X136.44 Z-7.082
N210 G02 X141.195 Y500.258 Z-7.461 J-4.763
N215 G01 Y520.25 Z-8.509
N220 G02 X136.433 Y515.487 Z-8.901 I-4.762
N225 G01 X113.567 Z-10.099
N230 G02 X108.804 Y520.25 Z-10.491 J4.763
N235 G01 Y500.258 Z-11.539
N240 G02 X113.56 Y504.763 Z-11.917 I4.756 J-0.258
N245 G01 X136.44 Z-13.116
N250 G02 X141.195 Y500.258 Z-13.495 J-4.763
N255 G01 Y520.25 Z-14.543
N260 G02 X136.433 Y515.487 Z-14.935 I-4.762
N265 G01 X113.567 Z-16.133
N270 G02 X108.804 Y520.25 Z-16.525 J4.763
N275 G01 Y500.258 Z-17.573
N280 G02 X113.56 Y504.763 Z-17.951 I4.756 J-0.258
N285 G01 X136.44 Z-19.15
N290 G02 X141.195 Y500.258 Z-19.529 J-4.763
N295 G01 Y520.25 Z-20.577
N300 G02 X136.433 Y515.487 Z-20.969 I-4.762
N305 G01 X135.833 Z-21
N310 X113.567 F5200
N315 G02 X108.804 Y520.25 J4.763
N320 G01 Y500.258
N325 G02 X113.56 Y504.763 I4.756 J-0.258
N330 G01 X136.44
N335 G02 X141.195 Y500.258 J-4.763
N340 G01 Y520.25
N345 G02 X136.433 Y515.487 I-4.762
N350 G01 X135.833
N355 G03 X134.88 Y514.535 J-0.953
N360 G01 Y513.583
N365 Y513.468 Z-20.993
N370 Y513.355 Z-20.972
N375 Y513.245 Z-20.938
N380 Y513.14 Z-20.891
N385 Y513.041 Z-20.831
N390 Y512.951 Z-20.76
N395 Y512.87 Z-20.679
N400 Y512.799 Z-20.589
N405 Y512.739 Z-20.49
N410 Y512.692 Z-20.385
N415 Y512.658 Z-20.275
N420 Y512.637 Z-20.162
N425 Y512.63 Z-20.048
N430 Z5
N435 X108.804 Y36.341
N440 Z3.451 F1733.3
N445 Y36.334 Z3.331
N450 Y36.311 Z3.213
N455 Y36.273 Z3.098
N460 Y36.222 Z2.989
N465 Y36.157 Z2.888
N470 Y36.08 Z2.796
N475 Y35.991 Z2.714
N480 Y35.893 Z2.643
N485 Y35.787 Z2.586
N490 Y35.675 Z2.543
N495 Y35.558 Z2.514
N500 Y35.439 Z2.5
N505 Y19.75 Z1.678
N510 G02 X113.567 Y24.513 Z1.286 I4.763
N515 G01 X136.433 Z0.087
N520 G02 X141.195 Y19.75 Z-0.305 J-4.763
N525 G01 Y39.742 Z-1.352
N530 G02 X136.44 Y35.237 Z-1.731 I-4.755 J0.258
N535 G01 X113.56 Z-2.93
N540 G02 X108.804 Y39.742 Z-3.308 J4.763
N545 G01 Y19.75 Z-4.356
N550 G02 X113.567 Y24.513 Z-4.748 I4.763
N555 G01 X136.433 Z-5.947
N560 G02 X141.195 Y19.75 Z-6.339 J-4.763
N565 G01 Y39.742 Z-7.386
N570 G02 X136.44 Y35.237 Z-7.765 I-4.755 J0.258
N575 G01 X113.56 Z-8.964
N580 G02 X108.804 Y39.742 Z-9.342 J4.763
N585 G01 Y19.75 Z-10.39
N590 G02 X113.567 Y24.513 Z-10.782 I4.763
N595 G01 X136.433 Z-11.98
N600 G02 X141.195 Y19.75 Z-12.373 J-4.763
N605 G01 Y39.742 Z-13.42
N610 G02 X136.44 Y35.237 Z-13.799 I-4.755 J0.258
N615 G01 X113.56 Z-14.998
N620 G02 X108.804 Y39.742 Z-15.376 J4.763
N625 G01 Y19.75 Z-16.424
N630 G02 X113.567 Y24.513 Z-16.816 I4.763
N635 G01 X136.433 Z-18.014
N640 G02 X141.195 Y19.75 Z-18.406 J-4.763
N645 G01 Y39.742 Z-19.454
N650 G02 X136.44 Y35.237 Z-19.833 I-4.755 J0.258
N655 G01 X114.167 Z-21
N660 X113.56 F5200
N665 G02 X108.804 Y39.742 J4.763
N670 G01 Y19.75
N675 G02 X113.567 Y24.513 I4.763
N680 G01 X136.433
N685 G02 X141.195 Y19.75 J-4.763
N690 G01 Y39.742
N695 G02 X136.44 Y35.237 I-4.755 J0.258
N700 G01 X114.167
N705 G03 X113.215 Y34.285 J-0.952
N710 G01 Y33.333
N715 Y33.218 Z-20.993
N720 Y33.105 Z-20.972
N725 Y32.995 Z-20.938
N730 Y32.89 Z-20.891
N735 Y32.791 Z-20.831
N740 Y32.701 Z-20.76
N745 Y32.62 Z-20.679
N750 Y32.549 Z-20.589
N755 Y32.489 Z-20.49
N760 Y32.442 Z-20.385
N765 Y32.408 Z-20.275
N770 Y32.387 Z-20.162
N775 Y32.38 Z-20.048
N780 Z15
(When using Fusion 360 for Personal Use, the feedrate of)
(rapid moves is reduced to match the feedrate of cutting)
(moves, which can increase machining time. Unrestricted rapid)
(moves are available with a Fusion 360 Subscription.)

(2D Contour4)
N785 G00 X-7.62 Y63.497
N790 G01 Z15 F5200
N795 Z5
N800 Z3.453 F1733.3
N805 X-7.613 Z3.338 F5200
N810 X-7.592 Z3.225
N815 X-7.558 Z3.115
N820 X-7.511 Z3.01
N825 X-7.451 Z2.911
N830 X-7.38 Z2.821
N835 X-7.299 Z2.74
N840 X-7.209 Z2.669
N845 X-7.11 Z2.609
N850 X-7.005 Z2.562
N855 X-6.895 Z2.528
N860 X-6.782 Z2.507
N865 X-6.668 Z2.5
N870 X-5.715
N875 G03 X-4.762 Y64.449 J0.952
N880 G01 Y500 Z0.98 F1733.3
N885 G02 X0 Y504.763 Z0.954 I4.762
N890 G01 X73.933 Z0.695
N895 G02 X78.696 Y500 Z0.669 J-4.763
N900 G01 Y540 Z0.53
N905 G02 X83.458 Y544.763 Z0.504 I4.762
N910 G01 X166.542 Z0.214
N915 G02 X171.305 Y540 Z0.187 J-4.763
N920 G01 Y500 Z0.048
N925 G02 X176.067 Y504.763 Z0.022 I4.762
N930 G01 X250 Z-0.236
N935 G02 X254.762 Y500 Z-0.262 J-4.763
N940 G01 Y40 Z-1.868
N945 G02 X250 Y35.237 Z-1.894 I-4.762
N950 G01 X176.067 Z-2.152
N955 G02 X171.305 Y40 Z-2.178 J4.763
N960 G01 Y0 Z-2.318
N965 G02 X166.542 Y-4.762 Z-2.344 I-4.762
N970 G01 X83.458 Z-2.634
N975 G02 X78.696 Y0 Z-2.66 J4.762
N980 G01 Y40 Z-2.8
N985 G02 X73.933 Y35.237 Z-2.826 I-4.763
N990 G01 X0 Z-3.084
N995 G02 X-4.762 Y40 Z-3.11 J4.763
N1000 G01 Y500 Z-4.716
N1005 G02 X0 Y504.763 Z-4.742 I4.762
N1010 G01 X73.933 Z-5
N1015 G02 X78.696 Y500 Z-5.026 J-4.763
N1020 G01 Y540 Z-5.166
N1025 G02 X83.458 Y544.763 Z-5.192 I4.762
N1030 G01 X166.542 Z-5.482
N1035 G02 X171.305 Y540 Z-5.508 J-4.763
N1040 G01 Y500 Z-5.648
N1045 G02 X176.067 Y504.763 Z-5.674 I4.762
N1050 G01 X250 Z-5.932
N1055 G02 X254.762 Y500 Z-5.958 J-4.763
N1060 G01 Y40 Z-7.564
N1065 G02 X250 Y35.237 Z-7.59 I-4.762
N1070 G01 X176.067 Z-7.848
N1075 G02 X171.305 Y40 Z-7.874 J4.763
N1080 G01 Y0 Z-8.014
N1085 G02 X166.542 Y-4.762 Z-8.04 I-4.762
N1090 G01 X83.458 Z-8.33
N1095 G02 X78.696 Y0 Z-8.356 J4.762
N1100 G01 Y40 Z-8.496
N1105 G02 X73.933 Y35.237 Z-8.522 I-4.763
N1110 G01 X0 Z-8.78
N1115 G02 X-4.762 Y40 Z-8.806 J4.763
N1120 G01 Y500 Z-10.412
N1125 G02 X0 Y504.763 Z-10.438 I4.762
N1130 G01 X73.933 Z-10.696
N1135 G02 X78.696 Y500 Z-10.722 J-4.763
N1140 G01 Y540 Z-10.862
N1145 G02 X83.458 Y544.763 Z-10.888 I4.762
N1150 G01 X166.542 Z-11.178
N1155 G02 X171.305 Y540 Z-11.204 J-4.763
N1160 G01 Y500 Z-11.343
N1165 G02 X176.067 Y504.763 Z-11.37 I4.762
N1170 G01 X250 Z-11.628
N1175 G02 X254.762 Y500 Z-11.654 J-4.763
N1180 G01 Y40 Z-13.259
N1185 G02 X250 Y35.237 Z-13.286 I-4.762
N1190 G01 X176.067 Z-13.544
N1195 G02 X171.305 Y40 Z-13.57 J4.763
N1200 G01 Y0 Z-13.709
N1205 G02 X166.542 Y-4.762 Z-13.735 I-4.762
N1210 G01 X83.458 Z-14.025
N1215 G02 X78.696 Y0 Z-14.052 J4.762
N1220 G01 Y40 Z-14.191
N1225 G02 X73.933 Y35.237 Z-14.217 I-4.763
N1230 G01 X0 Z-14.475
N1235 G02 X-4.762 Y40 Z-14.502 J4.763
N1240 G01 Y500 Z-16.107
N1245 G02 X0 Y504.763 Z-16.133 I4.762
N1250 G01 X73.933 Z-16.391
N1255 G02 X78.696 Y500 Z-16.418 J-4.763
N1260 G01 Y540 Z-16.557
N1265 G02 X83.458 Y544.763 Z-16.583 I4.762
N1270 G01 X97.115 Z-16.631
N1275 Z-16
N1280 X116.165
N1285 Z-16.697
N1290 X137.457 Z-16.772
N1295 Z-16
N1300 X156.507
N1305 Z-16.838
N1310 X166.542 Z-16.873
N1315 G02 X171.305 Y540 Z-16.899 J-4.763
N1320 G01 Y500 Z-17.039
N1325 G02 X176.067 Y504.763 Z-17.065 I4.762
N1330 G01 X250 Z-17.323
N1335 G02 X254.762 Y500 Z-17.349 J-4.763
N1340 G01 Y361.368 Z-17.833
N1345 Z-16
N1350 Y342.318
N1355 Z-17.9
N1360 Y166.489 Z-18.514
N1365 Z-16
N1370 Y147.439
N1375 Z-18.58
N1380 Y40 Z-18.955
N1385 G02 X250 Y35.237 Z-18.981 I-4.762
N1390 G01 X176.067 Z-19.239
N1395 G02 X171.305 Y40 Z-19.265 J4.763
N1400 G01 Y0 Z-19.405
N1405 G02 X166.542 Y-4.762 Z-19.431 I-4.762
N1410 G01 X150.392 Z-19.487
N1415 Z-16
N1420 X131.342
N1425 Z-19.554
N1430 X107.956 Z-19.636
N1435 Z-16
N1440 X88.906
N1445 Z-19.702
N1450 X83.458 Z-19.721
N1455 G02 X78.696 Y0 Z-19.747 J4.762
N1460 G01 Y40 Z-19.887
N1465 G02 X73.933 Y35.237 Z-19.913 I-4.763
N1470 G01 X0 Z-20.171
N1475 G02 X-4.762 Y40 Z-20.197 J4.763
N1480 G01 Y168.39 Z-20.645
N1485 Z-16
N1490 Y187.44
N1495 Z-20.712
N1500 Y270 Z-21
N1505 Y420.4 F5200
N1510 Z-16
N1515 Y439.45
N1520 Z-21 F1733.3
N1525 Y500 F5200
N1530 G02 X0 Y504.763 I4.762
N1535 G01 X73.933
N1540 G02 X78.696 Y500 J-4.763
N1545 G01 Y540
N1550 G02 X83.458 Y544.763 I4.762
N1555 G01 X97.115
N1560 Z-16
N1565 X116.165
N1570 Z-21 F1733.3
N1575 X137.457 F5200
N1580 Z-16
N1585 X156.507
N1590 Z-21 F1733.3
N1595 X166.542 F5200
N1600 G02 X171.305 Y540 J-4.763
N1605 G01 Y500
N1610 G02 X176.067 Y504.763 I4.762
N1615 G01 X250
N1620 G02 X254.762 Y500 J-4.763
N1625 G01 Y361.368
N1630 Z-16
N1635 Y342.318
N1640 Z-21 F1733.3
N1645 Y166.489 F5200
N1650 Z-16
N1655 Y147.439
N1660 Z-21 F1733.3
N1665 Y40 F5200
N1670 G02 X250 Y35.237 I-4.762
N1675 G01 X176.067
N1680 G02 X171.305 Y40 J4.763
N1685 G01 Y0
N1690 G02 X166.542 Y-4.762 I-4.762
N1695 G01 X150.392
N1700 Z-16
N1705 X131.342
N1710 Z-21 F1733.3
N1715 X107.956 F5200
N1720 Z-16
N1725 X88.906
N1730 Z-21 F1733.3
N1735 X83.458 F5200
N1740 G02 X78.696 Y0 J4.762
N1745 G01 Y40
N1750 G02 X73.933 Y35.237 I-4.763
N1755 G01 X0
N1760 G02 X-4.762 Y40 J4.763
N1765 G01 Y168.39
N1770 Z-16
N1775 Y187.44
N1780 Z-21 F1733.3
N1785 Y270 F5200
N1790 G03 X-5.715 Y270.953 I-0.953
N1795 G01 X-6.668
N1800 X-6.782 Z-20.993
N1805 X-6.895 Z-20.972
N1810 X-7.005 Z-20.938
N1815 X-7.11 Z-20.891
N1820 X-7.209 Z-20.831
N1825 X-7.299 Z-20.76
N1830 X-7.38 Z-20.679
N1835 X-7.451 Z-20.589
N1840 X-7.511 Z-20.49
N1845 X-7.558 Z-20.385
N1850 X-7.592 Z-20.275
N1855 X-7.613 Z-20.162
N1860 X-7.62 Z-20.048
N1865 Z15
N1870 G28 G91 Z0
N1875 G90
N1880 M30
%
