%
(shelf)
(T1 D=9.525 CR=0 - ZMIN=-21 - flat end mill)
G21
N10 G90
(When using Fusion 360 for Personal Use, the feedrate of)
(rapid moves is reduced to match the feedrate of cutting)
(moves, which can increase machining time. Unrestricted rapid)
(moves are available with a Fusion 360 Subscription.)
N15 G28 G91 Z0
N20 G90

(2D Contour2)
N25 T1
N30 M06
N35 S13000
N40 M04
N45 G90
N50 G00 X117.632 Y112.405
N55 Z15
N60 G01 Z5 F780
N65 Z3.451 F260
N70 X117.625 Z3.331
N75 X117.602 Z3.213
N80 X117.565 Z3.098
N85 X117.513 Z2.989
N90 X117.448 Z2.888
N95 X117.371 Z2.796
N100 X117.282 Z2.714
N105 X117.185 Z2.643
N110 X117.079 Z2.586
N115 X116.966 Z2.543
N120 X116.849 Z2.514
N125 X116.73 Z2.5
N130 X101.004 Z1.676
N135 X101.002 Y112.404
N140 G02 X104.762 Y107.748 Z1.337 I-1.002 J-4.656
N145 G01 Y92.252 Z0.524
N150 G02 X101 Y87.596 Z0.185 I-4.762
N155 G01 X121 Z-0.863
N160 G02 X116.238 Y92.358 Z-1.255 J4.762
N165 G01 Y107.642 Z-2.056
N170 G02 X120.999 Y112.405 Z-2.448 I4.762
N175 G01 X101.004 Z-3.496
N180 X101.002 Y112.404
N185 G02 X104.762 Y107.748 Z-3.835 I-1.002 J-4.656
N190 G01 Y92.252 Z-4.647
N195 G02 X101 Y87.596 Z-4.987 I-4.762
N200 G01 X121 Z-6.035
N205 G02 X116.238 Y92.358 Z-6.427 J4.762
N210 G01 Y107.642 Z-7.228
N215 G02 X120.999 Y112.405 Z-7.62 I4.762
N220 G01 X101.004 Z-8.668
N225 X101.002 Y112.404
N230 G02 X104.762 Y107.748 Z-9.007 I-1.002 J-4.656
N235 G01 Y92.252 Z-9.819
N240 G02 X101 Y87.596 Z-10.158 I-4.762
N245 G01 X121 Z-11.207
N250 G02 X116.238 Y92.358 Z-11.599 J4.762
N255 G01 Y107.642 Z-12.4
N260 G02 X120.999 Y112.405 Z-12.792 I4.762
N265 G01 X101.004 Z-13.84
N270 X101.002 Y112.404
N275 G02 X104.762 Y107.748 Z-14.179 I-1.002 J-4.656
N280 G01 Y92.252 Z-14.991
N285 G02 X101 Y87.596 Z-15.33 I-4.762
N290 G01 X121 Z-16.378
N295 G02 X116.238 Y92.358 Z-16.771 J4.762
N300 G01 Y107.642 Z-17.571
N305 G02 X120.999 Y112.405 Z-17.964 I4.762
N310 G01 X101.004 Z-19.011
N315 X101.002 Y112.404 Z-19.012
N320 G02 X104.762 Y107.748 Z-19.351 I-1.002 J-4.656
N325 G01 Y92.252 Z-20.163
N330 G02 X101 Y87.596 Z-20.502 I-4.762
N335 G01 X110.5 Z-21
N340 X121 F780
N345 G02 X116.238 Y92.358 J4.762
N350 G01 Y107.642
N355 G02 X120.999 Y112.405 I4.762
N360 G01 X101.004
N365 X101.002 Y112.404
N370 G02 X104.762 Y107.748 I-1.002 J-4.656
N375 G01 Y92.252
N380 G02 X101 Y87.596 I-4.762
N385 G01 X110.5
N390 G03 X111.452 Y88.548 J0.952
N395 G01 Y89.501
N400 Y89.616 Z-20.993
N405 Y89.729 Z-20.972
N410 Y89.839 Z-20.938
N415 Y89.943 Z-20.891
N420 Y90.042 Z-20.831
N425 Y90.132 Z-20.76
N430 Y90.214 Z-20.679
N435 Y90.285 Z-20.589
N440 Y90.344 Z-20.49
N445 Y90.391 Z-20.385
N450 Y90.426 Z-20.275
N455 Y90.446 Z-20.162
N460 Y90.453 Z-20.048
N465 Z5
N470 X21.985 Y111.353
N475 Z3.451 F260
N480 X21.988 Y111.351 Z3.366
N485 X21.997 Y111.343 Z3.282
N490 X22.011 Y111.331 Z3.199
N495 X22.032 Y111.315 Z3.118
N500 X22.057 Y111.294 Z3.04
N505 X22.088 Y111.268 Z2.965
N510 X22.123 Y111.237 Z2.894
N515 X22.163 Y111.202 Z2.827
N520 X22.207 Y111.163 Z2.765
N525 X22.253 Y111.12 Z2.709
N530 X22.303 Y111.073 Z2.659
N535 X22.355 Y111.022 Z2.615
N540 X22.409 Y110.968 Z2.577
N545 X22.464 Y110.91 Z2.547
N550 X22.52 Y110.85 Z2.524
N555 X22.575 Y110.788 Z2.508
N560 X22.631 Y110.724 Z2.5
N565 G02 X23.763 Y107.642 Z2.324 I-3.631 J-3.082
N570 G01 Y92.358 Z1.523
N575 G02 X19 Y87.596 Z1.131 I-4.763
N580 G01 X39 Z0.083
N585 G02 X35.237 Y92.252 Z-0.256 I1 J4.656
N590 G01 Y107.748 Z-1.068
N595 G02 X38.998 Y112.404 Z-1.407 I4.763
N600 G01 X38.996 Y112.405 Z-1.408
N605 X19 Z-2.455
N610 G02 X23.763 Y107.642 Z-2.847 J-4.763
N615 G01 Y92.358 Z-3.648
N620 G02 X19 Y87.596 Z-4.041 I-4.763
N625 G01 X39 Z-5.089
N630 G02 X35.237 Y92.252 Z-5.428 I1 J4.656
N635 G01 Y107.748 Z-6.24
N640 G02 X38.998 Y112.404 Z-6.579 I4.763
N645 G01 X38.996 Y112.405
N650 X19 Z-7.627
N655 G02 X23.763 Y107.642 Z-8.019 J-4.763
N660 G01 Y92.358 Z-8.82
N665 G02 X19 Y87.596 Z-9.212 I-4.763
N670 G01 X39 Z-10.26
N675 G02 X35.237 Y92.252 Z-10.6 I1 J4.656
N680 G01 Y107.748 Z-11.412
N685 G02 X38.998 Y112.404 Z-11.751 I4.763
N690 G01 X38.996 Y112.405
N695 X19 Z-12.799
N700 G02 X23.763 Y107.642 Z-13.191 J-4.763
N705 G01 Y92.358 Z-13.992
N710 G02 X19 Y87.596 Z-14.384 I-4.763
N715 G01 X39 Z-15.432
N720 G02 X35.237 Y92.252 Z-15.772 I1 J4.656
N725 G01 Y107.748 Z-16.584
N730 G02 X38.998 Y112.404 Z-16.923 I4.763
N735 G01 X38.996 Y112.405
N740 X19 Z-17.971
N745 G02 X23.763 Y107.642 Z-18.363 J-4.763
N750 G01 Y92.358 Z-19.164
N755 G02 X19 Y87.596 Z-19.556 I-4.763
N760 G01 X39 Z-20.604
N765 G02 X35.237 Y92.252 Z-20.943 I1 J4.656
N770 G01 Y93.333 Z-21
N775 Y107.748 F780
N780 G02 X38.998 Y112.404 I4.763
N785 G01 X38.996 Y112.405
N790 X19
N795 G02 X23.763 Y107.642 J-4.763
N800 G01 Y92.358
N805 G02 X19 Y87.596 I-4.763
N810 G01 X39
N815 G02 X35.237 Y92.252 I1 J4.656
N820 G01 Y93.333
N825 G03 X34.285 Y94.286 I-0.952
N830 G01 X33.333
N835 X33.218 Z-20.993
N840 X33.105 Z-20.972
N845 X32.995 Z-20.938
N850 X32.89 Z-20.891
N855 X32.791 Z-20.831
N860 X32.701 Z-20.76
N865 X32.62 Z-20.679
N870 X32.549 Z-20.589
N875 X32.489 Z-20.49
N880 X32.442 Z-20.385
N885 X32.408 Z-20.275
N890 X32.387 Z-20.162
N895 X32.38 Z-20.048
N900 Z15
(When using Fusion 360 for Personal Use, the feedrate of)
(rapid moves is reduced to match the feedrate of cutting)
(moves, which can increase machining time. Unrestricted rapid)
(moves are available with a Fusion 360 Subscription.)

(2D Contour4)
N905 G00 X32.38 Y12.492
N910 G01 Z15 F780
N915 Z5
N920 Z3.453 F260
N925 X32.387 Z3.338 F780
N930 X32.408 Z3.225
N935 X32.442 Z3.115
N940 X32.489 Z3.01
N945 X32.549 Z2.911
N950 X32.62 Z2.821
N955 X32.701 Z2.74
N960 X32.791 Z2.669
N965 X32.89 Z2.609
N970 X32.995 Z2.562
N975 X33.105 Z2.528
N980 X33.218 Z2.507
N985 X33.333 Z2.5
N990 X34.285
N995 G03 X35.237 Y13.444 J0.952
N1000 G01 Y57.642 Z2.114 F260
N1005 G02 X40 Y62.404 Z2.049 I4.763
N1010 G01 X0 Z1.7
N1015 G02 X-4.762 Y67.167 Z1.635 J4.763
N1020 G01 Y132.833 Z1.062
N1025 G02 X0 Y137.596 Z0.996 I4.762
N1030 G01 X40 Z0.647
N1035 G02 X35.237 Y142.358 Z0.582 J4.762
N1040 G01 Y200 Z0.079
N1045 G02 X40 Y204.762 Z0.014 I4.763
N1050 G01 X100 Z-0.51
N1055 G02 X104.762 Y200 Z-0.575 J-4.762
N1060 G01 Y142.358 Z-1.078
N1065 G02 X100.001 Y137.596 Z-1.144 I-4.762
N1070 G01 X140 Z-1.493
N1075 G02 X144.762 Y132.833 Z-1.558 J-4.763
N1080 G01 Y67.167 Z-2.131
N1085 G02 X140 Y62.404 Z-2.196 I-4.762
N1090 G01 X100 Z-2.545
N1095 G02 X104.762 Y57.642 Z-2.611 J-4.763
N1100 G01 Y0 Z-3.114
N1105 G02 X100 Y-4.762 Z-3.179 I-4.762
N1110 G01 X40 Z-3.703
N1115 G02 X35.237 Y0 Z-3.768 J4.762
N1120 G01 Y57.642 Z-4.271
N1125 G02 X40 Y62.404 Z-4.336 I4.763
N1130 G01 X0 Z-4.685
N1135 G02 X-4.762 Y67.167 Z-4.751 J4.763
N1140 G01 Y132.833 Z-5.324
N1145 G02 X0 Y137.596 Z-5.389 I4.762
N1150 G01 X40 Z-5.738
N1155 G02 X35.237 Y142.358 Z-5.803 J4.762
N1160 G01 Y200 Z-6.306
N1165 G02 X40 Y204.762 Z-6.372 I4.763
N1170 G01 X100 Z-6.895
N1175 G02 X104.762 Y200 Z-6.96 J-4.762
N1180 G01 Y142.358 Z-7.463
N1185 G02 X100.001 Y137.596 Z-7.529 I-4.762
N1190 G01 X140 Z-7.878
N1195 G02 X144.762 Y132.833 Z-7.943 J-4.763
N1200 G01 Y67.167 Z-8.516
N1205 G02 X140 Y62.404 Z-8.581 I-4.762
N1210 G01 X100 Z-8.931
N1215 G02 X104.762 Y57.642 Z-8.996 J-4.763
N1220 G01 Y0 Z-9.499
N1225 G02 X100 Y-4.762 Z-9.564 I-4.762
N1230 G01 X40 Z-10.088
N1235 G02 X35.237 Y0 Z-10.153 J4.762
N1240 G01 Y57.642 Z-10.656
N1245 G02 X40 Y62.404 Z-10.721 I4.763
N1250 G01 X0 Z-11.07
N1255 G02 X-4.762 Y67.167 Z-11.136 J4.763
N1260 G01 Y132.833 Z-11.709
N1265 G02 X0 Y137.596 Z-11.774 I4.762
N1270 G01 X40 Z-12.123
N1275 G02 X35.237 Y142.358 Z-12.188 J4.762
N1280 G01 Y200 Z-12.691
N1285 G02 X40 Y204.762 Z-12.757 I4.763
N1290 G01 X100 Z-13.28
N1295 G02 X104.762 Y200 Z-13.346 J-4.762
N1300 G01 Y142.358 Z-13.849
N1305 G02 X100.001 Y137.596 Z-13.914 I-4.762
N1310 G01 X140 Z-14.263
N1315 G02 X144.762 Y132.833 Z-14.328 J-4.763
N1320 G01 Y67.167 Z-14.901
N1325 G02 X140 Y62.404 Z-14.967 I-4.762
N1330 G01 X100 Z-15.316
N1335 G02 X104.762 Y57.642 Z-15.381 J-4.763
N1340 G01 Y0 Z-15.884
N1345 G02 X100 Y-4.762 Z-15.949 I-4.762
N1350 G01 X90.2 Z-16.035
N1355 Z-16
N1360 X71.15
N1365 Z-16.201
N1370 X64.781 Z-16.257
N1375 Z-16
N1380 X45.731
N1385 Z-16.423
N1390 X40 Z-16.473
N1395 G02 X35.237 Y0 Z-16.538 J4.762
N1400 G01 Y57.642 Z-17.041
N1405 G02 X40 Y62.404 Z-17.107 I4.763
N1410 G01 X0 Z-17.456
N1415 G02 X-4.762 Y67.167 Z-17.521 J4.763
N1420 G01 Y77.934 Z-17.615
N1425 Z-16
N1430 Y96.984
N1435 Z-17.781
N1440 Y111.475 Z-17.908
N1445 Z-16
N1450 Y130.525
N1455 Z-18.074
N1460 Y132.833 Z-18.094
N1465 G02 X0 Y137.596 Z-18.159 I4.762
N1470 G01 X40 Z-18.508
N1475 G02 X35.237 Y142.358 Z-18.574 J4.762
N1480 G01 Y200 Z-19.077
N1485 G02 X40 Y204.762 Z-19.142 I4.763
N1490 G01 X48.464 Z-19.216
N1495 Z-16
N1500 X67.514
N1505 Z-19.382
N1510 X81.335 Z-19.503
N1515 Z-16
N1520 X100
N1525 G02 X100.385 Y204.747 J-4.762
N1530 G01 Z-19.669
N1535 G02 X104.762 Y200 Z-19.731 I-0.385 J-4.747
N1540 G01 Y142.358 Z-20.234
N1545 G02 X100.001 Y137.596 Z-20.299 I-4.762
N1550 G01 X140 Z-20.648
N1555 G02 X144.762 Y132.833 Z-20.713 J-4.763
N1560 G01 Y124.036 Z-20.79
N1565 Z-16
N1570 Y104.986
N1575 Z-20.956
N1580 Y100 Z-21
N1585 Y92.151 F780
N1590 Z-16
N1595 Y73.101
N1600 Z-21 F260
N1605 Y67.167 F780
N1610 G02 X140 Y62.404 I-4.762
N1615 G01 X100
N1620 G02 X104.762 Y57.642 J-4.763
N1625 G01 Y0
N1630 G02 X100 Y-4.762 I-4.762
N1635 G01 X90.2
N1640 Z-16
N1645 X71.15
N1650 Z-21 F260
N1655 X64.781 F780
N1660 Z-16
N1665 X45.731
N1670 Z-21 F260
N1675 X40 F780
N1680 G02 X35.237 Y0 J4.762
N1685 G01 Y57.642
N1690 G02 X40 Y62.404 I4.763
N1695 G01 X0
N1700 G02 X-4.762 Y67.167 J4.763
N1705 G01 Y77.934
N1710 Z-16
N1715 Y96.984
N1720 Z-21 F260
N1725 Y111.475 F780
N1730 Z-16
N1735 Y130.525
N1740 Z-21 F260
N1745 Y132.833 F780
N1750 G02 X0 Y137.596 I4.762
N1755 G01 X40
N1760 G02 X35.237 Y142.358 J4.762
N1765 G01 Y200
N1770 G02 X40 Y204.762 I4.763
N1775 G01 X48.464
N1780 Z-16
N1785 X67.514
N1790 Z-21 F260
N1795 X81.335 F780
N1800 Z-16
N1805 X100
N1810 G02 X100.385 Y204.747 J-4.762
N1815 G01 Z-21 F260
N1820 G02 X104.762 Y200 I-0.385 J-4.747 F780
N1825 G01 Y142.358
N1830 G02 X100.001 Y137.596 I-4.762
N1835 G01 X140
N1840 G02 X144.762 Y132.833 J-4.763
N1845 G01 Y124.036
N1850 Z-16
N1855 Y104.986
N1860 Z-21 F260
N1865 Y100 F780
N1870 G03 X145.715 Y99.048 I0.952
N1875 G01 X146.667
N1880 X146.782 Z-20.993
N1885 X146.895 Z-20.972
N1890 X147.005 Z-20.938
N1895 X147.11 Z-20.891
N1900 X147.209 Z-20.831
N1905 X147.299 Z-20.76
N1910 X147.38 Z-20.679
N1915 X147.451 Z-20.589
N1920 X147.511 Z-20.49
N1925 X147.558 Z-20.385
N1930 X147.592 Z-20.275
N1935 X147.613 Z-20.162
N1940 X147.62 Z-20.048
N1945 Z15
N1950 G28 G91 Z0
N1955 G90
N1960 M30
%
