%
(side)
(T1 D=9.525 CR=0 - ZMIN=-21 - flat end mill)
G21
N10 G90
(When using Fusion 360 for Personal Use, the feedrate of)
(rapid moves is reduced to match the feedrate of cutting)
(moves, which can increase machining time. Unrestricted rapid)
(moves are available with a Fusion 360 Subscription.)
N15 G28 G91 Z0
N20 G90

(2D Contour5)
N25 T1
N30 M06
N35 S13000
N40 M04
N45 G90
N50 G00 X42.844 Y76.213
N55 Z15
N60 G01 Z5 F780
N65 Z3.453 F260
N70 Y76.22 Z3.338 F780
N75 Y76.241 Z3.225
N80 Y76.275 Z3.115
N85 Y76.322 Z3.01
N90 Y76.382 Z2.911
N95 Y76.453 Z2.821
N100 Y76.534 Z2.74
N105 Y76.625 Z2.669
N110 Y76.723 Z2.609
N115 Y76.828 Z2.562
N120 Y76.938 Z2.528
N125 Y77.051 Z2.507
N130 Y77.166 Z2.5
N135 Y78.118
N140 G03 X41.892 Y79.071 I-0.952
N145 G01 X20 Z2.118 F260
N150 G02 Y70.929 Z1.947 I-2.472 J-4.071
N155 G01 X80 Z0.9
N160 G02 X75.238 Y75.692 Z0.77 J4.763
N165 G01 Y124.308 Z-0.079
N170 G02 X79.999 Y129.07 Z-0.21 I4.762
N175 G01 X20.001 Z-1.257
N180 G02 Y120.929 Z-1.427 I-2.472 J-4.07
N185 G01 X50 Z-1.951
N190 G02 X54.763 Y116.167 Z-2.082 J-4.762
N195 G01 Y83.833 Z-2.646
N200 G02 X50 Y79.071 Z-2.776 I-4.763
N205 G01 X20 Z-3.3
N210 G02 Y70.929 Z-3.471 I-2.472 J-4.071
N215 G01 X80 Z-4.518
N220 G02 X75.238 Y75.692 Z-4.648 J4.763
N225 G01 Y124.308 Z-5.497
N230 G02 X79.999 Y129.07 Z-5.628 I4.762
N235 G01 X20.001 Z-6.675
N240 G02 Y120.929 Z-6.845 I-2.472 J-4.07
N245 G01 X50 Z-7.369
N250 G02 X54.763 Y116.167 Z-7.5 J-4.762
N255 G01 Y83.833 Z-8.064
N260 G02 X50 Y79.071 Z-8.195 I-4.763
N265 G01 X20 Z-8.718
N270 G02 Y70.929 Z-8.889 I-2.472 J-4.071
N275 G01 X80 Z-9.936
N280 G02 X75.238 Y75.692 Z-10.066 J4.763
N285 G01 Y124.308 Z-10.915
N290 G02 X79.999 Y129.07 Z-11.046 I4.762
N295 G01 X20.001 Z-12.093
N300 G02 Y120.929 Z-12.263 I-2.472 J-4.07
N305 G01 X50 Z-12.787
N310 G02 X54.763 Y116.167 Z-12.918 J-4.762
N315 G01 Y83.833 Z-13.482
N320 G02 X50 Y79.071 Z-13.613 I-4.763
N325 G01 X20 Z-14.136
N330 G02 Y70.929 Z-14.307 I-2.472 J-4.071
N335 G01 X80 Z-15.354
N340 G02 X75.238 Y75.692 Z-15.485 J4.763
N345 G01 Y124.308 Z-16.333
N350 G02 X79.999 Y129.07 Z-16.464 I4.762
N355 G01 X20.001 Z-17.511
N360 G02 Y120.929 Z-17.681 I-2.472 J-4.07
N365 G01 X50 Z-18.205
N370 G02 X54.763 Y116.167 Z-18.336 J-4.762
N375 G01 Y83.833 Z-18.9
N380 G02 X50 Y79.071 Z-19.031 I-4.763
N385 G01 X20 Z-19.554
N390 G02 Y70.929 Z-19.725 I-2.472 J-4.071
N395 G01 X80 Z-20.772
N400 G02 X75.238 Y75.692 Z-20.903 J4.763
N405 G01 Y81.276 Z-21
N410 Y124.308 F780
N415 G02 X79.999 Y129.07 I4.762
N420 G01 X20.001
N425 G02 Y120.929 I-2.472 J-4.07
N430 G01 X50
N435 G02 X54.763 Y116.167 J-4.762
N440 G01 Y83.833
N445 G02 X50 Y79.071 I-4.763
N450 G01 X20
N455 G02 Y70.929 I-2.472 J-4.071
N460 G01 X80
N465 G02 X75.238 Y75.692 J4.763
N470 G01 Y81.276
N475 G03 X74.285 Y82.228 I-0.952
N480 G01 X73.332
N485 X73.218 Z-20.993
N490 X73.105 Z-20.972
N495 X72.995 Z-20.938
N500 X72.89 Z-20.891
N505 X72.791 Z-20.831
N510 X72.701 Z-20.76
N515 X72.62 Z-20.679
N520 X72.549 Z-20.589
N525 X72.489 Z-20.49
N530 X72.442 Z-20.385
N535 X72.408 Z-20.275
N540 X72.387 Z-20.162
N545 X72.38 Z-20.048
N550 Z15
(When using Fusion 360 for Personal Use, the feedrate of)
(rapid moves is reduced to match the feedrate of cutting)
(moves, which can increase machining time. Unrestricted rapid)
(moves are available with a Fusion 360 Subscription.)

(2D Contour6)
N555 G00 X33.39 Y207.62
N560 G01 Z15 F780
N565 Z5
N570 Z3.453 F260
N575 Y207.613 Z3.338 F780
N580 Y207.592 Z3.225
N585 Y207.558 Z3.115
N590 Y207.511 Z3.01
N595 Y207.451 Z2.911
N600 Y207.38 Z2.821
N605 Y207.299 Z2.74
N610 Y207.209 Z2.669
N615 Y207.11 Z2.609
N620 Y207.005 Z2.562
N625 Y206.895 Z2.528
N630 Y206.782 Z2.507
N635 Y206.667 Z2.5
N640 Y205.715
N645 G03 X34.342 Y204.762 I0.952
N650 G01 X100 Z1.927 F260
N655 G02 X104.762 Y200 Z1.862 J-4.762
N660 G01 Y0 Z0.116
N665 G02 X100 Y-4.762 Z0.051 I-4.762
N670 G01 X0 Z-0.822
N675 G02 X-4.762 Y0 Z-0.887 J4.762
N680 G01 Y200 Z-2.632
N685 G02 X0 Y204.762 Z-2.698 I4.762
N690 G01 X100 Z-3.57
N695 G02 X104.762 Y200 Z-3.636 J-4.762
N700 G01 Y0 Z-5.381
N705 G02 X100 Y-4.762 Z-5.446 I-4.762
N710 G01 X0 Z-6.319
N715 G02 X-4.762 Y0 Z-6.384 J4.762
N720 G01 Y200 Z-8.13
N725 G02 X0 Y204.762 Z-8.195 I4.762
N730 G01 X100 Z-9.068
N735 G02 X104.762 Y200 Z-9.133 J-4.762
N740 G01 Y0 Z-10.878
N745 G02 X100 Y-4.762 Z-10.943 I-4.762
N750 G01 X0 Z-11.816
N755 G02 X-4.762 Y0 Z-11.881 J4.762
N760 G01 Y200 Z-13.627
N765 G02 X0 Y204.762 Z-13.692 I4.762
N770 G01 X100 Z-14.565
N775 G02 X104.762 Y200 Z-14.63 J-4.762
N780 G01 Y0 Z-16.375
N785 G02 X100 Y-4.762 Z-16.441 I-4.762
N790 G01 X95.239 Z-16.482
N795 Z-16
N800 X76.189
N805 Z-16.649
N810 X4.762 Z-17.272
N815 Z-16
N820 X0
N825 G02 X-4.762 Y0 J4.762
N830 G01 Y9.525
N835 Z-17.462
N840 Y76.189 Z-18.044
N845 Z-16
N850 Y95.239
N855 Z-18.21
N860 Y161.904 Z-18.792
N865 Z-16
N870 Y180.954
N875 Z-18.958
N880 Y200 Z-19.124
N885 G02 X0 Y204.762 Z-19.189 I4.762
N890 G01 X47.618 Z-19.605
N895 Z-16
N900 X66.668
N905 Z-19.771
N910 X100 Z-20.062
N915 G02 X104.762 Y200 Z-20.127 J-4.762
N920 G01 Y166.668 Z-20.418
N925 Z-16
N930 Y147.618
N935 Z-20.584
N940 Y100 Z-21
N945 Y80.954 F780
N950 Z-16
N955 Y61.904
N960 Z-21 F260
N965 Y0 F780
N970 G02 X100 Y-4.762 I-4.762
N975 G01 X95.239
N980 Z-16
N985 X76.189
N990 Z-21 F260
N995 X4.762 F780
N1000 Z-16
N1005 X0
N1010 G02 X-4.762 Y0 J4.762
N1015 G01 Y9.525
N1020 Z-21 F260
N1025 Y76.189 F780
N1030 Z-16
N1035 Y95.239
N1040 Z-21 F260
N1045 Y161.904 F780
N1050 Z-16
N1055 Y180.954
N1060 Z-21 F260
N1065 Y200 F780
N1070 G02 X0 Y204.762 I4.762
N1075 G01 X47.618
N1080 Z-16
N1085 X66.668
N1090 Z-21 F260
N1095 X100 F780
N1100 G02 X104.762 Y200 J-4.762
N1105 G01 Y166.668
N1110 Z-16
N1115 Y147.618
N1120 Z-21 F260
N1125 Y100 F780
N1130 G03 X105.715 Y99.048 I0.952
N1135 G01 X106.668
N1140 X106.782 Z-20.993
N1145 X106.895 Z-20.972
N1150 X107.005 Z-20.938
N1155 X107.11 Z-20.891
N1160 X107.209 Z-20.831
N1165 X107.299 Z-20.76
N1170 X107.38 Z-20.679
N1175 X107.451 Z-20.589
N1180 X107.511 Z-20.49
N1185 X107.558 Z-20.385
N1190 X107.592 Z-20.275
N1195 X107.613 Z-20.162
N1200 X107.62 Z-20.048
N1205 Z15
N1210 G28 G91 Z0
N1215 G90
N1220 M30
%
