%
(test_side)
(T1 D=9.525 CR=0 - ZMIN=-22 - flat end mill)
G21
N10 G90
(When using Fusion 360 for Personal Use, the feedrate of)
(rapid moves is reduced to match the feedrate of cutting)
(moves, which can increase machining time. Unrestricted rapid)
(moves are available with a Fusion 360 Subscription.)
N15 G28 G91 Z0
N20 G90

(2D Contour5)
N25 T1
N30 M06
N35 S13000
N40 M04
N45 G90
N50 G00 X32.894 Y124.287
N55 Z15
N60 G01 Z5 F780
N65 Z3.453 F260
N70 Y124.28 Z3.338 F780
N75 Y124.259 Z3.225
N80 Y124.225 Z3.115
N85 Y124.178 Z3.01
N90 Y124.118 Z2.911
N95 Y124.047 Z2.821
N100 Y123.966 Z2.74
N105 Y123.876 Z2.669
N110 Y123.777 Z2.609
N115 Y123.672 Z2.562
N120 Y123.562 Z2.528
N125 Y123.449 Z2.507
N130 Y123.335 Z2.5
N135 Y122.382
N140 G03 X33.846 Y121.429 I0.952
N145 G01 X50 Z2.218 F260
N150 G02 X54.763 Y116.667 Z2.087 J-4.762
N155 G01 Y83.333 Z1.506
N160 G02 X50 Y78.571 Z1.375 I-4.763
N165 G01 X20 Z0.851
N170 G02 Y71.429 Z0.71 I-3.151 J-3.571
N175 G01 X80 Z-0.337
N180 G02 X75.238 Y76.192 Z-0.467 J4.763
N185 G01 Y123.808 Z-1.299
N190 G02 X79.999 Y128.57 Z-1.429 I4.762
N195 G01 X20 Z-2.476
N200 G02 Y121.429 Z-2.617 I-3.152 J-3.57
N205 G01 X50 Z-3.141
N210 G02 X54.763 Y116.667 Z-3.272 J-4.762
N215 G01 Y83.333 Z-3.853
N220 G02 X50 Y78.571 Z-3.984 I-4.763
N225 G01 X20 Z-4.508
N230 G02 Y71.429 Z-4.649 I-3.151 J-3.571
N235 G01 X80 Z-5.696
N240 G02 X75.238 Y76.192 Z-5.826 J4.763
N245 G01 Y123.808 Z-6.658
N250 G02 X79.999 Y128.57 Z-6.788 I4.762
N255 G01 X20 Z-7.836
N260 G02 Y121.429 Z-7.976 I-3.152 J-3.57
N265 G01 X50 Z-8.5
N270 G02 X54.763 Y116.667 Z-8.631 J-4.762
N275 G01 Y83.333 Z-9.212
N280 G02 X50 Y78.571 Z-9.343 I-4.763
N285 G01 X20 Z-9.867
N290 G02 Y71.429 Z-10.008 I-3.151 J-3.571
N295 G01 X80 Z-11.055
N300 G02 X75.238 Y76.192 Z-11.186 J4.763
N305 G01 Y123.808 Z-12.017
N310 G02 X79.999 Y128.57 Z-12.147 I4.762
N315 G01 X20 Z-13.195
N320 G02 Y121.429 Z-13.335 I-3.152 J-3.57
N325 G01 X50 Z-13.859
N330 G02 X54.763 Y116.667 Z-13.99 J-4.762
N335 G01 Y83.333 Z-14.572
N340 G02 X50 Y78.571 Z-14.702 I-4.763
N345 G01 X20 Z-15.226
N350 G02 Y71.429 Z-15.367 I-3.151 J-3.571
N355 G01 X80 Z-16.414
N360 G02 X75.238 Y76.192 Z-16.545 J4.763
N365 G01 Y123.808 Z-17.376
N370 G02 X79.999 Y128.57 Z-17.506 I4.762
N375 G01 X20 Z-18.554
N380 G02 Y121.429 Z-18.695 I-3.152 J-3.57
N385 G01 X50 Z-19.218
N390 G02 X54.763 Y116.667 Z-19.349 J-4.762
N395 G01 Y83.333 Z-19.931
N400 G02 X50 Y78.571 Z-20.061 I-4.763
N405 G01 X20 Z-20.585
N410 G02 Y71.429 Z-20.726 I-3.151 J-3.571
N415 G01 X80 Z-21.773
N420 G02 X75.238 Y76.192 Z-21.904 J4.763
N425 G01 Y81.711 Z-22
N430 Y123.808 F780
N435 G02 X79.999 Y128.57 I4.762
N440 G01 X20
N445 G02 Y121.429 I-3.152 J-3.57
N450 G01 X50
N455 G02 X54.763 Y116.667 J-4.762
N460 G01 Y83.333
N465 G02 X50 Y78.571 I-4.763
N470 G01 X20
N475 G02 Y71.429 I-3.151 J-3.571
N480 G01 X80
N485 G02 X75.238 Y76.192 J4.763
N490 G01 Y81.711
N495 G03 X74.285 Y82.663 I-0.952
N500 G01 X73.332
N505 X73.218 Z-21.993
N510 X73.105 Z-21.972
N515 X72.995 Z-21.938
N520 X72.89 Z-21.891
N525 X72.791 Z-21.831
N530 X72.701 Z-21.76
N535 X72.62 Z-21.679
N540 X72.549 Z-21.589
N545 X72.489 Z-21.49
N550 X72.442 Z-21.385
N555 X72.408 Z-21.275
N560 X72.387 Z-21.162
N565 X72.38 Z-21.048
N570 Z15
(When using Fusion 360 for Personal Use, the feedrate of)
(rapid moves is reduced to match the feedrate of cutting)
(moves, which can increase machining time. Unrestricted rapid)
(moves are available with a Fusion 360 Subscription.)

(2D Contour6)
N575 G00 X-7.62 Y126.282
N580 G01 Z15 F780
N585 Z5
N590 Z3.453 F260
N595 X-7.613 Z3.338 F780
N600 X-7.592 Z3.225
N605 X-7.558 Z3.115
N610 X-7.511 Z3.01
N615 X-7.451 Z2.911
N620 X-7.38 Z2.821
N625 X-7.299 Z2.74
N630 X-7.209 Z2.669
N635 X-7.11 Z2.609
N640 X-7.005 Z2.562
N645 X-6.895 Z2.528
N650 X-6.782 Z2.507
N655 X-6.668 Z2.5
N660 X-5.715
N665 G03 X-4.762 Y127.235 J0.952
N670 G01 Y200 Z1.865 F260
N675 G02 X0 Y204.762 Z1.8 I4.762
N680 G01 X100 Z0.927
N685 G02 X104.762 Y200 Z0.862 J-4.762
N690 G01 Y0 Z-0.884
N695 G02 X100 Y-4.762 Z-0.949 I-4.762
N700 G01 X0 Z-1.822
N705 G02 X-4.762 Y0 Z-1.887 J4.762
N710 G01 Y200 Z-3.632
N715 G02 X0 Y204.762 Z-3.698 I4.762
N720 G01 X100 Z-4.57
N725 G02 X104.762 Y200 Z-4.636 J-4.762
N730 G01 Y0 Z-6.381
N735 G02 X100 Y-4.762 Z-6.446 I-4.762
N740 G01 X0 Z-7.319
N745 G02 X-4.762 Y0 Z-7.384 J4.762
N750 G01 Y200 Z-9.13
N755 G02 X0 Y204.762 Z-9.195 I4.762
N760 G01 X100 Z-10.068
N765 G02 X104.762 Y200 Z-10.133 J-4.762
N770 G01 Y0 Z-11.878
N775 G02 X100 Y-4.762 Z-11.943 I-4.762
N780 G01 X0 Z-12.816
N785 G02 X-4.762 Y0 Z-12.881 J4.762
N790 G01 Y200 Z-14.627
N795 G02 X0 Y204.762 Z-14.692 I4.762
N800 G01 X100 Z-15.565
N805 G02 X104.762 Y200 Z-15.63 J-4.762
N810 G01 Y0 Z-17.375
N815 G02 X100 Y-4.762 Z-17.441 I-4.762
N820 G01 X95.239 Z-17.482
N825 Z-17
N830 X76.189
N835 Z-17.649
N840 X4.762 Z-18.272
N845 Z-17
N850 X0
N855 G02 X-4.762 Y0 J4.762
N860 G01 Y9.525
N865 Z-18.462
N870 Y76.189 Z-19.044
N875 Z-17
N880 Y95.239
N885 Z-19.21
N890 Y161.904 Z-19.792
N895 Z-17
N900 Y180.954
N905 Z-19.958
N910 Y200 Z-20.124
N915 G02 X0 Y204.762 Z-20.189 I4.762
N920 G01 X47.618 Z-20.605
N925 Z-17
N930 X66.668
N935 Z-20.771
N940 X100 Z-21.062
N945 G02 X104.762 Y200 Z-21.127 J-4.762
N950 G01 Y166.668 Z-21.418
N955 Z-17
N960 Y147.618
N965 Z-21.584
N970 Y100 Z-22
N975 Y80.954 F780
N980 Z-17
N985 Y61.904
N990 Z-22 F260
N995 Y0 F780
N1000 G02 X100 Y-4.762 I-4.762
N1005 G01 X95.239
N1010 Z-17
N1015 X76.189
N1020 Z-22 F260
N1025 X4.762 F780
N1030 Z-17
N1035 X0
N1040 G02 X-4.762 Y0 J4.762
N1045 G01 Y9.525
N1050 Z-22 F260
N1055 Y76.189 F780
N1060 Z-17
N1065 Y95.239
N1070 Z-22 F260
N1075 Y161.904 F780
N1080 Z-17
N1085 Y180.954
N1090 Z-22 F260
N1095 Y200 F780
N1100 G02 X0 Y204.762 I4.762
N1105 G01 X47.618
N1110 Z-17
N1115 X66.668
N1120 Z-22 F260
N1125 X100 F780
N1130 G02 X104.762 Y200 J-4.762
N1135 G01 Y166.668
N1140 Z-17
N1145 Y147.618
N1150 Z-22 F260
N1155 Y100 F780
N1160 G03 X105.715 Y99.048 I0.952
N1165 G01 X106.668
N1170 X106.782 Z-21.993
N1175 X106.895 Z-21.972
N1180 X107.005 Z-21.938
N1185 X107.11 Z-21.891
N1190 X107.209 Z-21.831
N1195 X107.299 Z-21.76
N1200 X107.38 Z-21.679
N1205 X107.451 Z-21.589
N1210 X107.511 Z-21.49
N1215 X107.558 Z-21.385
N1220 X107.592 Z-21.275
N1225 X107.613 Z-21.162
N1230 X107.62 Z-21.048
N1235 Z15
N1240 G28 G91 Z0
N1245 G90
N1250 M30
%
